(Exported by FreeCAD)
(Post Processor: script_module)
(Output Time:2025-06-23 22:27:31.409161)
(begin preamble)
G17 G54 G40 G49 G80 G90
G21
(begin operation: Fixture)
(machine units: mm/min)
G54 
(finish operation: Fixture)
(begin operation: 3mm_Endmill_doubleFlute001)
(machine units: mm/min)
(3mm_Endmill_doubleFlute001) 
M5
M6 T1 
G43 H1 
M3 S24000 
(finish operation: 3mm_Endmill_doubleFlute001)
(begin operation: DressupDogbone)
(machine units: mm/min)
(Profile) 
(Compensated Tool Path. Diameter: 3.0) 
G0 Z5.000 
G0 X74.061 Y151.561 
G0 Z3.000 
G1 X74.061 Y151.561 Z-3.000 F500.000 
G2 X74.500 Y150.500 Z-3.000 I-1.061 J-1.061 F1200.000 
G1 X74.500 Y10.000 Z-3.000 F1200.000 
G2 X73.000 Y8.500 Z-3.000 I-1.500 J0.000 F1200.000 
G1 X62.000 Y8.500 Z-3.000 F1200.000 
G2 X60.500 Y10.000 Z-3.000 I0.000 J1.500 F1200.000 
G1 X60.500 Y14.500 Z-3.000 F1200.000 
G1 X60.939 Y14.939 
G1 X60.500 Y14.500 
G1 X52.500 Y14.500 Z-3.000 F1200.000 
G1 X52.061 Y14.939 
G1 X52.500 Y14.500 
G1 X52.500 Y10.000 Z-3.000 F1200.000 
G2 X51.000 Y8.500 Z-3.000 I-1.500 J0.000 F1200.000 
G1 X29.000 Y8.500 Z-3.000 F1200.000 
G2 X27.500 Y10.000 Z-3.000 I0.000 J1.500 F1200.000 
G1 X27.500 Y14.500 Z-3.000 F1200.000 
G1 X27.939 Y14.939 
G1 X27.500 Y14.500 
G1 X19.500 Y14.500 Z-3.000 F1200.000 
G1 X19.061 Y14.939 
G1 X19.500 Y14.500 
G1 X19.500 Y10.000 Z-3.000 F1200.000 
G2 X18.000 Y8.500 Z-3.000 I-1.500 J0.000 F1200.000 
G1 X7.000 Y8.500 Z-3.000 F1200.000 
G2 X5.500 Y10.000 Z-3.000 I0.000 J1.500 F1200.000 
G1 X5.500 Y58.915 Z-3.000 F1200.000 
G2 X7.000 Y60.415 Z-3.000 I1.500 J-0.000 F1200.000 
G1 X11.500 Y60.415 Z-3.000 F1200.000 
G1 X11.939 Y59.976 
G1 X11.500 Y60.415 
G1 X11.500 Y100.085 Z-3.000 F1200.000 
G1 X11.939 Y100.524 
G1 X11.500 Y100.085 
G1 X7.000 Y100.085 Z-3.000 F1200.000 
G2 X5.500 Y101.585 Z-3.000 I0.000 J1.500 F1200.000 
G1 X5.500 Y150.500 Z-3.000 F1200.000 
G2 X7.000 Y152.000 Z-3.000 I1.500 J-0.000 F1200.000 
G1 X18.000 Y152.000 Z-3.000 F1200.000 
G2 X19.500 Y150.500 Z-3.000 I-0.000 J-1.500 F1200.000 
G1 X19.500 Y146.000 Z-3.000 F1200.000 
G1 X19.061 Y145.561 
G1 X19.500 Y146.000 
G1 X27.500 Y146.000 Z-3.000 F1200.000 
G1 X27.939 Y145.561 
G1 X27.500 Y146.000 
G1 X27.500 Y150.500 Z-3.000 F1200.000 
G2 X29.000 Y152.000 Z-3.000 I1.500 J-0.000 F1200.000 
G1 X51.000 Y152.000 Z-3.000 F1200.000 
G2 X52.500 Y150.500 Z-3.000 I-0.000 J-1.500 F1200.000 
G1 X52.500 Y146.000 Z-3.000 F1200.000 
G1 X52.061 Y145.561 
G1 X52.500 Y146.000 
G1 X60.500 Y146.000 Z-3.000 F1200.000 
G1 X60.939 Y145.561 
G1 X60.500 Y146.000 
G1 X60.500 Y150.500 Z-3.000 F1200.000 
G2 X62.000 Y152.000 Z-3.000 I1.500 J-0.000 F1200.000 
G1 X73.000 Y152.000 Z-3.000 F1200.000 
G2 X74.061 Y151.561 Z-3.000 I-0.000 J-1.500 F1200.000 
G1 X74.061 Y151.561 Z-6.000 F500.000 
G2 X74.500 Y150.500 Z-6.000 I-1.061 J-1.061 F1200.000 
G1 X74.500 Y10.000 Z-6.000 F1200.000 
G2 X73.000 Y8.500 Z-6.000 I-1.500 J0.000 F1200.000 
G1 X62.000 Y8.500 Z-6.000 F1200.000 
G2 X60.500 Y10.000 Z-6.000 I0.000 J1.500 F1200.000 
G1 X60.500 Y14.500 Z-6.000 F1200.000 
G1 X60.939 Y14.939 
G1 X60.500 Y14.500 
G1 X52.500 Y14.500 Z-6.000 F1200.000 
G1 X52.061 Y14.939 
G1 X52.500 Y14.500 
G1 X52.500 Y10.000 Z-6.000 F1200.000 
G2 X51.000 Y8.500 Z-6.000 I-1.500 J0.000 F1200.000 
G1 X29.000 Y8.500 Z-6.000 F1200.000 
G2 X27.500 Y10.000 Z-6.000 I0.000 J1.500 F1200.000 
G1 X27.500 Y14.500 Z-6.000 F1200.000 
G1 X27.939 Y14.939 
G1 X27.500 Y14.500 
G1 X19.500 Y14.500 Z-6.000 F1200.000 
G1 X19.061 Y14.939 
G1 X19.500 Y14.500 
G1 X19.500 Y10.000 Z-6.000 F1200.000 
G2 X18.000 Y8.500 Z-6.000 I-1.500 J0.000 F1200.000 
G1 X7.000 Y8.500 Z-6.000 F1200.000 
G2 X5.500 Y10.000 Z-6.000 I0.000 J1.500 F1200.000 
G1 X5.500 Y58.915 Z-6.000 F1200.000 
G2 X7.000 Y60.415 Z-6.000 I1.500 J-0.000 F1200.000 
G1 X11.500 Y60.415 Z-6.000 F1200.000 
G1 X11.939 Y59.976 
G1 X11.500 Y60.415 
G1 X11.500 Y100.085 Z-6.000 F1200.000 
G1 X11.939 Y100.524 
G1 X11.500 Y100.085 
G1 X7.000 Y100.085 Z-6.000 F1200.000 
G2 X5.500 Y101.585 Z-6.000 I0.000 J1.500 F1200.000 
G1 X5.500 Y150.500 Z-6.000 F1200.000 
G2 X7.000 Y152.000 Z-6.000 I1.500 J-0.000 F1200.000 
G1 X18.000 Y152.000 Z-6.000 F1200.000 
G2 X19.500 Y150.500 Z-6.000 I-0.000 J-1.500 F1200.000 
G1 X19.500 Y146.000 Z-6.000 F1200.000 
G1 X19.061 Y145.561 
G1 X19.500 Y146.000 
G1 X27.500 Y146.000 Z-6.000 F1200.000 
G1 X27.939 Y145.561 
G1 X27.500 Y146.000 
G1 X27.500 Y150.500 Z-6.000 F1200.000 
G2 X29.000 Y152.000 Z-6.000 I1.500 J-0.000 F1200.000 
G1 X51.000 Y152.000 Z-6.000 F1200.000 
G2 X52.500 Y150.500 Z-6.000 I-0.000 J-1.500 F1200.000 
G1 X52.500 Y146.000 Z-6.000 F1200.000 
G1 X52.061 Y145.561 
G1 X52.500 Y146.000 
G1 X60.500 Y146.000 Z-6.000 F1200.000 
G1 X60.939 Y145.561 
G1 X60.500 Y146.000 
G1 X60.500 Y150.500 Z-6.000 F1200.000 
G2 X62.000 Y152.000 Z-6.000 I1.500 J-0.000 F1200.000 
G1 X73.000 Y152.000 Z-6.000 F1200.000 
G2 X74.061 Y151.561 Z-6.000 I-0.000 J-1.500 F1200.000 
G0 Z5.000 
G0 Z5.000 
G0 X74.061 Y151.561 
G0 X80.513 Y150.699 
G0 X80.513 Y150.699 Z3.000 
G1 X80.513 Y150.699 Z-3.000 F500.000 
G2 X82.000 Y152.000 Z-3.000 I1.487 J-0.199 F1200.000 
G1 X93.000 Y152.000 Z-3.000 F1200.000 
G2 X94.500 Y150.500 Z-3.000 I-0.000 J-1.500 F1200.000 
G1 X94.500 Y146.000 Z-3.000 F1200.000 
G1 X94.061 Y145.561 
G1 X94.500 Y146.000 
G1 X102.500 Y146.000 Z-3.000 F1200.000 
G1 X102.939 Y145.561 
G1 X102.500 Y146.000 
G1 X102.500 Y150.500 Z-3.000 F1200.000 
G2 X104.000 Y152.000 Z-3.000 I1.500 J-0.000 F1200.000 
G1 X126.000 Y152.000 Z-3.000 F1200.000 
G2 X127.500 Y150.500 Z-3.000 I-0.000 J-1.500 F1200.000 
G1 X127.500 Y146.000 Z-3.000 F1200.000 
G1 X127.061 Y145.561 
G1 X127.500 Y146.000 
G1 X135.500 Y146.000 Z-3.000 F1200.000 
G1 X135.939 Y145.561 
G1 X135.500 Y146.000 
G1 X135.500 Y150.500 Z-3.000 F1200.000 
G2 X137.000 Y152.000 Z-3.000 I1.500 J-0.000 F1200.000 
G1 X148.000 Y152.000 Z-3.000 F1200.000 
G2 X149.500 Y150.500 Z-3.000 I-0.000 J-1.500 F1200.000 
G1 X149.500 Y101.585 Z-3.000 F1200.000 
G2 X148.000 Y100.085 Z-3.000 I-1.500 J0.000 F1200.000 
G1 X143.500 Y100.085 Z-3.000 F1200.000 
G1 X143.061 Y100.524 
G1 X143.500 Y100.085 
G1 X143.500 Y60.415 Z-3.000 F1200.000 
G1 X143.061 Y59.976 
G1 X143.500 Y60.415 
G1 X148.000 Y60.415 Z-3.000 F1200.000 
G2 X149.500 Y58.915 Z-3.000 I-0.000 J-1.500 F1200.000 
G1 X149.500 Y10.000 Z-3.000 F1200.000 
G2 X148.000 Y8.500 Z-3.000 I-1.500 J0.000 F1200.000 
G1 X137.000 Y8.500 Z-3.000 F1200.000 
G2 X135.500 Y10.000 Z-3.000 I0.000 J1.500 F1200.000 
G1 X135.500 Y14.500 Z-3.000 F1200.000 
G1 X135.939 Y14.939 
G1 X135.500 Y14.500 
G1 X127.500 Y14.500 Z-3.000 F1200.000 
G1 X127.061 Y14.939 
G1 X127.500 Y14.500 
G1 X127.500 Y10.000 Z-3.000 F1200.000 
G2 X126.000 Y8.500 Z-3.000 I-1.500 J0.000 F1200.000 
G1 X104.000 Y8.500 Z-3.000 F1200.000 
G2 X102.500 Y10.000 Z-3.000 I0.000 J1.500 F1200.000 
G1 X102.500 Y14.500 Z-3.000 F1200.000 
G1 X102.939 Y14.939 
G1 X102.500 Y14.500 
G1 X94.500 Y14.500 Z-3.000 F1200.000 
G1 X94.061 Y14.939 
G1 X94.500 Y14.500 
G1 X94.500 Y10.000 Z-3.000 F1200.000 
G2 X93.000 Y8.500 Z-3.000 I-1.500 J0.000 F1200.000 
G1 X82.000 Y8.500 Z-3.000 F1200.000 
G2 X80.500 Y10.000 Z-3.000 I0.000 J1.500 F1200.000 
G1 X80.500 Y150.500 Z-3.000 F1200.000 
G2 X80.513 Y150.699 Z-3.000 I1.500 J-0.000 F1200.000 
G1 X80.513 Y150.699 Z-6.000 F500.000 
G2 X82.000 Y152.000 Z-6.000 I1.487 J-0.199 F1200.000 
G1 X93.000 Y152.000 Z-6.000 F1200.000 
G2 X94.500 Y150.500 Z-6.000 I-0.000 J-1.500 F1200.000 
G1 X94.500 Y146.000 Z-6.000 F1200.000 
G1 X94.061 Y145.561 
G1 X94.500 Y146.000 
G1 X102.500 Y146.000 Z-6.000 F1200.000 
G1 X102.939 Y145.561 
G1 X102.500 Y146.000 
G1 X102.500 Y150.500 Z-6.000 F1200.000 
G2 X104.000 Y152.000 Z-6.000 I1.500 J-0.000 F1200.000 
G1 X126.000 Y152.000 Z-6.000 F1200.000 
G2 X127.500 Y150.500 Z-6.000 I-0.000 J-1.500 F1200.000 
G1 X127.500 Y146.000 Z-6.000 F1200.000 
G1 X127.061 Y145.561 
G1 X127.500 Y146.000 
G1 X135.500 Y146.000 Z-6.000 F1200.000 
G1 X135.939 Y145.561 
G1 X135.500 Y146.000 
G1 X135.500 Y150.500 Z-6.000 F1200.000 
G2 X137.000 Y152.000 Z-6.000 I1.500 J-0.000 F1200.000 
G1 X148.000 Y152.000 Z-6.000 F1200.000 
G2 X149.500 Y150.500 Z-6.000 I-0.000 J-1.500 F1200.000 
G1 X149.500 Y101.585 Z-6.000 F1200.000 
G2 X148.000 Y100.085 Z-6.000 I-1.500 J0.000 F1200.000 
G1 X143.500 Y100.085 Z-6.000 F1200.000 
G1 X143.061 Y100.524 
G1 X143.500 Y100.085 
G1 X143.500 Y60.415 Z-6.000 F1200.000 
G1 X143.061 Y59.976 
G1 X143.500 Y60.415 
G1 X148.000 Y60.415 Z-6.000 F1200.000 
G2 X149.500 Y58.915 Z-6.000 I-0.000 J-1.500 F1200.000 
G1 X149.500 Y10.000 Z-6.000 F1200.000 
G2 X148.000 Y8.500 Z-6.000 I-1.500 J0.000 F1200.000 
G1 X137.000 Y8.500 Z-6.000 F1200.000 
G2 X135.500 Y10.000 Z-6.000 I0.000 J1.500 F1200.000 
G1 X135.500 Y14.500 Z-6.000 F1200.000 
G1 X135.939 Y14.939 
G1 X135.500 Y14.500 
G1 X127.500 Y14.500 Z-6.000 F1200.000 
G1 X127.061 Y14.939 
G1 X127.500 Y14.500 
G1 X127.500 Y10.000 Z-6.000 F1200.000 
G2 X126.000 Y8.500 Z-6.000 I-1.500 J0.000 F1200.000 
G1 X104.000 Y8.500 Z-6.000 F1200.000 
G2 X102.500 Y10.000 Z-6.000 I0.000 J1.500 F1200.000 
G1 X102.500 Y14.500 Z-6.000 F1200.000 
G1 X102.939 Y14.939 
G1 X102.500 Y14.500 
G1 X94.500 Y14.500 Z-6.000 F1200.000 
G1 X94.061 Y14.939 
G1 X94.500 Y14.500 
G1 X94.500 Y10.000 Z-6.000 F1200.000 
G2 X93.000 Y8.500 Z-6.000 I-1.500 J0.000 F1200.000 
G1 X82.000 Y8.500 Z-6.000 F1200.000 
G2 X80.500 Y10.000 Z-6.000 I0.000 J1.500 F1200.000 
G1 X80.500 Y150.500 Z-6.000 F1200.000 
G2 X80.513 Y150.699 Z-6.000 I1.500 J-0.000 F1200.000 
G0 Z5.000 
G0 Z5.000 
G0 X80.513 Y150.699 
G0 X153.172 Y138.253 
G0 X153.172 Y138.253 Z3.000 
G1 X153.172 Y138.253 Z-3.000 F500.000 
G2 X154.650 Y139.500 Z-3.000 I1.478 J-0.253 F1200.000 
G1 X159.150 Y139.500 Z-3.000 F1200.000 
G1 X159.589 Y139.061 
G1 X159.150 Y139.500 
G1 X159.150 Y149.000 Z-3.000 F1200.000 
G2 X160.650 Y150.500 Z-3.000 I1.500 J-0.000 F1200.000 
G1 X203.320 Y150.500 Z-3.000 F1200.000 
G2 X204.820 Y149.000 Z-3.000 I-0.000 J-1.500 F1200.000 
G1 X204.820 Y144.500 Z-3.000 F1200.000 
G1 X204.381 Y144.061 
G1 X204.820 Y144.500 
G1 X244.490 Y144.500 Z-3.000 F1200.000 
G1 X244.929 Y144.061 
G1 X244.490 Y144.500 
G1 X244.490 Y149.000 Z-3.000 F1200.000 
G2 X245.990 Y150.500 Z-3.000 I1.500 J-0.000 F1200.000 
G1 X288.660 Y150.500 Z-3.000 F1200.000 
G2 X290.160 Y149.000 Z-3.000 I-0.000 J-1.500 F1200.000 
G1 X290.160 Y144.500 Z-3.000 F1200.000 
G1 X289.721 Y144.061 
G1 X290.160 Y144.500 
G1 X329.830 Y144.500 Z-3.000 F1200.000 
G1 X330.269 Y144.061 
G1 X329.830 Y144.500 
G1 X329.830 Y149.000 Z-3.000 F1200.000 
G2 X331.330 Y150.500 Z-3.000 I1.500 J-0.000 F1200.000 
G1 X416.670 Y150.500 Z-3.000 F1200.000 
G2 X418.170 Y149.000 Z-3.000 I-0.000 J-1.500 F1200.000 
G1 X418.170 Y144.500 Z-3.000 F1200.000 
G1 X417.731 Y144.061 
G1 X418.170 Y144.500 
G1 X457.840 Y144.500 Z-3.000 F1200.000 
G1 X458.279 Y144.061 
G1 X457.840 Y144.500 
G1 X457.840 Y149.000 Z-3.000 F1200.000 
G2 X459.340 Y150.500 Z-3.000 I1.500 J-0.000 F1200.000 
G1 X502.010 Y150.500 Z-3.000 F1200.000 
G2 X503.510 Y149.000 Z-3.000 I-0.000 J-1.500 F1200.000 
G1 X503.510 Y144.500 Z-3.000 F1200.000 
G1 X503.071 Y144.061 
G1 X503.510 Y144.500 
G1 X543.180 Y144.500 Z-3.000 F1200.000 
G1 X543.619 Y144.061 
G1 X543.180 Y144.500 
G1 X543.180 Y149.000 Z-3.000 F1200.000 
G2 X544.680 Y150.500 Z-3.000 I1.500 J-0.000 F1200.000 
G1 X587.350 Y150.500 Z-3.000 F1200.000 
G2 X588.850 Y149.000 Z-3.000 I-0.000 J-1.500 F1200.000 
G1 X588.850 Y139.500 Z-3.000 F1200.000 
G1 X588.411 Y139.061 
G1 X588.850 Y139.500 
G1 X593.350 Y139.500 Z-3.000 F1200.000 
G2 X594.850 Y138.000 Z-3.000 I-0.000 J-1.500 F1200.000 
G1 X594.850 Y127.000 Z-3.000 F1200.000 
G2 X593.350 Y125.500 Z-3.000 I-1.500 J0.000 F1200.000 
G1 X588.850 Y125.500 Z-3.000 F1200.000 
G1 X588.411 Y125.939 
G1 X588.850 Y125.500 
G1 X588.850 Y106.500 Z-3.000 F1200.000 
G1 X588.411 Y106.061 
G1 X588.850 Y106.500 
G1 X593.350 Y106.500 Z-3.000 F1200.000 
G2 X594.850 Y105.000 Z-3.000 I-0.000 J-1.500 F1200.000 
G1 X594.850 Y94.000 Z-3.000 F1200.000 
G2 X593.350 Y92.500 Z-3.000 I-1.500 J0.000 F1200.000 
G1 X588.850 Y92.500 Z-3.000 F1200.000 
G1 X588.411 Y92.939 
G1 X588.850 Y92.500 
G1 X588.850 Y83.000 Z-3.000 F1200.000 
G2 X587.350 Y81.500 Z-3.000 I-1.500 J-0.000 F1200.000 
G1 X160.650 Y81.500 Z-3.000 F1200.000 
G2 X159.150 Y83.000 Z-3.000 I0.000 J1.500 F1200.000 
G1 X159.150 Y92.500 Z-3.000 F1200.000 
G1 X159.589 Y92.939 
G1 X159.150 Y92.500 
G1 X154.650 Y92.500 Z-3.000 F1200.000 
G2 X153.150 Y94.000 Z-3.000 I0.000 J1.500 F1200.000 
G1 X153.150 Y105.000 Z-3.000 F1200.000 
G2 X154.650 Y106.500 Z-3.000 I1.500 J-0.000 F1200.000 
G1 X159.150 Y106.500 Z-3.000 F1200.000 
G1 X159.589 Y106.061 
G1 X159.150 Y106.500 
G1 X159.150 Y125.500 Z-3.000 F1200.000 
G1 X159.589 Y125.939 
G1 X159.150 Y125.500 
G1 X154.650 Y125.500 Z-3.000 F1200.000 
G2 X153.150 Y127.000 Z-3.000 I0.000 J1.500 F1200.000 
G1 X153.150 Y138.000 Z-3.000 F1200.000 
G2 X153.172 Y138.253 Z-3.000 I1.500 J-0.000 F1200.000 
G1 X153.172 Y138.253 Z-6.000 F500.000 
G2 X154.650 Y139.500 Z-6.000 I1.478 J-0.253 F1200.000 
G1 X159.150 Y139.500 Z-6.000 F1200.000 
G1 X159.589 Y139.061 
G1 X159.150 Y139.500 
G1 X159.150 Y149.000 Z-6.000 F1200.000 
G2 X160.650 Y150.500 Z-6.000 I1.500 J-0.000 F1200.000 
G1 X203.320 Y150.500 Z-6.000 F1200.000 
G2 X204.820 Y149.000 Z-6.000 I-0.000 J-1.500 F1200.000 
G1 X204.820 Y144.500 Z-6.000 F1200.000 
G1 X204.381 Y144.061 
G1 X204.820 Y144.500 
G1 X244.490 Y144.500 Z-6.000 F1200.000 
G1 X244.929 Y144.061 
G1 X244.490 Y144.500 
G1 X244.490 Y149.000 Z-6.000 F1200.000 
G2 X245.990 Y150.500 Z-6.000 I1.500 J-0.000 F1200.000 
G1 X288.660 Y150.500 Z-6.000 F1200.000 
G2 X290.160 Y149.000 Z-6.000 I-0.000 J-1.500 F1200.000 
G1 X290.160 Y144.500 Z-6.000 F1200.000 
G1 X289.721 Y144.061 
G1 X290.160 Y144.500 
G1 X329.830 Y144.500 Z-6.000 F1200.000 
G1 X330.269 Y144.061 
G1 X329.830 Y144.500 
G1 X329.830 Y149.000 Z-6.000 F1200.000 
G2 X331.330 Y150.500 Z-6.000 I1.500 J-0.000 F1200.000 
G1 X416.670 Y150.500 Z-6.000 F1200.000 
G2 X418.170 Y149.000 Z-6.000 I-0.000 J-1.500 F1200.000 
G1 X418.170 Y144.500 Z-6.000 F1200.000 
G1 X417.731 Y144.061 
G1 X418.170 Y144.500 
G1 X457.840 Y144.500 Z-6.000 F1200.000 
G1 X458.279 Y144.061 
G1 X457.840 Y144.500 
G1 X457.840 Y149.000 Z-6.000 F1200.000 
G2 X459.340 Y150.500 Z-6.000 I1.500 J-0.000 F1200.000 
G1 X502.010 Y150.500 Z-6.000 F1200.000 
G2 X503.510 Y149.000 Z-6.000 I-0.000 J-1.500 F1200.000 
G1 X503.510 Y144.500 Z-6.000 F1200.000 
G1 X503.071 Y144.061 
G1 X503.510 Y144.500 
G1 X543.180 Y144.500 Z-6.000 F1200.000 
G1 X543.619 Y144.061 
G1 X543.180 Y144.500 
G1 X543.180 Y149.000 Z-6.000 F1200.000 
G2 X544.680 Y150.500 Z-6.000 I1.500 J-0.000 F1200.000 
G1 X587.350 Y150.500 Z-6.000 F1200.000 
G2 X588.850 Y149.000 Z-6.000 I-0.000 J-1.500 F1200.000 
G1 X588.850 Y139.500 Z-6.000 F1200.000 
G1 X588.411 Y139.061 
G1 X588.850 Y139.500 
G1 X593.350 Y139.500 Z-6.000 F1200.000 
G2 X594.850 Y138.000 Z-6.000 I-0.000 J-1.500 F1200.000 
G1 X594.850 Y127.000 Z-6.000 F1200.000 
G2 X593.350 Y125.500 Z-6.000 I-1.500 J0.000 F1200.000 
G1 X588.850 Y125.500 Z-6.000 F1200.000 
G1 X588.411 Y125.939 
G1 X588.850 Y125.500 
G1 X588.850 Y106.500 Z-6.000 F1200.000 
G1 X588.411 Y106.061 
G1 X588.850 Y106.500 
G1 X593.350 Y106.500 Z-6.000 F1200.000 
G2 X594.850 Y105.000 Z-6.000 I-0.000 J-1.500 F1200.000 
G1 X594.850 Y94.000 Z-6.000 F1200.000 
G2 X593.350 Y92.500 Z-6.000 I-1.500 J0.000 F1200.000 
G1 X588.850 Y92.500 Z-6.000 F1200.000 
G1 X588.411 Y92.939 
G1 X588.850 Y92.500 
G1 X588.850 Y83.000 Z-6.000 F1200.000 
G2 X587.350 Y81.500 Z-6.000 I-1.500 J-0.000 F1200.000 
G1 X160.650 Y81.500 Z-6.000 F1200.000 
G2 X159.150 Y83.000 Z-6.000 I0.000 J1.500 F1200.000 
G1 X159.150 Y92.500 Z-6.000 F1200.000 
G1 X159.589 Y92.939 
G1 X159.150 Y92.500 
G1 X154.650 Y92.500 Z-6.000 F1200.000 
G2 X153.150 Y94.000 Z-6.000 I0.000 J1.500 F1200.000 
G1 X153.150 Y105.000 Z-6.000 F1200.000 
G2 X154.650 Y106.500 Z-6.000 I1.500 J-0.000 F1200.000 
G1 X159.150 Y106.500 Z-6.000 F1200.000 
G1 X159.589 Y106.061 
G1 X159.150 Y106.500 
G1 X159.150 Y125.500 Z-6.000 F1200.000 
G1 X159.589 Y125.939 
G1 X159.150 Y125.500 
G1 X154.650 Y125.500 Z-6.000 F1200.000 
G2 X153.150 Y127.000 Z-6.000 I0.000 J1.500 F1200.000 
G1 X153.150 Y138.000 Z-6.000 F1200.000 
G2 X153.172 Y138.253 Z-6.000 I1.500 J-0.000 F1200.000 
G0 Z5.000 
G0 Z5.000 
G0 X153.172 Y138.253 
G0 X160.477 Y75.490 
G0 X160.477 Y75.490 Z3.000 
G1 X160.477 Y75.490 Z-3.000 F500.000 
G2 X160.650 Y75.500 Z-3.000 I0.173 J-1.490 F1200.000 
G1 X203.320 Y75.500 Z-3.000 F1200.000 
G2 X204.820 Y74.000 Z-3.000 I-0.000 J-1.500 F1200.000 
G1 X204.820 Y69.500 Z-3.000 F1200.000 
G1 X204.381 Y69.061 
G1 X204.820 Y69.500 
G1 X244.490 Y69.500 Z-3.000 F1200.000 
G1 X244.929 Y69.061 
G1 X244.490 Y69.500 
G1 X244.490 Y74.000 Z-3.000 F1200.000 
G2 X245.990 Y75.500 Z-3.000 I1.500 J-0.000 F1200.000 
G1 X288.660 Y75.500 Z-3.000 F1200.000 
G2 X290.160 Y74.000 Z-3.000 I-0.000 J-1.500 F1200.000 
G1 X290.160 Y69.500 Z-3.000 F1200.000 
G1 X289.721 Y69.061 
G1 X290.160 Y69.500 
G1 X329.830 Y69.500 Z-3.000 F1200.000 
G1 X330.269 Y69.061 
G1 X329.830 Y69.500 
G1 X329.830 Y74.000 Z-3.000 F1200.000 
G2 X331.330 Y75.500 Z-3.000 I1.500 J-0.000 F1200.000 
G1 X416.670 Y75.500 Z-3.000 F1200.000 
G2 X418.170 Y74.000 Z-3.000 I-0.000 J-1.500 F1200.000 
G1 X418.170 Y69.500 Z-3.000 F1200.000 
G1 X417.731 Y69.061 
G1 X418.170 Y69.500 
G1 X457.840 Y69.500 Z-3.000 F1200.000 
G1 X458.279 Y69.061 
G1 X457.840 Y69.500 
G1 X457.840 Y74.000 Z-3.000 F1200.000 
G2 X459.340 Y75.500 Z-3.000 I1.500 J-0.000 F1200.000 
G1 X502.010 Y75.500 Z-3.000 F1200.000 
G2 X503.510 Y74.000 Z-3.000 I-0.000 J-1.500 F1200.000 
G1 X503.510 Y69.500 Z-3.000 F1200.000 
G1 X503.071 Y69.061 
G1 X503.510 Y69.500 
G1 X543.180 Y69.500 Z-3.000 F1200.000 
G1 X543.619 Y69.061 
G1 X543.180 Y69.500 
G1 X543.180 Y74.000 Z-3.000 F1200.000 
G2 X544.680 Y75.500 Z-3.000 I1.500 J-0.000 F1200.000 
G1 X587.350 Y75.500 Z-3.000 F1200.000 
G2 X588.850 Y74.000 Z-3.000 I-0.000 J-1.500 F1200.000 
G1 X588.850 Y64.500 Z-3.000 F1200.000 
G1 X588.411 Y64.061 
G1 X588.850 Y64.500 
G1 X593.350 Y64.500 Z-3.000 F1200.000 
G2 X594.850 Y63.000 Z-3.000 I-0.000 J-1.500 F1200.000 
G1 X594.850 Y52.000 Z-3.000 F1200.000 
G2 X593.350 Y50.500 Z-3.000 I-1.500 J0.000 F1200.000 
G1 X588.850 Y50.500 Z-3.000 F1200.000 
G1 X588.411 Y50.939 
G1 X588.850 Y50.500 
G1 X588.850 Y31.500 Z-3.000 F1200.000 
G1 X588.411 Y31.061 
G1 X588.850 Y31.500 
G1 X593.350 Y31.500 Z-3.000 F1200.000 
G2 X594.850 Y30.000 Z-3.000 I-0.000 J-1.500 F1200.000 
G1 X594.850 Y19.000 Z-3.000 F1200.000 
G2 X593.350 Y17.500 Z-3.000 I-1.500 J0.000 F1200.000 
G1 X588.850 Y17.500 Z-3.000 F1200.000 
G1 X588.411 Y17.939 
G1 X588.850 Y17.500 
G1 X588.850 Y8.000 Z-3.000 F1200.000 
G2 X587.350 Y6.500 Z-3.000 I-1.500 J-0.000 F1200.000 
G1 X160.650 Y6.500 Z-3.000 F1200.000 
G2 X159.150 Y8.000 Z-3.000 I0.000 J1.500 F1200.000 
G1 X159.150 Y17.500 Z-3.000 F1200.000 
G1 X159.589 Y17.939 
G1 X159.150 Y17.500 
G1 X154.650 Y17.500 Z-3.000 F1200.000 
G2 X153.150 Y19.000 Z-3.000 I0.000 J1.500 F1200.000 
G1 X153.150 Y30.000 Z-3.000 F1200.000 
G2 X154.650 Y31.500 Z-3.000 I1.500 J-0.000 F1200.000 
G1 X159.150 Y31.500 Z-3.000 F1200.000 
G1 X159.589 Y31.061 
G1 X159.150 Y31.500 
G1 X159.150 Y50.500 Z-3.000 F1200.000 
G1 X159.589 Y50.939 
G1 X159.150 Y50.500 
G1 X154.650 Y50.500 Z-3.000 F1200.000 
G2 X153.150 Y52.000 Z-3.000 I0.000 J1.500 F1200.000 
G1 X153.150 Y63.000 Z-3.000 F1200.000 
G2 X154.650 Y64.500 Z-3.000 I1.500 J-0.000 F1200.000 
G1 X159.150 Y64.500 Z-3.000 F1200.000 
G1 X159.589 Y64.061 
G1 X159.150 Y64.500 
G1 X159.150 Y74.000 Z-3.000 F1200.000 
G2 X160.477 Y75.490 Z-3.000 I1.500 J-0.000 F1200.000 
G1 X160.477 Y75.490 Z-6.000 F500.000 
G2 X160.650 Y75.500 Z-6.000 I0.173 J-1.490 F1200.000 
G1 X203.320 Y75.500 Z-6.000 F1200.000 
G2 X204.820 Y74.000 Z-6.000 I-0.000 J-1.500 F1200.000 
G1 X204.820 Y69.500 Z-6.000 F1200.000 
G1 X204.381 Y69.061 
G1 X204.820 Y69.500 
G1 X244.490 Y69.500 Z-6.000 F1200.000 
G1 X244.929 Y69.061 
G1 X244.490 Y69.500 
G1 X244.490 Y74.000 Z-6.000 F1200.000 
G2 X245.990 Y75.500 Z-6.000 I1.500 J-0.000 F1200.000 
G1 X288.660 Y75.500 Z-6.000 F1200.000 
G2 X290.160 Y74.000 Z-6.000 I-0.000 J-1.500 F1200.000 
G1 X290.160 Y69.500 Z-6.000 F1200.000 
G1 X289.721 Y69.061 
G1 X290.160 Y69.500 
G1 X329.830 Y69.500 Z-6.000 F1200.000 
G1 X330.269 Y69.061 
G1 X329.830 Y69.500 
G1 X329.830 Y74.000 Z-6.000 F1200.000 
G2 X331.330 Y75.500 Z-6.000 I1.500 J-0.000 F1200.000 
G1 X416.670 Y75.500 Z-6.000 F1200.000 
G2 X418.170 Y74.000 Z-6.000 I-0.000 J-1.500 F1200.000 
G1 X418.170 Y69.500 Z-6.000 F1200.000 
G1 X417.731 Y69.061 
G1 X418.170 Y69.500 
G1 X457.840 Y69.500 Z-6.000 F1200.000 
G1 X458.279 Y69.061 
G1 X457.840 Y69.500 
G1 X457.840 Y74.000 Z-6.000 F1200.000 
G2 X459.340 Y75.500 Z-6.000 I1.500 J-0.000 F1200.000 
G1 X502.010 Y75.500 Z-6.000 F1200.000 
G2 X503.510 Y74.000 Z-6.000 I-0.000 J-1.500 F1200.000 
G1 X503.510 Y69.500 Z-6.000 F1200.000 
G1 X503.071 Y69.061 
G1 X503.510 Y69.500 
G1 X543.180 Y69.500 Z-6.000 F1200.000 
G1 X543.619 Y69.061 
G1 X543.180 Y69.500 
G1 X543.180 Y74.000 Z-6.000 F1200.000 
G2 X544.680 Y75.500 Z-6.000 I1.500 J-0.000 F1200.000 
G1 X587.350 Y75.500 Z-6.000 F1200.000 
G2 X588.850 Y74.000 Z-6.000 I-0.000 J-1.500 F1200.000 
G1 X588.850 Y64.500 Z-6.000 F1200.000 
G1 X588.411 Y64.061 
G1 X588.850 Y64.500 
G1 X593.350 Y64.500 Z-6.000 F1200.000 
G2 X594.850 Y63.000 Z-6.000 I-0.000 J-1.500 F1200.000 
G1 X594.850 Y52.000 Z-6.000 F1200.000 
G2 X593.350 Y50.500 Z-6.000 I-1.500 J0.000 F1200.000 
G1 X588.850 Y50.500 Z-6.000 F1200.000 
G1 X588.411 Y50.939 
G1 X588.850 Y50.500 
G1 X588.850 Y31.500 Z-6.000 F1200.000 
G1 X588.411 Y31.061 
G1 X588.850 Y31.500 
G1 X593.350 Y31.500 Z-6.000 F1200.000 
G2 X594.850 Y30.000 Z-6.000 I-0.000 J-1.500 F1200.000 
G1 X594.850 Y19.000 Z-6.000 F1200.000 
G2 X593.350 Y17.500 Z-6.000 I-1.500 J0.000 F1200.000 
G1 X588.850 Y17.500 Z-6.000 F1200.000 
G1 X588.411 Y17.939 
G1 X588.850 Y17.500 
G1 X588.850 Y8.000 Z-6.000 F1200.000 
G2 X587.350 Y6.500 Z-6.000 I-1.500 J-0.000 F1200.000 
G1 X160.650 Y6.500 Z-6.000 F1200.000 
G2 X159.150 Y8.000 Z-6.000 I0.000 J1.500 F1200.000 
G1 X159.150 Y17.500 Z-6.000 F1200.000 
G1 X159.589 Y17.939 
G1 X159.150 Y17.500 
G1 X154.650 Y17.500 Z-6.000 F1200.000 
G2 X153.150 Y19.000 Z-6.000 I0.000 J1.500 F1200.000 
G1 X153.150 Y30.000 Z-6.000 F1200.000 
G2 X154.650 Y31.500 Z-6.000 I1.500 J-0.000 F1200.000 
G1 X159.150 Y31.500 Z-6.000 F1200.000 
G1 X159.589 Y31.061 
G1 X159.150 Y31.500 
G1 X159.150 Y50.500 Z-6.000 F1200.000 
G1 X159.589 Y50.939 
G1 X159.150 Y50.500 
G1 X154.650 Y50.500 Z-6.000 F1200.000 
G2 X153.150 Y52.000 Z-6.000 I0.000 J1.500 F1200.000 
G1 X153.150 Y63.000 Z-6.000 F1200.000 
G2 X154.650 Y64.500 Z-6.000 I1.500 J-0.000 F1200.000 
G1 X159.150 Y64.500 Z-6.000 F1200.000 
G1 X159.589 Y64.061 
G1 X159.150 Y64.500 
G1 X159.150 Y74.000 Z-6.000 F1200.000 
G2 X160.477 Y75.490 Z-6.000 I1.500 J-0.000 F1200.000 
G0 Z5.000 
G0 Z5.000 
G0 X160.477 Y75.490 
G1 X160.914 Y75.052 
G1 X160.477 Y75.490 
G0 X160.650 Y159.500 
G0 X160.650 Y159.500 Z3.000 
G1 X160.650 Y159.500 Z-3.000 F500.000 
G2 X159.150 Y161.000 Z-3.000 I0.000 J1.500 F1200.000 
G1 X159.150 Y202.415 Z-3.000 F1200.000 
G1 X159.589 Y202.854 
G1 X159.150 Y202.415 
G1 X154.650 Y202.415 Z-3.000 F1200.000 
G2 X153.150 Y203.915 Z-3.000 I0.000 J1.500 F1200.000 
G1 X153.150 Y246.585 Z-3.000 F1200.000 
G2 X154.650 Y248.085 Z-3.000 I1.500 J-0.000 F1200.000 
G1 X159.150 Y248.085 Z-3.000 F1200.000 
G1 X159.589 Y247.646 
G1 X159.150 Y248.085 
G1 X159.150 Y289.500 Z-3.000 F1200.000 
G2 X160.650 Y291.000 Z-3.000 I1.500 J-0.000 F1200.000 
G1 X201.820 Y291.000 Z-3.000 F1200.000 
G1 X202.259 Y290.561 
G1 X201.820 Y291.000 
G1 X201.820 Y295.500 Z-3.000 F1200.000 
G2 X203.320 Y297.000 Z-3.000 I1.500 J-0.000 F1200.000 
G1 X245.990 Y297.000 Z-3.000 F1200.000 
G2 X247.490 Y295.500 Z-3.000 I-0.000 J-1.500 F1200.000 
G1 X247.490 Y291.000 Z-3.000 F1200.000 
G1 X247.051 Y290.561 
G1 X247.490 Y291.000 
G1 X287.160 Y291.000 Z-3.000 F1200.000 
G1 X287.599 Y290.561 
G1 X287.160 Y291.000 
G1 X287.160 Y295.500 Z-3.000 F1200.000 
G2 X288.660 Y297.000 Z-3.000 I1.500 J-0.000 F1200.000 
G1 X331.330 Y297.000 Z-3.000 F1200.000 
G2 X332.830 Y295.500 Z-3.000 I-0.000 J-1.500 F1200.000 
G1 X332.830 Y291.000 Z-3.000 F1200.000 
G1 X332.391 Y290.561 
G1 X332.830 Y291.000 
G1 X415.170 Y291.000 Z-3.000 F1200.000 
G1 X415.609 Y290.561 
G1 X415.170 Y291.000 
G1 X415.170 Y295.500 Z-3.000 F1200.000 
G2 X416.670 Y297.000 Z-3.000 I1.500 J-0.000 F1200.000 
G1 X459.340 Y297.000 Z-3.000 F1200.000 
G2 X460.840 Y295.500 Z-3.000 I-0.000 J-1.500 F1200.000 
G1 X460.840 Y291.000 Z-3.000 F1200.000 
G1 X460.401 Y290.561 
G1 X460.840 Y291.000 
G1 X500.510 Y291.000 Z-3.000 F1200.000 
G1 X500.949 Y290.561 
G1 X500.510 Y291.000 
G1 X500.510 Y295.500 Z-3.000 F1200.000 
G2 X502.010 Y297.000 Z-3.000 I1.500 J-0.000 F1200.000 
G1 X544.680 Y297.000 Z-3.000 F1200.000 
G2 X546.180 Y295.500 Z-3.000 I-0.000 J-1.500 F1200.000 
G1 X546.180 Y291.000 Z-3.000 F1200.000 
G1 X545.741 Y290.561 
G1 X546.180 Y291.000 
G1 X587.350 Y291.000 Z-3.000 F1200.000 
G2 X588.850 Y289.500 Z-3.000 I-0.000 J-1.500 F1200.000 
G1 X588.850 Y248.085 Z-3.000 F1200.000 
G1 X588.411 Y247.646 
G1 X588.850 Y248.085 
G1 X593.350 Y248.085 Z-3.000 F1200.000 
G2 X594.850 Y246.585 Z-3.000 I-0.000 J-1.500 F1200.000 
G1 X594.850 Y203.915 Z-3.000 F1200.000 
G2 X593.350 Y202.415 Z-3.000 I-1.500 J0.000 F1200.000 
G1 X588.850 Y202.415 Z-3.000 F1200.000 
G1 X588.411 Y202.854 
G1 X588.850 Y202.415 
G1 X588.850 Y161.000 Z-3.000 F1200.000 
G2 X587.350 Y159.500 Z-3.000 I-1.500 J0.000 F1200.000 
G1 X546.180 Y159.500 Z-3.000 F1200.000 
G1 X545.741 Y159.939 
G1 X546.180 Y159.500 
G1 X546.180 Y155.000 Z-3.000 F1200.000 
G2 X544.680 Y153.500 Z-3.000 I-1.500 J0.000 F1200.000 
G1 X502.010 Y153.500 Z-3.000 F1200.000 
G2 X500.510 Y155.000 Z-3.000 I0.000 J1.500 F1200.000 
G1 X500.510 Y159.500 Z-3.000 F1200.000 
G1 X500.949 Y159.939 
G1 X500.510 Y159.500 
G1 X460.840 Y159.500 Z-3.000 F1200.000 
G1 X460.401 Y159.939 
G1 X460.840 Y159.500 
G1 X460.840 Y155.000 Z-3.000 F1200.000 
G2 X459.340 Y153.500 Z-3.000 I-1.500 J0.000 F1200.000 
G1 X416.670 Y153.500 Z-3.000 F1200.000 
G2 X415.170 Y155.000 Z-3.000 I0.000 J1.500 F1200.000 
G1 X415.170 Y159.500 Z-3.000 F1200.000 
G1 X415.609 Y159.939 
G1 X415.170 Y159.500 
G1 X332.830 Y159.500 Z-3.000 F1200.000 
G1 X332.391 Y159.939 
G1 X332.830 Y159.500 
G1 X332.830 Y155.000 Z-3.000 F1200.000 
G2 X331.330 Y153.500 Z-3.000 I-1.500 J0.000 F1200.000 
G1 X288.660 Y153.500 Z-3.000 F1200.000 
G2 X287.160 Y155.000 Z-3.000 I0.000 J1.500 F1200.000 
G1 X287.160 Y159.500 Z-3.000 F1200.000 
G1 X287.599 Y159.939 
G1 X287.160 Y159.500 
G1 X247.490 Y159.500 Z-3.000 F1200.000 
G1 X247.051 Y159.939 
G1 X247.490 Y159.500 
G1 X247.490 Y155.000 Z-3.000 F1200.000 
G2 X245.990 Y153.500 Z-3.000 I-1.500 J0.000 F1200.000 
G1 X203.320 Y153.500 Z-3.000 F1200.000 
G2 X201.820 Y155.000 Z-3.000 I0.000 J1.500 F1200.000 
G1 X201.820 Y159.500 Z-3.000 F1200.000 
G1 X202.259 Y159.939 
G1 X201.820 Y159.500 
G1 X160.650 Y159.500 Z-3.000 F1200.000 
G1 X160.650 Y159.500 Z-6.000 F500.000 
G2 X159.150 Y161.000 Z-6.000 I0.000 J1.500 F1200.000 
G1 X159.150 Y202.415 Z-6.000 F1200.000 
G1 X159.589 Y202.854 
G1 X159.150 Y202.415 
G1 X154.650 Y202.415 Z-6.000 F1200.000 
G2 X153.150 Y203.915 Z-6.000 I0.000 J1.500 F1200.000 
G1 X153.150 Y246.585 Z-6.000 F1200.000 
G2 X154.650 Y248.085 Z-6.000 I1.500 J-0.000 F1200.000 
G1 X159.150 Y248.085 Z-6.000 F1200.000 
G1 X159.589 Y247.646 
G1 X159.150 Y248.085 
G1 X159.150 Y289.500 Z-6.000 F1200.000 
G2 X160.650 Y291.000 Z-6.000 I1.500 J-0.000 F1200.000 
G1 X201.820 Y291.000 Z-6.000 F1200.000 
G1 X202.259 Y290.561 
G1 X201.820 Y291.000 
G1 X201.820 Y295.500 Z-6.000 F1200.000 
G2 X203.320 Y297.000 Z-6.000 I1.500 J-0.000 F1200.000 
G1 X245.990 Y297.000 Z-6.000 F1200.000 
G2 X247.490 Y295.500 Z-6.000 I-0.000 J-1.500 F1200.000 
G1 X247.490 Y291.000 Z-6.000 F1200.000 
G1 X247.051 Y290.561 
G1 X247.490 Y291.000 
G1 X287.160 Y291.000 Z-6.000 F1200.000 
G1 X287.599 Y290.561 
G1 X287.160 Y291.000 
G1 X287.160 Y295.500 Z-6.000 F1200.000 
G2 X288.660 Y297.000 Z-6.000 I1.500 J-0.000 F1200.000 
G1 X331.330 Y297.000 Z-6.000 F1200.000 
G2 X332.830 Y295.500 Z-6.000 I-0.000 J-1.500 F1200.000 
G1 X332.830 Y291.000 Z-6.000 F1200.000 
G1 X332.391 Y290.561 
G1 X332.830 Y291.000 
G1 X415.170 Y291.000 Z-6.000 F1200.000 
G1 X415.609 Y290.561 
G1 X415.170 Y291.000 
G1 X415.170 Y295.500 Z-6.000 F1200.000 
G2 X416.670 Y297.000 Z-6.000 I1.500 J-0.000 F1200.000 
G1 X459.340 Y297.000 Z-6.000 F1200.000 
G2 X460.840 Y295.500 Z-6.000 I-0.000 J-1.500 F1200.000 
G1 X460.840 Y291.000 Z-6.000 F1200.000 
G1 X460.401 Y290.561 
G1 X460.840 Y291.000 
G1 X500.510 Y291.000 Z-6.000 F1200.000 
G1 X500.949 Y290.561 
G1 X500.510 Y291.000 
G1 X500.510 Y295.500 Z-6.000 F1200.000 
G2 X502.010 Y297.000 Z-6.000 I1.500 J-0.000 F1200.000 
G1 X544.680 Y297.000 Z-6.000 F1200.000 
G2 X546.180 Y295.500 Z-6.000 I-0.000 J-1.500 F1200.000 
G1 X546.180 Y291.000 Z-6.000 F1200.000 
G1 X545.741 Y290.561 
G1 X546.180 Y291.000 
G1 X587.350 Y291.000 Z-6.000 F1200.000 
G2 X588.850 Y289.500 Z-6.000 I-0.000 J-1.500 F1200.000 
G1 X588.850 Y248.085 Z-6.000 F1200.000 
G1 X588.411 Y247.646 
G1 X588.850 Y248.085 
G1 X593.350 Y248.085 Z-6.000 F1200.000 
G2 X594.850 Y246.585 Z-6.000 I-0.000 J-1.500 F1200.000 
G1 X594.850 Y203.915 Z-6.000 F1200.000 
G2 X593.350 Y202.415 Z-6.000 I-1.500 J0.000 F1200.000 
G1 X588.850 Y202.415 Z-6.000 F1200.000 
G1 X588.411 Y202.854 
G1 X588.850 Y202.415 
G1 X588.850 Y161.000 Z-6.000 F1200.000 
G2 X587.350 Y159.500 Z-6.000 I-1.500 J0.000 F1200.000 
G1 X546.180 Y159.500 Z-6.000 F1200.000 
G1 X545.741 Y159.939 
G1 X546.180 Y159.500 
G1 X546.180 Y155.000 Z-6.000 F1200.000 
G2 X544.680 Y153.500 Z-6.000 I-1.500 J0.000 F1200.000 
G1 X502.010 Y153.500 Z-6.000 F1200.000 
G2 X500.510 Y155.000 Z-6.000 I0.000 J1.500 F1200.000 
G1 X500.510 Y159.500 Z-6.000 F1200.000 
G1 X500.949 Y159.939 
G1 X500.510 Y159.500 
G1 X460.840 Y159.500 Z-6.000 F1200.000 
G1 X460.401 Y159.939 
G1 X460.840 Y159.500 
G1 X460.840 Y155.000 Z-6.000 F1200.000 
G2 X459.340 Y153.500 Z-6.000 I-1.500 J0.000 F1200.000 
G1 X416.670 Y153.500 Z-6.000 F1200.000 
G2 X415.170 Y155.000 Z-6.000 I0.000 J1.500 F1200.000 
G1 X415.170 Y159.500 Z-6.000 F1200.000 
G1 X415.609 Y159.939 
G1 X415.170 Y159.500 
G1 X332.830 Y159.500 Z-6.000 F1200.000 
G1 X332.391 Y159.939 
G1 X332.830 Y159.500 
G1 X332.830 Y155.000 Z-6.000 F1200.000 
G2 X331.330 Y153.500 Z-6.000 I-1.500 J0.000 F1200.000 
G1 X288.660 Y153.500 Z-6.000 F1200.000 
G2 X287.160 Y155.000 Z-6.000 I0.000 J1.500 F1200.000 
G1 X287.160 Y159.500 Z-6.000 F1200.000 
G1 X287.599 Y159.939 
G1 X287.160 Y159.500 
G1 X247.490 Y159.500 Z-6.000 F1200.000 
G1 X247.051 Y159.939 
G1 X247.490 Y159.500 
G1 X247.490 Y155.000 Z-6.000 F1200.000 
G2 X245.990 Y153.500 Z-6.000 I-1.500 J0.000 F1200.000 
G1 X203.320 Y153.500 Z-6.000 F1200.000 
G2 X201.820 Y155.000 Z-6.000 I0.000 J1.500 F1200.000 
G1 X201.820 Y159.500 Z-6.000 F1200.000 
G1 X202.259 Y159.939 
G1 X201.820 Y159.500 
G1 X160.650 Y159.500 Z-6.000 F1200.000 
G0 Z5.000 
G0 Z5.000 
(finish operation: DressupDogbone)
(begin operation: Pocket_Shape)
(machine units: mm/min)
(Pocket_Shape) 
G0 Z5.000 
G0 X61.057 Y22.057 
G0 Z3.000 
G1 X61.057 Y22.057 Z-3.000 F500.000 
G2 X61.210 Y20.121 Z-3.000 I-1.057 J-1.057 F1200.000 
G2 X59.121 Y19.790 Z-3.000 I-1.210 J0.879 F1200.000 
G2 X58.790 Y21.879 Z-3.000 I0.879 J1.210 F1200.000 
G2 X61.057 Y22.057 Z-3.000 I1.210 J-0.879 F1200.000 
G1 X61.057 Y22.057 Z-6.000 F500.000 
G2 X61.210 Y20.121 Z-6.000 I-1.057 J-1.057 F1200.000 
G2 X59.121 Y19.790 Z-6.000 I-1.210 J0.879 F1200.000 
G2 X58.790 Y21.879 Z-6.000 I0.879 J1.210 F1200.000 
G2 X61.057 Y22.057 Z-6.000 I1.210 J-0.879 F1200.000 
G0 Z5.000 
G0 Z5.000 
G0 X61.057 Y22.057 
G0 X93.505 Y21.047 
G0 X93.505 Y21.047 Z3.000 
G1 X93.505 Y21.047 Z-3.000 F500.000 
G2 X93.790 Y21.879 Z-3.000 I1.495 J-0.047 F1200.000 
G2 X96.210 Y20.121 Z-3.000 I1.210 J-0.879 F1200.000 
G2 X93.505 Y21.047 Z-3.000 I-1.210 J0.879 F1200.000 
G1 X93.505 Y21.047 Z-6.000 F500.000 
G2 X93.790 Y21.879 Z-6.000 I1.495 J-0.047 F1200.000 
G2 X96.210 Y20.121 Z-6.000 I1.210 J-0.879 F1200.000 
G2 X93.505 Y21.047 Z-6.000 I-1.210 J0.879 F1200.000 
G0 Z5.000 
G0 Z5.000 
G0 X93.505 Y21.047 
G0 X94.981 Y138.005 
G0 X94.981 Y138.005 Z3.000 
G1 X94.981 Y138.005 Z-3.000 F500.000 
G2 X93.790 Y140.379 Z-3.000 I0.019 J1.495 F1200.000 
G2 X96.210 Y138.621 Z-3.000 I1.210 J-0.879 F1200.000 
G2 X94.981 Y138.005 Z-3.000 I-1.210 J0.879 F1200.000 
G1 X94.981 Y138.005 Z-6.000 F500.000 
G2 X93.790 Y140.379 Z-6.000 I0.019 J1.495 F1200.000 
G2 X96.210 Y138.621 Z-6.000 I1.210 J-0.879 F1200.000 
G2 X94.981 Y138.005 Z-6.000 I-1.210 J0.879 F1200.000 
G0 Z5.000 
G0 Z5.000 
G0 X94.981 Y138.005 
G0 X61.494 Y139.436 
G0 X61.494 Y139.436 Z3.000 
G1 X61.494 Y139.436 Z-3.000 F500.000 
G2 X61.210 Y138.621 Z-3.000 I-1.494 J0.064 F1200.000 
G2 X59.121 Y138.290 Z-3.000 I-1.210 J0.879 F1200.000 
G2 X58.790 Y140.379 Z-3.000 I0.879 J1.210 F1200.000 
G2 X61.494 Y139.436 Z-3.000 I1.210 J-0.879 F1200.000 
G1 X61.494 Y139.436 Z-6.000 F500.000 
G2 X61.210 Y138.621 Z-6.000 I-1.494 J0.064 F1200.000 
G2 X59.121 Y138.290 Z-6.000 I-1.210 J0.879 F1200.000 
G2 X58.790 Y140.379 Z-6.000 I0.879 J1.210 F1200.000 
G2 X61.494 Y139.436 Z-6.000 I1.210 J-0.879 F1200.000 
G0 Z5.000 
G0 Z5.000 
(finish operation: Pocket_Shape)
(begin postamble)
M05
G17 G54 G90 G80 G40
M2
