(Exported by FreeCAD)
(Post Processor: script_module)
(Output Time:2025-06-18 21:40:41.940684)
(begin preamble)
G17 G54 G40 G49 G80 G90
G21
(begin operation: Fixture)
(machine units: mm/min)
G54 
(finish operation: Fixture)
(begin operation: 3mm_Endmill_doubleFlute001)
(machine units: mm/min)
(3mm_Endmill_doubleFlute001) 
M5
M6 T1 
G43 H1 
M3 S24000 
(finish operation: 3mm_Endmill_doubleFlute001)
(begin operation: DressupDogbone)
(machine units: mm/min)
(Profile) 
(Compensated Tool Path. Diameter: 5.0) 
G0 Z5.000 
G0 X74.768 Y152.268 
G0 Z3.000 
G1 X74.768 Y152.268 Z-5.000 F500.000 
G2 X75.500 Y150.500 Z-5.000 I-1.768 J-1.768 F1200.000 
G1 X75.500 Y10.000 Z-5.000 F1200.000 
G2 X73.000 Y7.500 Z-5.000 I-2.500 J0.000 F1200.000 
G1 X62.000 Y7.500 Z-5.000 F1200.000 
G2 X59.500 Y10.000 Z-5.000 I0.000 J2.500 F1200.000 
G1 X59.500 Y13.500 Z-5.000 F1200.000 
G1 X60.232 Y14.232 
G1 X59.500 Y13.500 
G1 X53.500 Y13.500 Z-5.000 F1200.000 
G1 X52.768 Y14.232 
G1 X53.500 Y13.500 
G1 X53.500 Y10.000 Z-5.000 F1200.000 
G2 X51.000 Y7.500 Z-5.000 I-2.500 J0.000 F1200.000 
G1 X29.000 Y7.500 Z-5.000 F1200.000 
G2 X26.500 Y10.000 Z-5.000 I0.000 J2.500 F1200.000 
G1 X26.500 Y13.500 Z-5.000 F1200.000 
G1 X27.232 Y14.232 
G1 X26.500 Y13.500 
G1 X20.500 Y13.500 Z-5.000 F1200.000 
G1 X19.768 Y14.232 
G1 X20.500 Y13.500 
G1 X20.500 Y10.000 Z-5.000 F1200.000 
G2 X18.000 Y7.500 Z-5.000 I-2.500 J0.000 F1200.000 
G1 X7.000 Y7.500 Z-5.000 F1200.000 
G2 X4.500 Y10.000 Z-5.000 I0.000 J2.500 F1200.000 
G1 X4.500 Y58.915 Z-5.000 F1200.000 
G2 X7.000 Y61.415 Z-5.000 I2.500 J-0.000 F1200.000 
G1 X10.500 Y61.415 Z-5.000 F1200.000 
G1 X11.232 Y60.683 
G1 X10.500 Y61.415 
G1 X10.500 Y99.085 Z-5.000 F1200.000 
G1 X11.232 Y99.817 
G1 X10.500 Y99.085 
G1 X7.000 Y99.085 Z-5.000 F1200.000 
G2 X4.500 Y101.585 Z-5.000 I0.000 J2.500 F1200.000 
G1 X4.500 Y150.500 Z-5.000 F1200.000 
G2 X7.000 Y153.000 Z-5.000 I2.500 J-0.000 F1200.000 
G1 X18.000 Y153.000 Z-5.000 F1200.000 
G2 X20.500 Y150.500 Z-5.000 I-0.000 J-2.500 F1200.000 
G1 X20.500 Y147.000 Z-5.000 F1200.000 
G1 X19.768 Y146.268 
G1 X20.500 Y147.000 
G1 X26.500 Y147.000 Z-5.000 F1200.000 
G1 X27.232 Y146.268 
G1 X26.500 Y147.000 
G1 X26.500 Y150.500 Z-5.000 F1200.000 
G2 X29.000 Y153.000 Z-5.000 I2.500 J-0.000 F1200.000 
G1 X51.000 Y153.000 Z-5.000 F1200.000 
G2 X53.500 Y150.500 Z-5.000 I-0.000 J-2.500 F1200.000 
G1 X53.500 Y147.000 Z-5.000 F1200.000 
G1 X52.768 Y146.268 
G1 X53.500 Y147.000 
G1 X59.500 Y147.000 Z-5.000 F1200.000 
G1 X60.232 Y146.268 
G1 X59.500 Y147.000 
G1 X59.500 Y150.500 Z-5.000 F1200.000 
G2 X62.000 Y153.000 Z-5.000 I2.500 J-0.000 F1200.000 
G1 X73.000 Y153.000 Z-5.000 F1200.000 
G2 X74.768 Y152.268 Z-5.000 I-0.000 J-2.500 F1200.000 
G1 X74.768 Y152.268 Z-6.000 F500.000 
G2 X75.500 Y150.500 Z-6.000 I-1.768 J-1.768 F1200.000 
G1 X75.500 Y10.000 Z-6.000 F1200.000 
G2 X73.000 Y7.500 Z-6.000 I-2.500 J0.000 F1200.000 
G1 X62.000 Y7.500 Z-6.000 F1200.000 
G2 X59.500 Y10.000 Z-6.000 I0.000 J2.500 F1200.000 
G1 X59.500 Y13.500 Z-6.000 F1200.000 
G1 X60.232 Y14.232 
G1 X59.500 Y13.500 
G1 X53.500 Y13.500 Z-6.000 F1200.000 
G1 X52.768 Y14.232 
G1 X53.500 Y13.500 
G1 X53.500 Y10.000 Z-6.000 F1200.000 
G2 X51.000 Y7.500 Z-6.000 I-2.500 J0.000 F1200.000 
G1 X29.000 Y7.500 Z-6.000 F1200.000 
G2 X26.500 Y10.000 Z-6.000 I0.000 J2.500 F1200.000 
G1 X26.500 Y13.500 Z-6.000 F1200.000 
G1 X27.232 Y14.232 
G1 X26.500 Y13.500 
G1 X20.500 Y13.500 Z-6.000 F1200.000 
G1 X19.768 Y14.232 
G1 X20.500 Y13.500 
G1 X20.500 Y10.000 Z-6.000 F1200.000 
G2 X18.000 Y7.500 Z-6.000 I-2.500 J0.000 F1200.000 
G1 X7.000 Y7.500 Z-6.000 F1200.000 
G2 X4.500 Y10.000 Z-6.000 I0.000 J2.500 F1200.000 
G1 X4.500 Y58.915 Z-6.000 F1200.000 
G2 X7.000 Y61.415 Z-6.000 I2.500 J-0.000 F1200.000 
G1 X10.500 Y61.415 Z-6.000 F1200.000 
G1 X11.232 Y60.683 
G1 X10.500 Y61.415 
G1 X10.500 Y99.085 Z-6.000 F1200.000 
G1 X11.232 Y99.817 
G1 X10.500 Y99.085 
G1 X7.000 Y99.085 Z-6.000 F1200.000 
G2 X4.500 Y101.585 Z-6.000 I0.000 J2.500 F1200.000 
G1 X4.500 Y150.500 Z-6.000 F1200.000 
G2 X7.000 Y153.000 Z-6.000 I2.500 J-0.000 F1200.000 
G1 X18.000 Y153.000 Z-6.000 F1200.000 
G2 X20.500 Y150.500 Z-6.000 I-0.000 J-2.500 F1200.000 
G1 X20.500 Y147.000 Z-6.000 F1200.000 
G1 X19.768 Y146.268 
G1 X20.500 Y147.000 
G1 X26.500 Y147.000 Z-6.000 F1200.000 
G1 X27.232 Y146.268 
G1 X26.500 Y147.000 
G1 X26.500 Y150.500 Z-6.000 F1200.000 
G2 X29.000 Y153.000 Z-6.000 I2.500 J-0.000 F1200.000 
G1 X51.000 Y153.000 Z-6.000 F1200.000 
G2 X53.500 Y150.500 Z-6.000 I-0.000 J-2.500 F1200.000 
G1 X53.500 Y147.000 Z-6.000 F1200.000 
G1 X52.768 Y146.268 
G1 X53.500 Y147.000 
G1 X59.500 Y147.000 Z-6.000 F1200.000 
G1 X60.232 Y146.268 
G1 X59.500 Y147.000 
G1 X59.500 Y150.500 Z-6.000 F1200.000 
G2 X62.000 Y153.000 Z-6.000 I2.500 J-0.000 F1200.000 
G1 X73.000 Y153.000 Z-6.000 F1200.000 
G2 X74.768 Y152.268 Z-6.000 I-0.000 J-2.500 F1200.000 
G0 Z5.000 
G0 Z5.000 
G0 X74.768 Y152.268 
G0 X79.571 Y151.094 
G0 X79.571 Y151.094 Z3.000 
G1 X79.571 Y151.094 Z-5.000 F500.000 
G2 X82.000 Y153.000 Z-5.000 I2.429 J-0.594 F1200.000 
G1 X93.000 Y153.000 Z-5.000 F1200.000 
G2 X95.500 Y150.500 Z-5.000 I-0.000 J-2.500 F1200.000 
G1 X95.500 Y147.000 Z-5.000 F1200.000 
G1 X94.768 Y146.268 
G1 X95.500 Y147.000 
G1 X101.500 Y147.000 Z-5.000 F1200.000 
G1 X102.232 Y146.268 
G1 X101.500 Y147.000 
G1 X101.500 Y150.500 Z-5.000 F1200.000 
G2 X104.000 Y153.000 Z-5.000 I2.500 J-0.000 F1200.000 
G1 X126.000 Y153.000 Z-5.000 F1200.000 
G2 X128.500 Y150.500 Z-5.000 I-0.000 J-2.500 F1200.000 
G1 X128.500 Y147.000 Z-5.000 F1200.000 
G1 X127.768 Y146.268 
G1 X128.500 Y147.000 
G1 X134.500 Y147.000 Z-5.000 F1200.000 
G1 X135.232 Y146.268 
G1 X134.500 Y147.000 
G1 X134.500 Y150.500 Z-5.000 F1200.000 
G2 X137.000 Y153.000 Z-5.000 I2.500 J-0.000 F1200.000 
G1 X148.000 Y153.000 Z-5.000 F1200.000 
G2 X150.500 Y150.500 Z-5.000 I-0.000 J-2.500 F1200.000 
G1 X150.500 Y101.585 Z-5.000 F1200.000 
G2 X148.000 Y99.085 Z-5.000 I-2.500 J0.000 F1200.000 
G1 X144.500 Y99.085 Z-5.000 F1200.000 
G1 X143.768 Y99.817 
G1 X144.500 Y99.085 
G1 X144.500 Y61.415 Z-5.000 F1200.000 
G1 X143.768 Y60.683 
G1 X144.500 Y61.415 
G1 X148.000 Y61.415 Z-5.000 F1200.000 
G2 X150.500 Y58.915 Z-5.000 I-0.000 J-2.500 F1200.000 
G1 X150.500 Y10.000 Z-5.000 F1200.000 
G2 X148.000 Y7.500 Z-5.000 I-2.500 J0.000 F1200.000 
G1 X137.000 Y7.500 Z-5.000 F1200.000 
G2 X134.500 Y10.000 Z-5.000 I0.000 J2.500 F1200.000 
G1 X134.500 Y13.500 Z-5.000 F1200.000 
G1 X135.232 Y14.232 
G1 X134.500 Y13.500 
G1 X128.500 Y13.500 Z-5.000 F1200.000 
G1 X127.768 Y14.232 
G1 X128.500 Y13.500 
G1 X128.500 Y10.000 Z-5.000 F1200.000 
G2 X126.000 Y7.500 Z-5.000 I-2.500 J0.000 F1200.000 
G1 X104.000 Y7.500 Z-5.000 F1200.000 
G2 X101.500 Y10.000 Z-5.000 I0.000 J2.500 F1200.000 
G1 X101.500 Y13.500 Z-5.000 F1200.000 
G1 X102.232 Y14.232 
G1 X101.500 Y13.500 
G1 X95.500 Y13.500 Z-5.000 F1200.000 
G1 X94.768 Y14.232 
G1 X95.500 Y13.500 
G1 X95.500 Y10.000 Z-5.000 F1200.000 
G2 X93.000 Y7.500 Z-5.000 I-2.500 J0.000 F1200.000 
G1 X82.000 Y7.500 Z-5.000 F1200.000 
G2 X79.500 Y10.000 Z-5.000 I0.000 J2.500 F1200.000 
G1 X79.500 Y150.500 Z-5.000 F1200.000 
G2 X79.571 Y151.094 Z-5.000 I2.500 J-0.000 F1200.000 
G1 X79.571 Y151.094 Z-6.000 F500.000 
G2 X82.000 Y153.000 Z-6.000 I2.429 J-0.594 F1200.000 
G1 X93.000 Y153.000 Z-6.000 F1200.000 
G2 X95.500 Y150.500 Z-6.000 I-0.000 J-2.500 F1200.000 
G1 X95.500 Y147.000 Z-6.000 F1200.000 
G1 X94.768 Y146.268 
G1 X95.500 Y147.000 
G1 X101.500 Y147.000 Z-6.000 F1200.000 
G1 X102.232 Y146.268 
G1 X101.500 Y147.000 
G1 X101.500 Y150.500 Z-6.000 F1200.000 
G2 X104.000 Y153.000 Z-6.000 I2.500 J-0.000 F1200.000 
G1 X126.000 Y153.000 Z-6.000 F1200.000 
G2 X128.500 Y150.500 Z-6.000 I-0.000 J-2.500 F1200.000 
G1 X128.500 Y147.000 Z-6.000 F1200.000 
G1 X127.768 Y146.268 
G1 X128.500 Y147.000 
G1 X134.500 Y147.000 Z-6.000 F1200.000 
G1 X135.232 Y146.268 
G1 X134.500 Y147.000 
G1 X134.500 Y150.500 Z-6.000 F1200.000 
G2 X137.000 Y153.000 Z-6.000 I2.500 J-0.000 F1200.000 
G1 X148.000 Y153.000 Z-6.000 F1200.000 
G2 X150.500 Y150.500 Z-6.000 I-0.000 J-2.500 F1200.000 
G1 X150.500 Y101.585 Z-6.000 F1200.000 
G2 X148.000 Y99.085 Z-6.000 I-2.500 J0.000 F1200.000 
G1 X144.500 Y99.085 Z-6.000 F1200.000 
G1 X143.768 Y99.817 
G1 X144.500 Y99.085 
G1 X144.500 Y61.415 Z-6.000 F1200.000 
G1 X143.768 Y60.683 
G1 X144.500 Y61.415 
G1 X148.000 Y61.415 Z-6.000 F1200.000 
G2 X150.500 Y58.915 Z-6.000 I-0.000 J-2.500 F1200.000 
G1 X150.500 Y10.000 Z-6.000 F1200.000 
G2 X148.000 Y7.500 Z-6.000 I-2.500 J0.000 F1200.000 
G1 X137.000 Y7.500 Z-6.000 F1200.000 
G2 X134.500 Y10.000 Z-6.000 I0.000 J2.500 F1200.000 
G1 X134.500 Y13.500 Z-6.000 F1200.000 
G1 X135.232 Y14.232 
G1 X134.500 Y13.500 
G1 X128.500 Y13.500 Z-6.000 F1200.000 
G1 X127.768 Y14.232 
G1 X128.500 Y13.500 
G1 X128.500 Y10.000 Z-6.000 F1200.000 
G2 X126.000 Y7.500 Z-6.000 I-2.500 J0.000 F1200.000 
G1 X104.000 Y7.500 Z-6.000 F1200.000 
G2 X101.500 Y10.000 Z-6.000 I0.000 J2.500 F1200.000 
G1 X101.500 Y13.500 Z-6.000 F1200.000 
G1 X102.232 Y14.232 
G1 X101.500 Y13.500 
G1 X95.500 Y13.500 Z-6.000 F1200.000 
G1 X94.768 Y14.232 
G1 X95.500 Y13.500 
G1 X95.500 Y10.000 Z-6.000 F1200.000 
G2 X93.000 Y7.500 Z-6.000 I-2.500 J0.000 F1200.000 
G1 X82.000 Y7.500 Z-6.000 F1200.000 
G2 X79.500 Y10.000 Z-6.000 I0.000 J2.500 F1200.000 
G1 X79.500 Y150.500 Z-6.000 F1200.000 
G2 X79.571 Y151.094 Z-6.000 I2.500 J-0.000 F1200.000 
G0 Z5.000 
G0 Z5.000 
G0 X79.571 Y151.094 
G0 X152.187 Y138.430 
G0 X152.187 Y138.430 Z3.000 
G1 X152.187 Y138.430 Z-5.000 F500.000 
G2 X154.650 Y140.500 Z-5.000 I2.463 J-0.430 F1200.000 
G1 X158.150 Y140.500 Z-5.000 F1200.000 
G1 X158.882 Y139.768 
G1 X158.150 Y140.500 
G1 X158.150 Y149.000 Z-5.000 F1200.000 
G2 X160.650 Y151.500 Z-5.000 I2.500 J-0.000 F1200.000 
G1 X203.320 Y151.500 Z-5.000 F1200.000 
G2 X205.820 Y149.000 Z-5.000 I0.000 J-2.500 F1200.000 
G1 X205.820 Y145.500 Z-5.000 F1200.000 
G1 X205.088 Y144.768 
G1 X205.820 Y145.500 
G1 X243.490 Y145.500 Z-5.000 F1200.000 
G1 X244.222 Y144.768 
G1 X243.490 Y145.500 
G1 X243.490 Y149.000 Z-5.000 F1200.000 
G2 X245.990 Y151.500 Z-5.000 I2.500 J-0.000 F1200.000 
G1 X288.660 Y151.500 Z-5.000 F1200.000 
G2 X291.160 Y149.000 Z-5.000 I-0.000 J-2.500 F1200.000 
G1 X291.160 Y145.500 Z-5.000 F1200.000 
G1 X290.428 Y144.768 
G1 X291.160 Y145.500 
G1 X328.830 Y145.500 Z-5.000 F1200.000 
G1 X329.562 Y144.768 
G1 X328.830 Y145.500 
G1 X328.830 Y149.000 Z-5.000 F1200.000 
G2 X331.330 Y151.500 Z-5.000 I2.500 J-0.000 F1200.000 
G1 X416.670 Y151.500 Z-5.000 F1200.000 
G2 X419.170 Y149.000 Z-5.000 I-0.000 J-2.500 F1200.000 
G1 X419.170 Y145.500 Z-5.000 F1200.000 
G1 X418.438 Y144.768 
G1 X419.170 Y145.500 
G1 X456.840 Y145.500 Z-5.000 F1200.000 
G1 X457.572 Y144.768 
G1 X456.840 Y145.500 
G1 X456.840 Y149.000 Z-5.000 F1200.000 
G2 X459.340 Y151.500 Z-5.000 I2.500 J-0.000 F1200.000 
G1 X502.010 Y151.500 Z-5.000 F1200.000 
G2 X504.510 Y149.000 Z-5.000 I-0.000 J-2.500 F1200.000 
G1 X504.510 Y145.500 Z-5.000 F1200.000 
G1 X503.778 Y144.768 
G1 X504.510 Y145.500 
G1 X542.180 Y145.500 Z-5.000 F1200.000 
G1 X542.912 Y144.768 
G1 X542.180 Y145.500 
G1 X542.180 Y149.000 Z-5.000 F1200.000 
G2 X544.680 Y151.500 Z-5.000 I2.500 J-0.000 F1200.000 
G1 X587.350 Y151.500 Z-5.000 F1200.000 
G2 X589.850 Y149.000 Z-5.000 I-0.000 J-2.500 F1200.000 
G1 X589.850 Y140.500 Z-5.000 F1200.000 
G1 X589.118 Y139.768 
G1 X589.850 Y140.500 
G1 X593.350 Y140.500 Z-5.000 F1200.000 
G2 X595.850 Y138.000 Z-5.000 I-0.000 J-2.500 F1200.000 
G1 X595.850 Y127.000 Z-5.000 F1200.000 
G2 X593.350 Y124.500 Z-5.000 I-2.500 J0.000 F1200.000 
G1 X589.850 Y124.500 Z-5.000 F1200.000 
G1 X589.118 Y125.232 
G1 X589.850 Y124.500 
G1 X589.850 Y107.500 Z-5.000 F1200.000 
G1 X589.118 Y106.768 
G1 X589.850 Y107.500 
G1 X593.350 Y107.500 Z-5.000 F1200.000 
G2 X595.850 Y105.000 Z-5.000 I-0.000 J-2.500 F1200.000 
G1 X595.850 Y94.000 Z-5.000 F1200.000 
G2 X593.350 Y91.500 Z-5.000 I-2.500 J0.000 F1200.000 
G1 X589.850 Y91.500 Z-5.000 F1200.000 
G1 X589.118 Y92.232 
G1 X589.850 Y91.500 
G1 X589.850 Y83.000 Z-5.000 F1200.000 
G2 X587.350 Y80.500 Z-5.000 I-2.500 J0.000 F1200.000 
G1 X160.650 Y80.500 Z-5.000 F1200.000 
G2 X158.150 Y83.000 Z-5.000 I0.000 J2.500 F1200.000 
G1 X158.150 Y91.500 Z-5.000 F1200.000 
G1 X158.882 Y92.232 
G1 X158.150 Y91.500 
G1 X154.650 Y91.500 Z-5.000 F1200.000 
G2 X152.150 Y94.000 Z-5.000 I0.000 J2.500 F1200.000 
G1 X152.150 Y105.000 Z-5.000 F1200.000 
G2 X154.650 Y107.500 Z-5.000 I2.500 J-0.000 F1200.000 
G1 X158.150 Y107.500 Z-5.000 F1200.000 
G1 X158.882 Y106.768 
G1 X158.150 Y107.500 
G1 X158.150 Y124.500 Z-5.000 F1200.000 
G1 X158.882 Y125.232 
G1 X158.150 Y124.500 
G1 X154.650 Y124.500 Z-5.000 F1200.000 
G2 X152.150 Y127.000 Z-5.000 I0.000 J2.500 F1200.000 
G1 X152.150 Y138.000 Z-5.000 F1200.000 
G2 X152.187 Y138.430 Z-5.000 I2.500 J-0.000 F1200.000 
G1 X152.187 Y138.430 Z-6.000 F500.000 
G2 X154.650 Y140.500 Z-6.000 I2.463 J-0.430 F1200.000 
G1 X158.150 Y140.500 Z-6.000 F1200.000 
G1 X158.882 Y139.768 
G1 X158.150 Y140.500 
G1 X158.150 Y149.000 Z-6.000 F1200.000 
G2 X160.650 Y151.500 Z-6.000 I2.500 J-0.000 F1200.000 
G1 X203.320 Y151.500 Z-6.000 F1200.000 
G2 X205.820 Y149.000 Z-6.000 I0.000 J-2.500 F1200.000 
G1 X205.820 Y145.500 Z-6.000 F1200.000 
G1 X205.088 Y144.768 
G1 X205.820 Y145.500 
G1 X243.490 Y145.500 Z-6.000 F1200.000 
G1 X244.222 Y144.768 
G1 X243.490 Y145.500 
G1 X243.490 Y149.000 Z-6.000 F1200.000 
G2 X245.990 Y151.500 Z-6.000 I2.500 J-0.000 F1200.000 
G1 X288.660 Y151.500 Z-6.000 F1200.000 
G2 X291.160 Y149.000 Z-6.000 I-0.000 J-2.500 F1200.000 
G1 X291.160 Y145.500 Z-6.000 F1200.000 
G1 X290.428 Y144.768 
G1 X291.160 Y145.500 
G1 X328.830 Y145.500 Z-6.000 F1200.000 
G1 X329.562 Y144.768 
G1 X328.830 Y145.500 
G1 X328.830 Y149.000 Z-6.000 F1200.000 
G2 X331.330 Y151.500 Z-6.000 I2.500 J-0.000 F1200.000 
G1 X416.670 Y151.500 Z-6.000 F1200.000 
G2 X419.170 Y149.000 Z-6.000 I-0.000 J-2.500 F1200.000 
G1 X419.170 Y145.500 Z-6.000 F1200.000 
G1 X418.438 Y144.768 
G1 X419.170 Y145.500 
G1 X456.840 Y145.500 Z-6.000 F1200.000 
G1 X457.572 Y144.768 
G1 X456.840 Y145.500 
G1 X456.840 Y149.000 Z-6.000 F1200.000 
G2 X459.340 Y151.500 Z-6.000 I2.500 J-0.000 F1200.000 
G1 X502.010 Y151.500 Z-6.000 F1200.000 
G2 X504.510 Y149.000 Z-6.000 I-0.000 J-2.500 F1200.000 
G1 X504.510 Y145.500 Z-6.000 F1200.000 
G1 X503.778 Y144.768 
G1 X504.510 Y145.500 
G1 X542.180 Y145.500 Z-6.000 F1200.000 
G1 X542.912 Y144.768 
G1 X542.180 Y145.500 
G1 X542.180 Y149.000 Z-6.000 F1200.000 
G2 X544.680 Y151.500 Z-6.000 I2.500 J-0.000 F1200.000 
G1 X587.350 Y151.500 Z-6.000 F1200.000 
G2 X589.850 Y149.000 Z-6.000 I-0.000 J-2.500 F1200.000 
G1 X589.850 Y140.500 Z-6.000 F1200.000 
G1 X589.118 Y139.768 
G1 X589.850 Y140.500 
G1 X593.350 Y140.500 Z-6.000 F1200.000 
G2 X595.850 Y138.000 Z-6.000 I-0.000 J-2.500 F1200.000 
G1 X595.850 Y127.000 Z-6.000 F1200.000 
G2 X593.350 Y124.500 Z-6.000 I-2.500 J0.000 F1200.000 
G1 X589.850 Y124.500 Z-6.000 F1200.000 
G1 X589.118 Y125.232 
G1 X589.850 Y124.500 
G1 X589.850 Y107.500 Z-6.000 F1200.000 
G1 X589.118 Y106.768 
G1 X589.850 Y107.500 
G1 X593.350 Y107.500 Z-6.000 F1200.000 
G2 X595.850 Y105.000 Z-6.000 I-0.000 J-2.500 F1200.000 
G1 X595.850 Y94.000 Z-6.000 F1200.000 
G2 X593.350 Y91.500 Z-6.000 I-2.500 J0.000 F1200.000 
G1 X589.850 Y91.500 Z-6.000 F1200.000 
G1 X589.118 Y92.232 
G1 X589.850 Y91.500 
G1 X589.850 Y83.000 Z-6.000 F1200.000 
G2 X587.350 Y80.500 Z-6.000 I-2.500 J0.000 F1200.000 
G1 X160.650 Y80.500 Z-6.000 F1200.000 
G2 X158.150 Y83.000 Z-6.000 I0.000 J2.500 F1200.000 
G1 X158.150 Y91.500 Z-6.000 F1200.000 
G1 X158.882 Y92.232 
G1 X158.150 Y91.500 
G1 X154.650 Y91.500 Z-6.000 F1200.000 
G2 X152.150 Y94.000 Z-6.000 I0.000 J2.500 F1200.000 
G1 X152.150 Y105.000 Z-6.000 F1200.000 
G2 X154.650 Y107.500 Z-6.000 I2.500 J-0.000 F1200.000 
G1 X158.150 Y107.500 Z-6.000 F1200.000 
G1 X158.882 Y106.768 
G1 X158.150 Y107.500 
G1 X158.150 Y124.500 Z-6.000 F1200.000 
G1 X158.882 Y125.232 
G1 X158.150 Y124.500 
G1 X154.650 Y124.500 Z-6.000 F1200.000 
G2 X152.150 Y127.000 Z-6.000 I0.000 J2.500 F1200.000 
G1 X152.150 Y138.000 Z-6.000 F1200.000 
G2 X152.187 Y138.430 Z-6.000 I2.500 J-0.000 F1200.000 
G0 Z5.000 
G0 Z5.000 
G0 X152.187 Y138.430 
G0 X160.324 Y76.479 
G0 X160.324 Y76.479 Z3.000 
G1 X160.324 Y76.479 Z-5.000 F500.000 
G2 X160.650 Y76.500 Z-5.000 I0.326 J-2.479 F1200.000 
G1 X203.320 Y76.500 Z-5.000 F1200.000 
G2 X205.820 Y74.000 Z-5.000 I-0.000 J-2.500 F1200.000 
G1 X205.820 Y70.500 Z-5.000 F1200.000 
G1 X205.088 Y69.768 
G1 X205.820 Y70.500 
G1 X243.490 Y70.500 Z-5.000 F1200.000 
G1 X244.222 Y69.768 
G1 X243.490 Y70.500 
G1 X243.490 Y74.000 Z-5.000 F1200.000 
G2 X245.990 Y76.500 Z-5.000 I2.500 J-0.000 F1200.000 
G1 X288.660 Y76.500 Z-5.000 F1200.000 
G2 X291.160 Y74.000 Z-5.000 I-0.000 J-2.500 F1200.000 
G1 X291.160 Y70.500 Z-5.000 F1200.000 
G1 X290.428 Y69.768 
G1 X291.160 Y70.500 
G1 X328.830 Y70.500 Z-5.000 F1200.000 
G1 X329.562 Y69.768 
G1 X328.830 Y70.500 
G1 X328.830 Y74.000 Z-5.000 F1200.000 
G2 X331.330 Y76.500 Z-5.000 I2.500 J-0.000 F1200.000 
G1 X416.670 Y76.500 Z-5.000 F1200.000 
G2 X419.170 Y74.000 Z-5.000 I-0.000 J-2.500 F1200.000 
G1 X419.170 Y70.500 Z-5.000 F1200.000 
G1 X418.438 Y69.768 
G1 X419.170 Y70.500 
G1 X456.840 Y70.500 Z-5.000 F1200.000 
G1 X457.572 Y69.768 
G1 X456.840 Y70.500 
G1 X456.840 Y74.000 Z-5.000 F1200.000 
G2 X459.340 Y76.500 Z-5.000 I2.500 J-0.000 F1200.000 
G1 X502.010 Y76.500 Z-5.000 F1200.000 
G2 X504.510 Y74.000 Z-5.000 I-0.000 J-2.500 F1200.000 
G1 X504.510 Y70.500 Z-5.000 F1200.000 
G1 X503.778 Y69.768 
G1 X504.510 Y70.500 
G1 X542.180 Y70.500 Z-5.000 F1200.000 
G1 X542.912 Y69.768 
G1 X542.180 Y70.500 
G1 X542.180 Y74.000 Z-5.000 F1200.000 
G2 X544.680 Y76.500 Z-5.000 I2.500 J-0.000 F1200.000 
G1 X587.350 Y76.500 Z-5.000 F1200.000 
G2 X589.850 Y74.000 Z-5.000 I-0.000 J-2.500 F1200.000 
G1 X589.850 Y65.500 Z-5.000 F1200.000 
G1 X589.118 Y64.768 
G1 X589.850 Y65.500 
G1 X593.350 Y65.500 Z-5.000 F1200.000 
G2 X595.850 Y63.000 Z-5.000 I-0.000 J-2.500 F1200.000 
G1 X595.850 Y52.000 Z-5.000 F1200.000 
G2 X593.350 Y49.500 Z-5.000 I-2.500 J0.000 F1200.000 
G1 X589.850 Y49.500 Z-5.000 F1200.000 
G1 X589.118 Y50.232 
G1 X589.850 Y49.500 
G1 X589.850 Y32.500 Z-5.000 F1200.000 
G1 X589.118 Y31.768 
G1 X589.850 Y32.500 
G1 X593.350 Y32.500 Z-5.000 F1200.000 
G2 X595.850 Y30.000 Z-5.000 I-0.000 J-2.500 F1200.000 
G1 X595.850 Y19.000 Z-5.000 F1200.000 
G2 X593.350 Y16.500 Z-5.000 I-2.500 J0.000 F1200.000 
G1 X589.850 Y16.500 Z-5.000 F1200.000 
G1 X589.118 Y17.232 
G1 X589.850 Y16.500 
G1 X589.850 Y8.000 Z-5.000 F1200.000 
G2 X587.350 Y5.500 Z-5.000 I-2.500 J0.000 F1200.000 
G1 X160.650 Y5.500 Z-5.000 F1200.000 
G2 X158.150 Y8.000 Z-5.000 I0.000 J2.500 F1200.000 
G1 X158.150 Y16.500 Z-5.000 F1200.000 
G1 X158.882 Y17.232 
G1 X158.150 Y16.500 
G1 X154.650 Y16.500 Z-5.000 F1200.000 
G2 X152.150 Y19.000 Z-5.000 I0.000 J2.500 F1200.000 
G1 X152.150 Y30.000 Z-5.000 F1200.000 
G2 X154.650 Y32.500 Z-5.000 I2.500 J-0.000 F1200.000 
G1 X158.150 Y32.500 Z-5.000 F1200.000 
G1 X158.882 Y31.768 
G1 X158.150 Y32.500 
G1 X158.150 Y49.500 Z-5.000 F1200.000 
G1 X158.882 Y50.232 
G1 X158.150 Y49.500 
G1 X154.650 Y49.500 Z-5.000 F1200.000 
G2 X152.150 Y52.000 Z-5.000 I0.000 J2.500 F1200.000 
G1 X152.150 Y63.000 Z-5.000 F1200.000 
G2 X154.650 Y65.500 Z-5.000 I2.500 J-0.000 F1200.000 
G1 X158.150 Y65.500 Z-5.000 F1200.000 
G1 X158.882 Y64.768 
G1 X158.150 Y65.500 
G1 X158.150 Y74.000 Z-5.000 F1200.000 
G2 X160.324 Y76.479 Z-5.000 I2.500 J-0.000 F1200.000 
G1 X160.324 Y76.479 Z-6.000 F500.000 
G2 X160.650 Y76.500 Z-6.000 I0.326 J-2.479 F1200.000 
G1 X203.320 Y76.500 Z-6.000 F1200.000 
G2 X205.820 Y74.000 Z-6.000 I-0.000 J-2.500 F1200.000 
G1 X205.820 Y70.500 Z-6.000 F1200.000 
G1 X205.088 Y69.768 
G1 X205.820 Y70.500 
G1 X243.490 Y70.500 Z-6.000 F1200.000 
G1 X244.222 Y69.768 
G1 X243.490 Y70.500 
G1 X243.490 Y74.000 Z-6.000 F1200.000 
G2 X245.990 Y76.500 Z-6.000 I2.500 J-0.000 F1200.000 
G1 X288.660 Y76.500 Z-6.000 F1200.000 
G2 X291.160 Y74.000 Z-6.000 I-0.000 J-2.500 F1200.000 
G1 X291.160 Y70.500 Z-6.000 F1200.000 
G1 X290.428 Y69.768 
G1 X291.160 Y70.500 
G1 X328.830 Y70.500 Z-6.000 F1200.000 
G1 X329.562 Y69.768 
G1 X328.830 Y70.500 
G1 X328.830 Y74.000 Z-6.000 F1200.000 
G2 X331.330 Y76.500 Z-6.000 I2.500 J-0.000 F1200.000 
G1 X416.670 Y76.500 Z-6.000 F1200.000 
G2 X419.170 Y74.000 Z-6.000 I-0.000 J-2.500 F1200.000 
G1 X419.170 Y70.500 Z-6.000 F1200.000 
G1 X418.438 Y69.768 
G1 X419.170 Y70.500 
G1 X456.840 Y70.500 Z-6.000 F1200.000 
G1 X457.572 Y69.768 
G1 X456.840 Y70.500 
G1 X456.840 Y74.000 Z-6.000 F1200.000 
G2 X459.340 Y76.500 Z-6.000 I2.500 J-0.000 F1200.000 
G1 X502.010 Y76.500 Z-6.000 F1200.000 
G2 X504.510 Y74.000 Z-6.000 I-0.000 J-2.500 F1200.000 
G1 X504.510 Y70.500 Z-6.000 F1200.000 
G1 X503.778 Y69.768 
G1 X504.510 Y70.500 
G1 X542.180 Y70.500 Z-6.000 F1200.000 
G1 X542.912 Y69.768 
G1 X542.180 Y70.500 
G1 X542.180 Y74.000 Z-6.000 F1200.000 
G2 X544.680 Y76.500 Z-6.000 I2.500 J-0.000 F1200.000 
G1 X587.350 Y76.500 Z-6.000 F1200.000 
G2 X589.850 Y74.000 Z-6.000 I-0.000 J-2.500 F1200.000 
G1 X589.850 Y65.500 Z-6.000 F1200.000 
G1 X589.118 Y64.768 
G1 X589.850 Y65.500 
G1 X593.350 Y65.500 Z-6.000 F1200.000 
G2 X595.850 Y63.000 Z-6.000 I-0.000 J-2.500 F1200.000 
G1 X595.850 Y52.000 Z-6.000 F1200.000 
G2 X593.350 Y49.500 Z-6.000 I-2.500 J0.000 F1200.000 
G1 X589.850 Y49.500 Z-6.000 F1200.000 
G1 X589.118 Y50.232 
G1 X589.850 Y49.500 
G1 X589.850 Y32.500 Z-6.000 F1200.000 
G1 X589.118 Y31.768 
G1 X589.850 Y32.500 
G1 X593.350 Y32.500 Z-6.000 F1200.000 
G2 X595.850 Y30.000 Z-6.000 I-0.000 J-2.500 F1200.000 
G1 X595.850 Y19.000 Z-6.000 F1200.000 
G2 X593.350 Y16.500 Z-6.000 I-2.500 J0.000 F1200.000 
G1 X589.850 Y16.500 Z-6.000 F1200.000 
G1 X589.118 Y17.232 
G1 X589.850 Y16.500 
G1 X589.850 Y8.000 Z-6.000 F1200.000 
G2 X587.350 Y5.500 Z-6.000 I-2.500 J0.000 F1200.000 
G1 X160.650 Y5.500 Z-6.000 F1200.000 
G2 X158.150 Y8.000 Z-6.000 I0.000 J2.500 F1200.000 
G1 X158.150 Y16.500 Z-6.000 F1200.000 
G1 X158.882 Y17.232 
G1 X158.150 Y16.500 
G1 X154.650 Y16.500 Z-6.000 F1200.000 
G2 X152.150 Y19.000 Z-6.000 I0.000 J2.500 F1200.000 
G1 X152.150 Y30.000 Z-6.000 F1200.000 
G2 X154.650 Y32.500 Z-6.000 I2.500 J-0.000 F1200.000 
G1 X158.150 Y32.500 Z-6.000 F1200.000 
G1 X158.882 Y31.768 
G1 X158.150 Y32.500 
G1 X158.150 Y49.500 Z-6.000 F1200.000 
G1 X158.882 Y50.232 
G1 X158.150 Y49.500 
G1 X154.650 Y49.500 Z-6.000 F1200.000 
G2 X152.150 Y52.000 Z-6.000 I0.000 J2.500 F1200.000 
G1 X152.150 Y63.000 Z-6.000 F1200.000 
G2 X154.650 Y65.500 Z-6.000 I2.500 J-0.000 F1200.000 
G1 X158.150 Y65.500 Z-6.000 F1200.000 
G1 X158.882 Y64.768 
G1 X158.150 Y65.500 
G1 X158.150 Y74.000 Z-6.000 F1200.000 
G2 X160.324 Y76.479 Z-6.000 I2.500 J-0.000 F1200.000 
G0 Z5.000 
G0 Z5.000 
G0 X160.324 Y76.479 
G1 X161.050 Y75.750 
G1 X160.324 Y76.479 
G0 X160.650 Y158.500 
G0 X160.650 Y158.500 Z3.000 
G1 X160.650 Y158.500 Z-5.000 F500.000 
G2 X158.150 Y161.000 Z-5.000 I0.000 J2.500 F1200.000 
G1 X158.150 Y201.415 Z-5.000 F1200.000 
G1 X158.882 Y202.147 
G1 X158.150 Y201.415 
G1 X154.650 Y201.415 Z-5.000 F1200.000 
G2 X152.150 Y203.915 Z-5.000 I0.000 J2.500 F1200.000 
G1 X152.150 Y246.585 Z-5.000 F1200.000 
G2 X154.650 Y249.085 Z-5.000 I2.500 J-0.000 F1200.000 
G1 X158.150 Y249.085 Z-5.000 F1200.000 
G1 X158.882 Y248.353 
G1 X158.150 Y249.085 
G1 X158.150 Y289.500 Z-5.000 F1200.000 
G2 X160.650 Y292.000 Z-5.000 I2.500 J-0.000 F1200.000 
G1 X200.820 Y292.000 Z-5.000 F1200.000 
G1 X201.552 Y291.268 
G1 X200.820 Y292.000 
G1 X200.820 Y295.500 Z-5.000 F1200.000 
G2 X203.320 Y298.000 Z-5.000 I2.500 J-0.000 F1200.000 
G1 X245.990 Y298.000 Z-5.000 F1200.000 
G2 X248.490 Y295.500 Z-5.000 I-0.000 J-2.500 F1200.000 
G1 X248.490 Y292.000 Z-5.000 F1200.000 
G1 X247.758 Y291.268 
G1 X248.490 Y292.000 
G1 X286.160 Y292.000 Z-5.000 F1200.000 
G1 X286.892 Y291.268 
G1 X286.160 Y292.000 
G1 X286.160 Y295.500 Z-5.000 F1200.000 
G2 X288.660 Y298.000 Z-5.000 I2.500 J-0.000 F1200.000 
G1 X331.330 Y298.000 Z-5.000 F1200.000 
G2 X333.830 Y295.500 Z-5.000 I-0.000 J-2.500 F1200.000 
G1 X333.830 Y292.000 Z-5.000 F1200.000 
G1 X333.098 Y291.268 
G1 X333.830 Y292.000 
G1 X414.170 Y292.000 Z-5.000 F1200.000 
G1 X414.902 Y291.268 
G1 X414.170 Y292.000 
G1 X414.170 Y295.500 Z-5.000 F1200.000 
G2 X416.670 Y298.000 Z-5.000 I2.500 J-0.000 F1200.000 
G1 X459.340 Y298.000 Z-5.000 F1200.000 
G2 X461.840 Y295.500 Z-5.000 I-0.000 J-2.500 F1200.000 
G1 X461.840 Y292.000 Z-5.000 F1200.000 
G1 X461.108 Y291.268 
G1 X461.840 Y292.000 
G1 X499.510 Y292.000 Z-5.000 F1200.000 
G1 X500.242 Y291.268 
G1 X499.510 Y292.000 
G1 X499.510 Y295.500 Z-5.000 F1200.000 
G2 X502.010 Y298.000 Z-5.000 I2.500 J-0.000 F1200.000 
G1 X544.680 Y298.000 Z-5.000 F1200.000 
G2 X547.180 Y295.500 Z-5.000 I-0.000 J-2.500 F1200.000 
G1 X547.180 Y292.000 Z-5.000 F1200.000 
G1 X546.448 Y291.268 
G1 X547.180 Y292.000 
G1 X587.350 Y292.000 Z-5.000 F1200.000 
G2 X589.850 Y289.500 Z-5.000 I-0.000 J-2.500 F1200.000 
G1 X589.850 Y249.085 Z-5.000 F1200.000 
G1 X589.118 Y248.353 
G1 X589.850 Y249.085 
G1 X593.350 Y249.085 Z-5.000 F1200.000 
G2 X595.850 Y246.585 Z-5.000 I-0.000 J-2.500 F1200.000 
G1 X595.850 Y203.915 Z-5.000 F1200.000 
G2 X593.350 Y201.415 Z-5.000 I-2.500 J0.000 F1200.000 
G1 X589.850 Y201.415 Z-5.000 F1200.000 
G1 X589.118 Y202.147 
G1 X589.850 Y201.415 
G1 X589.850 Y161.000 Z-5.000 F1200.000 
G2 X587.350 Y158.500 Z-5.000 I-2.500 J0.000 F1200.000 
G1 X547.180 Y158.500 Z-5.000 F1200.000 
G1 X546.448 Y159.232 
G1 X547.180 Y158.500 
G1 X547.180 Y155.000 Z-5.000 F1200.000 
G2 X544.680 Y152.500 Z-5.000 I-2.500 J0.000 F1200.000 
G1 X502.010 Y152.500 Z-5.000 F1200.000 
G2 X499.510 Y155.000 Z-5.000 I0.000 J2.500 F1200.000 
G1 X499.510 Y158.500 Z-5.000 F1200.000 
G1 X500.242 Y159.232 
G1 X499.510 Y158.500 
G1 X461.840 Y158.500 Z-5.000 F1200.000 
G1 X461.108 Y159.232 
G1 X461.840 Y158.500 
G1 X461.840 Y155.000 Z-5.000 F1200.000 
G2 X459.340 Y152.500 Z-5.000 I-2.500 J0.000 F1200.000 
G1 X416.670 Y152.500 Z-5.000 F1200.000 
G2 X414.170 Y155.000 Z-5.000 I0.000 J2.500 F1200.000 
G1 X414.170 Y158.500 Z-5.000 F1200.000 
G1 X414.902 Y159.232 
G1 X414.170 Y158.500 
G1 X333.830 Y158.500 Z-5.000 F1200.000 
G1 X333.098 Y159.232 
G1 X333.830 Y158.500 
G1 X333.830 Y155.000 Z-5.000 F1200.000 
G2 X331.330 Y152.500 Z-5.000 I-2.500 J0.000 F1200.000 
G1 X288.660 Y152.500 Z-5.000 F1200.000 
G2 X286.160 Y155.000 Z-5.000 I0.000 J2.500 F1200.000 
G1 X286.160 Y158.500 Z-5.000 F1200.000 
G1 X286.892 Y159.232 
G1 X286.160 Y158.500 
G1 X248.490 Y158.500 Z-5.000 F1200.000 
G1 X247.758 Y159.232 
G1 X248.490 Y158.500 
G1 X248.490 Y155.000 Z-5.000 F1200.000 
G2 X245.990 Y152.500 Z-5.000 I-2.500 J0.000 F1200.000 
G1 X203.320 Y152.500 Z-5.000 F1200.000 
G2 X200.820 Y155.000 Z-5.000 I0.000 J2.500 F1200.000 
G1 X200.820 Y158.500 Z-5.000 F1200.000 
G1 X201.552 Y159.232 
G1 X200.820 Y158.500 
G1 X160.650 Y158.500 Z-5.000 F1200.000 
G1 X160.650 Y158.500 Z-6.000 F500.000 
G2 X158.150 Y161.000 Z-6.000 I0.000 J2.500 F1200.000 
G1 X158.150 Y201.415 Z-6.000 F1200.000 
G1 X158.882 Y202.147 
G1 X158.150 Y201.415 
G1 X154.650 Y201.415 Z-6.000 F1200.000 
G2 X152.150 Y203.915 Z-6.000 I0.000 J2.500 F1200.000 
G1 X152.150 Y246.585 Z-6.000 F1200.000 
G2 X154.650 Y249.085 Z-6.000 I2.500 J-0.000 F1200.000 
G1 X158.150 Y249.085 Z-6.000 F1200.000 
G1 X158.882 Y248.353 
G1 X158.150 Y249.085 
G1 X158.150 Y289.500 Z-6.000 F1200.000 
G2 X160.650 Y292.000 Z-6.000 I2.500 J-0.000 F1200.000 
G1 X200.820 Y292.000 Z-6.000 F1200.000 
G1 X201.552 Y291.268 
G1 X200.820 Y292.000 
G1 X200.820 Y295.500 Z-6.000 F1200.000 
G2 X203.320 Y298.000 Z-6.000 I2.500 J-0.000 F1200.000 
G1 X245.990 Y298.000 Z-6.000 F1200.000 
G2 X248.490 Y295.500 Z-6.000 I-0.000 J-2.500 F1200.000 
G1 X248.490 Y292.000 Z-6.000 F1200.000 
G1 X247.758 Y291.268 
G1 X248.490 Y292.000 
G1 X286.160 Y292.000 Z-6.000 F1200.000 
G1 X286.892 Y291.268 
G1 X286.160 Y292.000 
G1 X286.160 Y295.500 Z-6.000 F1200.000 
G2 X288.660 Y298.000 Z-6.000 I2.500 J-0.000 F1200.000 
G1 X331.330 Y298.000 Z-6.000 F1200.000 
G2 X333.830 Y295.500 Z-6.000 I-0.000 J-2.500 F1200.000 
G1 X333.830 Y292.000 Z-6.000 F1200.000 
G1 X333.098 Y291.268 
G1 X333.830 Y292.000 
G1 X414.170 Y292.000 Z-6.000 F1200.000 
G1 X414.902 Y291.268 
G1 X414.170 Y292.000 
G1 X414.170 Y295.500 Z-6.000 F1200.000 
G2 X416.670 Y298.000 Z-6.000 I2.500 J-0.000 F1200.000 
G1 X459.340 Y298.000 Z-6.000 F1200.000 
G2 X461.840 Y295.500 Z-6.000 I-0.000 J-2.500 F1200.000 
G1 X461.840 Y292.000 Z-6.000 F1200.000 
G1 X461.108 Y291.268 
G1 X461.840 Y292.000 
G1 X499.510 Y292.000 Z-6.000 F1200.000 
G1 X500.242 Y291.268 
G1 X499.510 Y292.000 
G1 X499.510 Y295.500 Z-6.000 F1200.000 
G2 X502.010 Y298.000 Z-6.000 I2.500 J-0.000 F1200.000 
G1 X544.680 Y298.000 Z-6.000 F1200.000 
G2 X547.180 Y295.500 Z-6.000 I-0.000 J-2.500 F1200.000 
G1 X547.180 Y292.000 Z-6.000 F1200.000 
G1 X546.448 Y291.268 
G1 X547.180 Y292.000 
G1 X587.350 Y292.000 Z-6.000 F1200.000 
G2 X589.850 Y289.500 Z-6.000 I-0.000 J-2.500 F1200.000 
G1 X589.850 Y249.085 Z-6.000 F1200.000 
G1 X589.118 Y248.353 
G1 X589.850 Y249.085 
G1 X593.350 Y249.085 Z-6.000 F1200.000 
G2 X595.850 Y246.585 Z-6.000 I-0.000 J-2.500 F1200.000 
G1 X595.850 Y203.915 Z-6.000 F1200.000 
G2 X593.350 Y201.415 Z-6.000 I-2.500 J0.000 F1200.000 
G1 X589.850 Y201.415 Z-6.000 F1200.000 
G1 X589.118 Y202.147 
G1 X589.850 Y201.415 
G1 X589.850 Y161.000 Z-6.000 F1200.000 
G2 X587.350 Y158.500 Z-6.000 I-2.500 J0.000 F1200.000 
G1 X547.180 Y158.500 Z-6.000 F1200.000 
G1 X546.448 Y159.232 
G1 X547.180 Y158.500 
G1 X547.180 Y155.000 Z-6.000 F1200.000 
G2 X544.680 Y152.500 Z-6.000 I-2.500 J0.000 F1200.000 
G1 X502.010 Y152.500 Z-6.000 F1200.000 
G2 X499.510 Y155.000 Z-6.000 I0.000 J2.500 F1200.000 
G1 X499.510 Y158.500 Z-6.000 F1200.000 
G1 X500.242 Y159.232 
G1 X499.510 Y158.500 
G1 X461.840 Y158.500 Z-6.000 F1200.000 
G1 X461.108 Y159.232 
G1 X461.840 Y158.500 
G1 X461.840 Y155.000 Z-6.000 F1200.000 
G2 X459.340 Y152.500 Z-6.000 I-2.500 J0.000 F1200.000 
G1 X416.670 Y152.500 Z-6.000 F1200.000 
G2 X414.170 Y155.000 Z-6.000 I0.000 J2.500 F1200.000 
G1 X414.170 Y158.500 Z-6.000 F1200.000 
G1 X414.902 Y159.232 
G1 X414.170 Y158.500 
G1 X333.830 Y158.500 Z-6.000 F1200.000 
G1 X333.098 Y159.232 
G1 X333.830 Y158.500 
G1 X333.830 Y155.000 Z-6.000 F1200.000 
G2 X331.330 Y152.500 Z-6.000 I-2.500 J0.000 F1200.000 
G1 X288.660 Y152.500 Z-6.000 F1200.000 
G2 X286.160 Y155.000 Z-6.000 I0.000 J2.500 F1200.000 
G1 X286.160 Y158.500 Z-6.000 F1200.000 
G1 X286.892 Y159.232 
G1 X286.160 Y158.500 
G1 X248.490 Y158.500 Z-6.000 F1200.000 
G1 X247.758 Y159.232 
G1 X248.490 Y158.500 
G1 X248.490 Y155.000 Z-6.000 F1200.000 
G2 X245.990 Y152.500 Z-6.000 I-2.500 J0.000 F1200.000 
G1 X203.320 Y152.500 Z-6.000 F1200.000 
G2 X200.820 Y155.000 Z-6.000 I0.000 J2.500 F1200.000 
G1 X200.820 Y158.500 Z-6.000 F1200.000 
G1 X201.552 Y159.232 
G1 X200.820 Y158.500 
G1 X160.650 Y158.500 Z-6.000 F1200.000 
G0 Z5.000 
G0 Z5.000 
(finish operation: DressupDogbone)
(begin operation: Pocket_Shape)
(machine units: mm/min)
(Pocket_Shape) 
G0 Z5.000 
G0 X60.348 Y21.348 
G0 Z3.000 
G1 X60.348 Y21.348 Z-5.000 F500.000 
G2 X60.398 Y20.711 Z-5.000 I-0.348 J-0.348 F1200.000 
G2 X59.602 Y21.289 Z-5.000 I-0.398 J0.289 F1200.000 
G2 X60.348 Y21.348 Z-5.000 I0.398 J-0.289 F1200.000 
G1 X60.348 Y21.348 Z-6.000 F500.000 
G2 X60.398 Y20.711 Z-6.000 I-0.348 J-0.348 F1200.000 
G2 X59.602 Y21.289 Z-6.000 I-0.398 J0.289 F1200.000 
G2 X60.348 Y21.348 Z-6.000 I0.398 J-0.289 F1200.000 
G0 Z5.000 
G0 Z5.000 
G0 X60.348 Y21.348 
G0 X60.001 Y139.008 
G0 X60.001 Y139.008 Z3.000 
G1 X60.001 Y139.008 Z-5.000 F500.000 
G2 X59.602 Y139.789 Z-5.000 I-0.001 J0.492 F1200.000 
G2 X60.398 Y139.211 Z-5.000 I0.398 J-0.289 F1200.000 
G2 X60.001 Y139.008 Z-5.000 I-0.398 J0.289 F1200.000 
G1 X60.001 Y139.008 Z-6.000 F500.000 
G2 X59.602 Y139.789 Z-6.000 I-0.001 J0.492 F1200.000 
G2 X60.398 Y139.211 Z-6.000 I0.398 J-0.289 F1200.000 
G2 X60.001 Y139.008 Z-6.000 I-0.398 J0.289 F1200.000 
G0 Z5.000 
G0 Z5.000 
(finish operation: Pocket_Shape)
(begin operation: Pocket_Shape001)
(machine units: mm/min)
(Pocket_Shape001) 
G0 Z5.000 
G0 X95.348 Y21.348 
G0 Z3.000 
G1 X95.348 Y21.348 Z-5.000 F500.000 
G2 X95.398 Y20.711 Z-5.000 I-0.348 J-0.348 F1200.000 
G2 X94.602 Y21.289 Z-5.000 I-0.398 J0.289 F1200.000 
G2 X95.348 Y21.348 Z-5.000 I0.398 J-0.289 F1200.000 
G1 X95.348 Y21.348 Z-6.000 F500.000 
G2 X95.398 Y20.711 Z-6.000 I-0.348 J-0.348 F1200.000 
G2 X94.602 Y21.289 Z-6.000 I-0.398 J0.289 F1200.000 
G2 X95.348 Y21.348 Z-6.000 I0.398 J-0.289 F1200.000 
G0 Z5.000 
G0 Z5.000 
G0 X95.348 Y21.348 
G0 X95.001 Y139.008 
G0 X95.001 Y139.008 Z3.000 
G1 X95.001 Y139.008 Z-5.000 F500.000 
G2 X94.602 Y139.789 Z-5.000 I-0.001 J0.492 F1200.000 
G2 X95.398 Y139.211 Z-5.000 I0.398 J-0.289 F1200.000 
G2 X95.001 Y139.008 Z-5.000 I-0.398 J0.289 F1200.000 
G1 X95.001 Y139.008 Z-6.000 F500.000 
G2 X94.602 Y139.789 Z-6.000 I-0.001 J0.492 F1200.000 
G2 X95.398 Y139.211 Z-6.000 I0.398 J-0.289 F1200.000 
G2 X95.001 Y139.008 Z-6.000 I-0.398 J0.289 F1200.000 
G0 Z5.000 
G0 Z5.000 
(finish operation: Pocket_Shape001)
(begin postamble)
M05
G17 G54 G90 G80 G40
M2
