(Exported by FreeCAD)
(Post Processor: linuxcnc_post)
(Output Time:2025-08-01 00:37:21.071256)
(begin preamble)
G17 G54 G40 G49 G80 G90
G21
(begin operation: Fixture)
(machine units: mm/min)
G54 
(finish operation: Fixture)
(begin operation: MillFace)
(machine units: mm/min)
(MillFace) 
G0 Z5.000 
G0 X274.500 Y-127.500 
G0 Z3.000 
G1 X274.500 Y-127.500 Z-3.000 F500.000 
G1 X274.500 Y-125.379 Z-3.000 F1200.000 
G1 X272.379 Y-127.500 Z-3.000 F1200.000 
G1 X270.257 Y-127.500 Z-3.000 F1200.000 
G1 X274.500 Y-123.257 Z-3.000 F1200.000 
G1 X274.500 Y-121.136 Z-3.000 F1200.000 
G1 X268.136 Y-127.500 Z-3.000 F1200.000 
G1 X266.015 Y-127.500 Z-3.000 F1200.000 
G1 X274.500 Y-119.015 Z-3.000 F1200.000 
G1 X274.500 Y-116.893 Z-3.000 F1200.000 
G1 X263.893 Y-127.500 Z-3.000 F1200.000 
G1 X261.772 Y-127.500 Z-3.000 F1200.000 
G1 X274.500 Y-114.772 Z-3.000 F1200.000 
G1 X274.500 Y-113.500 Z-3.000 F1200.000 
G1 X273.651 Y-113.500 Z-3.000 F1200.000 
G1 X259.651 Y-127.500 Z-3.000 F1200.000 
G1 X257.529 Y-127.500 Z-3.000 F1200.000 
G1 X271.529 Y-113.500 Z-3.000 F1200.000 
G1 X269.408 Y-113.500 Z-3.000 F1200.000 
G1 X255.408 Y-127.500 Z-3.000 F1200.000 
G1 X253.287 Y-127.500 Z-3.000 F1200.000 
G1 X267.287 Y-113.500 Z-3.000 F1200.000 
G1 X265.165 Y-113.500 Z-3.000 F1200.000 
G1 X251.165 Y-127.500 Z-3.000 F1200.000 
G1 X249.044 Y-127.500 Z-3.000 F1200.000 
G1 X263.044 Y-113.500 Z-3.000 F1200.000 
G1 X260.923 Y-113.500 Z-3.000 F1200.000 
G1 X246.923 Y-127.500 Z-3.000 F1200.000 
G1 X244.802 Y-127.500 Z-3.000 F1200.000 
G1 X258.802 Y-113.500 Z-3.000 F1200.000 
G1 X256.680 Y-113.500 Z-3.000 F1200.000 
G1 X242.680 Y-127.500 Z-3.000 F1200.000 
G1 X240.559 Y-127.500 Z-3.000 F1200.000 
G1 X254.559 Y-113.500 Z-3.000 F1200.000 
G1 X252.438 Y-113.500 Z-3.000 F1200.000 
G1 X238.438 Y-127.500 Z-3.000 F1200.000 
G1 X236.316 Y-127.500 Z-3.000 F1200.000 
G1 X250.316 Y-113.500 Z-3.000 F1200.000 
G1 X248.195 Y-113.500 Z-3.000 F1200.000 
G1 X234.195 Y-127.500 Z-3.000 F1200.000 
G1 X232.074 Y-127.500 Z-3.000 F1200.000 
G1 X246.074 Y-113.500 Z-3.000 F1200.000 
G1 X243.952 Y-113.500 Z-3.000 F1200.000 
G1 X229.952 Y-127.500 Z-3.000 F1200.000 
G1 X227.831 Y-127.500 Z-3.000 F1200.000 
G1 X241.831 Y-113.500 Z-3.000 F1200.000 
G1 X239.710 Y-113.500 Z-3.000 F1200.000 
G1 X225.710 Y-127.500 Z-3.000 F1200.000 
G1 X223.588 Y-127.500 Z-3.000 F1200.000 
G1 X237.588 Y-113.500 Z-3.000 F1200.000 
G1 X235.467 Y-113.500 Z-3.000 F1200.000 
G1 X221.467 Y-127.500 Z-3.000 F1200.000 
G1 X219.346 Y-127.500 Z-3.000 F1200.000 
G1 X233.346 Y-113.500 Z-3.000 F1200.000 
G1 X231.224 Y-113.500 Z-3.000 F1200.000 
G1 X217.224 Y-127.500 Z-3.000 F1200.000 
G1 X215.103 Y-127.500 Z-3.000 F1200.000 
G1 X229.103 Y-113.500 Z-3.000 F1200.000 
G1 X226.982 Y-113.500 Z-3.000 F1200.000 
G1 X212.982 Y-127.500 Z-3.000 F1200.000 
G1 X210.860 Y-127.500 Z-3.000 F1200.000 
G1 X224.860 Y-113.500 Z-3.000 F1200.000 
G1 X222.739 Y-113.500 Z-3.000 F1200.000 
G1 X208.739 Y-127.500 Z-3.000 F1200.000 
G1 X206.618 Y-127.500 Z-3.000 F1200.000 
G1 X220.618 Y-113.500 Z-3.000 F1200.000 
G1 X218.496 Y-113.500 Z-3.000 F1200.000 
G1 X204.496 Y-127.500 Z-3.000 F1200.000 
G1 X202.375 Y-127.500 Z-3.000 F1200.000 
G1 X216.375 Y-113.500 Z-3.000 F1200.000 
G1 X214.254 Y-113.500 Z-3.000 F1200.000 
G1 X200.254 Y-127.500 Z-3.000 F1200.000 
G1 X198.132 Y-127.500 Z-3.000 F1200.000 
G1 X212.132 Y-113.500 Z-3.000 F1200.000 
G1 X210.011 Y-113.500 Z-3.000 F1200.000 
G1 X196.011 Y-127.500 Z-3.000 F1200.000 
G1 X193.890 Y-127.500 Z-3.000 F1200.000 
G1 X207.890 Y-113.500 Z-3.000 F1200.000 
G1 X205.769 Y-113.500 Z-3.000 F1200.000 
G1 X191.769 Y-127.500 Z-3.000 F1200.000 
G1 X189.647 Y-127.500 Z-3.000 F1200.000 
G1 X203.647 Y-113.500 Z-3.000 F1200.000 
G1 X201.526 Y-113.500 Z-3.000 F1200.000 
G1 X187.526 Y-127.500 Z-3.000 F1200.000 
G1 X185.405 Y-127.500 Z-3.000 F1200.000 
G1 X199.405 Y-113.500 Z-3.000 F1200.000 
G1 X197.283 Y-113.500 Z-3.000 F1200.000 
G1 X183.283 Y-127.500 Z-3.000 F1200.000 
G1 X181.162 Y-127.500 Z-3.000 F1200.000 
G1 X195.162 Y-113.500 Z-3.000 F1200.000 
G1 X193.041 Y-113.500 Z-3.000 F1200.000 
G1 X179.041 Y-127.500 Z-3.000 F1200.000 
G1 X176.919 Y-127.500 Z-3.000 F1200.000 
G1 X190.919 Y-113.500 Z-3.000 F1200.000 
G1 X188.798 Y-113.500 Z-3.000 F1200.000 
G1 X174.798 Y-127.500 Z-3.000 F1200.000 
G1 X172.677 Y-127.500 Z-3.000 F1200.000 
G1 X186.677 Y-113.500 Z-3.000 F1200.000 
G1 X184.555 Y-113.500 Z-3.000 F1200.000 
G1 X170.555 Y-127.500 Z-3.000 F1200.000 
G1 X168.434 Y-127.500 Z-3.000 F1200.000 
G1 X182.434 Y-113.500 Z-3.000 F1200.000 
G1 X180.313 Y-113.500 Z-3.000 F1200.000 
G1 X166.313 Y-127.500 Z-3.000 F1200.000 
G1 X164.191 Y-127.500 Z-3.000 F1200.000 
G1 X178.191 Y-113.500 Z-3.000 F1200.000 
G1 X176.070 Y-113.500 Z-3.000 F1200.000 
G1 X162.070 Y-127.500 Z-3.000 F1200.000 
G1 X159.949 Y-127.500 Z-3.000 F1200.000 
G1 X173.949 Y-113.500 Z-3.000 F1200.000 
G1 X171.827 Y-113.500 Z-3.000 F1200.000 
G1 X157.827 Y-127.500 Z-3.000 F1200.000 
G1 X155.706 Y-127.500 Z-3.000 F1200.000 
G1 X169.706 Y-113.500 Z-3.000 F1200.000 
G1 X167.585 Y-113.500 Z-3.000 F1200.000 
G1 X153.585 Y-127.500 Z-3.000 F1200.000 
G1 X151.463 Y-127.500 Z-3.000 F1200.000 
G1 X165.463 Y-113.500 Z-3.000 F1200.000 
G1 X163.342 Y-113.500 Z-3.000 F1200.000 
G1 X149.342 Y-127.500 Z-3.000 F1200.000 
G1 X147.221 Y-127.500 Z-3.000 F1200.000 
G1 X161.221 Y-113.500 Z-3.000 F1200.000 
G1 X159.099 Y-113.500 Z-3.000 F1200.000 
G1 X145.099 Y-127.500 Z-3.000 F1200.000 
G1 X142.978 Y-127.500 Z-3.000 F1200.000 
G1 X156.978 Y-113.500 Z-3.000 F1200.000 
G1 X154.857 Y-113.500 Z-3.000 F1200.000 
G1 X140.857 Y-127.500 Z-3.000 F1200.000 
G1 X138.735 Y-127.500 Z-3.000 F1200.000 
G1 X152.735 Y-113.500 Z-3.000 F1200.000 
G1 X150.614 Y-113.500 Z-3.000 F1200.000 
G1 X136.614 Y-127.500 Z-3.000 F1200.000 
G1 X134.493 Y-127.500 Z-3.000 F1200.000 
G1 X148.493 Y-113.500 Z-3.000 F1200.000 
G1 X146.372 Y-113.500 Z-3.000 F1200.000 
G1 X132.372 Y-127.500 Z-3.000 F1200.000 
G1 X130.250 Y-127.500 Z-3.000 F1200.000 
G1 X144.250 Y-113.500 Z-3.000 F1200.000 
G1 X142.129 Y-113.500 Z-3.000 F1200.000 
G1 X128.129 Y-127.500 Z-3.000 F1200.000 
G1 X126.008 Y-127.500 Z-3.000 F1200.000 
G1 X140.008 Y-113.500 Z-3.000 F1200.000 
G1 X137.886 Y-113.500 Z-3.000 F1200.000 
G1 X123.886 Y-127.500 Z-3.000 F1200.000 
G1 X121.765 Y-127.500 Z-3.000 F1200.000 
G1 X135.765 Y-113.500 Z-3.000 F1200.000 
G1 X133.644 Y-113.500 Z-3.000 F1200.000 
G1 X119.644 Y-127.500 Z-3.000 F1200.000 
G1 X117.522 Y-127.500 Z-3.000 F1200.000 
G1 X131.522 Y-113.500 Z-3.000 F1200.000 
G1 X129.401 Y-113.500 Z-3.000 F1200.000 
G1 X115.401 Y-127.500 Z-3.000 F1200.000 
G1 X113.280 Y-127.500 Z-3.000 F1200.000 
G1 X127.280 Y-113.500 Z-3.000 F1200.000 
G1 X125.158 Y-113.500 Z-3.000 F1200.000 
G1 X111.158 Y-127.500 Z-3.000 F1200.000 
G1 X109.037 Y-127.500 Z-3.000 F1200.000 
G1 X123.037 Y-113.500 Z-3.000 F1200.000 
G1 X120.916 Y-113.500 Z-3.000 F1200.000 
G1 X106.916 Y-127.500 Z-3.000 F1200.000 
G1 X104.794 Y-127.500 Z-3.000 F1200.000 
G1 X118.794 Y-113.500 Z-3.000 F1200.000 
G1 X116.673 Y-113.500 Z-3.000 F1200.000 
G1 X102.673 Y-127.500 Z-3.000 F1200.000 
G1 X100.552 Y-127.500 Z-3.000 F1200.000 
G1 X114.552 Y-113.500 Z-3.000 F1200.000 
G1 X112.430 Y-113.500 Z-3.000 F1200.000 
G1 X98.430 Y-127.500 Z-3.000 F1200.000 
G1 X96.309 Y-127.500 Z-3.000 F1200.000 
G1 X110.309 Y-113.500 Z-3.000 F1200.000 
G1 X108.188 Y-113.500 Z-3.000 F1200.000 
G1 X94.188 Y-127.500 Z-3.000 F1200.000 
G1 X92.066 Y-127.500 Z-3.000 F1200.000 
G1 X106.066 Y-113.500 Z-3.000 F1200.000 
G1 X103.945 Y-113.500 Z-3.000 F1200.000 
G1 X89.945 Y-127.500 Z-3.000 F1200.000 
G1 X87.824 Y-127.500 Z-3.000 F1200.000 
G1 X101.824 Y-113.500 Z-3.000 F1200.000 
G1 X99.702 Y-113.500 Z-3.000 F1200.000 
G1 X85.702 Y-127.500 Z-3.000 F1200.000 
G1 X83.581 Y-127.500 Z-3.000 F1200.000 
G1 X97.581 Y-113.500 Z-3.000 F1200.000 
G1 X95.460 Y-113.500 Z-3.000 F1200.000 
G1 X81.460 Y-127.500 Z-3.000 F1200.000 
G1 X79.339 Y-127.500 Z-3.000 F1200.000 
G1 X93.339 Y-113.500 Z-3.000 F1200.000 
G1 X91.217 Y-113.500 Z-3.000 F1200.000 
G1 X77.217 Y-127.500 Z-3.000 F1200.000 
G1 X75.096 Y-127.500 Z-3.000 F1200.000 
G1 X89.096 Y-113.500 Z-3.000 F1200.000 
G1 X86.975 Y-113.500 Z-3.000 F1200.000 
G1 X72.975 Y-127.500 Z-3.000 F1200.000 
G1 X70.853 Y-127.500 Z-3.000 F1200.000 
G1 X84.853 Y-113.500 Z-3.000 F1200.000 
G1 X82.732 Y-113.500 Z-3.000 F1200.000 
G1 X68.732 Y-127.500 Z-3.000 F1200.000 
G1 X66.611 Y-127.500 Z-3.000 F1200.000 
G1 X80.611 Y-113.500 Z-3.000 F1200.000 
G1 X78.489 Y-113.500 Z-3.000 F1200.000 
G1 X64.489 Y-127.500 Z-3.000 F1200.000 
G1 X62.368 Y-127.500 Z-3.000 F1200.000 
G1 X76.368 Y-113.500 Z-3.000 F1200.000 
G1 X74.247 Y-113.500 Z-3.000 F1200.000 
G1 X60.247 Y-127.500 Z-3.000 F1200.000 
G1 X58.125 Y-127.500 Z-3.000 F1200.000 
G1 X72.125 Y-113.500 Z-3.000 F1200.000 
G1 X70.004 Y-113.500 Z-3.000 F1200.000 
G1 X56.004 Y-127.500 Z-3.000 F1200.000 
G1 X53.883 Y-127.500 Z-3.000 F1200.000 
G1 X67.883 Y-113.500 Z-3.000 F1200.000 
G1 X65.761 Y-113.500 Z-3.000 F1200.000 
G1 X51.761 Y-127.500 Z-3.000 F1200.000 
G1 X49.640 Y-127.500 Z-3.000 F1200.000 
G1 X63.640 Y-113.500 Z-3.000 F1200.000 
G1 X61.519 Y-113.500 Z-3.000 F1200.000 
G1 X47.519 Y-127.500 Z-3.000 F1200.000 
G1 X45.397 Y-127.500 Z-3.000 F1200.000 
G1 X59.397 Y-113.500 Z-3.000 F1200.000 
G1 X57.276 Y-113.500 Z-3.000 F1200.000 
G1 X43.276 Y-127.500 Z-3.000 F1200.000 
G1 X41.155 Y-127.500 Z-3.000 F1200.000 
G1 X55.155 Y-113.500 Z-3.000 F1200.000 
G1 X53.033 Y-113.500 Z-3.000 F1200.000 
G1 X39.033 Y-127.500 Z-3.000 F1200.000 
G1 X36.912 Y-127.500 Z-3.000 F1200.000 
G1 X50.912 Y-113.500 Z-3.000 F1200.000 
G1 X48.791 Y-113.500 Z-3.000 F1200.000 
G1 X34.791 Y-127.500 Z-3.000 F1200.000 
G1 X32.669 Y-127.500 Z-3.000 F1200.000 
G1 X46.669 Y-113.500 Z-3.000 F1200.000 
G1 X44.548 Y-113.500 Z-3.000 F1200.000 
G1 X30.548 Y-127.500 Z-3.000 F1200.000 
G1 X29.500 Y-127.500 Z-3.000 F1200.000 
G1 X29.500 Y-126.427 Z-3.000 F1200.000 
G1 X42.427 Y-113.500 Z-3.000 F1200.000 
G1 X40.306 Y-113.500 Z-3.000 F1200.000 
G1 X29.500 Y-124.306 Z-3.000 F1200.000 
G1 X29.500 Y-122.184 Z-3.000 F1200.000 
G1 X38.184 Y-113.500 Z-3.000 F1200.000 
G1 X36.063 Y-113.500 Z-3.000 F1200.000 
G1 X29.500 Y-120.063 Z-3.000 F1200.000 
G1 X29.500 Y-117.942 Z-3.000 F1200.000 
G1 X33.942 Y-113.500 Z-3.000 F1200.000 
G1 X31.820 Y-113.500 Z-3.000 F1200.000 
G1 X29.500 Y-115.820 Z-3.000 F1200.000 
G1 X29.500 Y-113.699 Z-3.000 F1200.000 
G1 X29.500 Y-113.500 Z-3.000 F1200.000 
G1 X29.699 Y-113.500 Z-3.000 F1200.000 
G1 X29.500 Y-113.699 Z-3.000 F1200.000 
G0 Z5.000 
G0 Z5.000 
(finish operation: MillFace)
(begin operation: Pocket_Shape)
(machine units: mm/min)
(Pocket_Shape) 
G0 Z5.000 
G0 X48.699 Y-72.385 
G0 Z3.000 
G1 X48.699 Y-72.385 Z-3.000 F500.000 
G3 X47.385 Y-73.699 Z-3.000 I0.289 J-1.603 F1200.000 
G1 X48.699 Y-72.385 Z-3.000 F1200.000 
G2 X50.163 Y-75.163 Z-3.000 I0.304 J-1.615 F1200.000 
G1 X50.163 Y-75.163 Z-6.000 F500.000 
G3 X48.699 Y-72.385 Z-6.000 I-1.161 J1.163 F1200.000 
G1 X47.385 Y-73.699 Z-6.000 F1200.000 
G2 X48.699 Y-72.385 Z-6.000 I1.603 J-0.289 F1200.000 
G1 X48.699 Y-72.385 Z-9.000 F500.000 
G3 X47.385 Y-73.699 Z-9.000 I0.289 J-1.603 F1200.000 
G1 X48.699 Y-72.385 Z-9.000 F1200.000 
G2 X50.163 Y-75.163 Z-9.000 I0.304 J-1.615 F1200.000 
G1 X50.163 Y-75.163 Z-12.000 F500.000 
G3 X48.699 Y-72.385 Z-12.000 I-1.161 J1.163 F1200.000 
G1 X47.385 Y-73.699 Z-12.000 F1200.000 
G2 X48.699 Y-72.385 Z-12.000 I1.603 J-0.289 F1200.000 
G0 Z5.000 
G0 Z5.000 
G0 X48.699 Y-72.385 
G0 X114.699 
G0 X114.699 Z3.000 
G1 X114.699 Y-72.385 Z-3.000 F500.000 
G3 X113.385 Y-73.699 Z-3.000 I0.289 J-1.603 F1200.000 
G1 X114.699 Y-72.385 Z-3.000 F1200.000 
G2 X116.163 Y-75.163 Z-3.000 I0.304 J-1.615 F1200.000 
G1 X116.163 Y-75.163 Z-6.000 F500.000 
G3 X114.699 Y-72.385 Z-6.000 I-1.161 J1.163 F1200.000 
G1 X113.385 Y-73.699 Z-6.000 F1200.000 
G2 X114.699 Y-72.385 Z-6.000 I1.603 J-0.289 F1200.000 
G1 X114.699 Y-72.385 Z-9.000 F500.000 
G3 X113.385 Y-73.699 Z-9.000 I0.289 J-1.603 F1200.000 
G1 X114.699 Y-72.385 Z-9.000 F1200.000 
G2 X116.163 Y-75.163 Z-9.000 I0.304 J-1.615 F1200.000 
G1 X116.163 Y-75.163 Z-12.000 F500.000 
G3 X114.699 Y-72.385 Z-12.000 I-1.161 J1.163 F1200.000 
G1 X113.385 Y-73.699 Z-12.000 F1200.000 
G2 X114.699 Y-72.385 Z-12.000 I1.603 J-0.289 F1200.000 
G0 Z5.000 
G0 Z5.000 
G0 X114.699 Y-72.385 
G0 X188.699 
G0 X188.699 Z3.000 
G1 X188.699 Y-72.385 Z-3.000 F500.000 
G3 X187.385 Y-73.699 Z-3.000 I0.289 J-1.603 F1200.000 
G1 X188.699 Y-72.385 Z-3.000 F1200.000 
G2 X190.163 Y-75.163 Z-3.000 I0.304 J-1.615 F1200.000 
G1 X190.163 Y-75.163 Z-6.000 F500.000 
G3 X188.699 Y-72.385 Z-6.000 I-1.161 J1.163 F1200.000 
G1 X187.385 Y-73.699 Z-6.000 F1200.000 
G2 X188.699 Y-72.385 Z-6.000 I1.603 J-0.289 F1200.000 
G1 X188.699 Y-72.385 Z-9.000 F500.000 
G3 X187.385 Y-73.699 Z-9.000 I0.289 J-1.603 F1200.000 
G1 X188.699 Y-72.385 Z-9.000 F1200.000 
G2 X190.163 Y-75.163 Z-9.000 I0.304 J-1.615 F1200.000 
G1 X190.163 Y-75.163 Z-12.000 F500.000 
G3 X188.699 Y-72.385 Z-12.000 I-1.161 J1.163 F1200.000 
G1 X187.385 Y-73.699 Z-12.000 F1200.000 
G2 X188.699 Y-72.385 Z-12.000 I1.603 J-0.289 F1200.000 
G0 Z5.000 
G0 Z5.000 
G0 X188.699 Y-72.385 
G0 X254.699 
G0 X254.699 Z3.000 
G1 X254.699 Y-72.385 Z-3.000 F500.000 
G3 X253.385 Y-73.699 Z-3.000 I0.289 J-1.603 F1200.000 
G1 X254.699 Y-72.385 Z-3.000 F1200.000 
G2 X256.163 Y-75.163 Z-3.000 I0.304 J-1.615 F1200.000 
G1 X256.163 Y-75.163 Z-6.000 F500.000 
G3 X254.699 Y-72.385 Z-6.000 I-1.161 J1.163 F1200.000 
G1 X253.385 Y-73.699 Z-6.000 F1200.000 
G2 X254.699 Y-72.385 Z-6.000 I1.603 J-0.289 F1200.000 
G1 X254.699 Y-72.385 Z-9.000 F500.000 
G3 X253.385 Y-73.699 Z-9.000 I0.289 J-1.603 F1200.000 
G1 X254.699 Y-72.385 Z-9.000 F1200.000 
G2 X256.163 Y-75.163 Z-9.000 I0.304 J-1.615 F1200.000 
G1 X256.163 Y-75.163 Z-12.000 F500.000 
G3 X254.699 Y-72.385 Z-12.000 I-1.161 J1.163 F1200.000 
G1 X253.385 Y-73.699 Z-12.000 F1200.000 
G2 X254.699 Y-72.385 Z-12.000 I1.603 J-0.289 F1200.000 
G0 Z5.000 
G0 Z5.000 
(finish operation: Pocket_Shape)
(begin operation: Pocket_Shape001)
(machine units: mm/min)
(Pocket_Shape001) 
G0 Z5.000 
G0 X103.950 Y-60.500 
G0 Z3.000 
G1 X103.950 Y-60.500 Z-3.000 F500.000 
G1 X103.950 Y-56.257 Z-3.000 F1200.000 
G1 X99.707 Y-60.500 Z-3.000 F1200.000 
G1 X95.465 Y-60.500 Z-3.000 F1200.000 
G1 X103.950 Y-52.015 Z-3.000 F1200.000 
G1 X103.950 Y-47.772 Z-3.000 F1200.000 
G1 X91.222 Y-60.500 Z-3.000 F1200.000 
G1 X86.979 Y-60.500 Z-3.000 F1200.000 
G1 X103.950 Y-43.529 Z-3.000 F1200.000 
G1 X103.950 Y-39.287 Z-3.000 F1200.000 
G1 X82.737 Y-60.500 Z-3.000 F1200.000 
G1 X78.494 Y-60.500 Z-3.000 F1200.000 
G1 X103.950 Y-35.044 Z-3.000 F1200.000 
G1 X103.950 Y-32.500 Z-3.000 F1200.000 
G1 X102.252 Y-32.500 Z-3.000 F1200.000 
G1 X74.252 Y-60.500 Z-3.000 F1200.000 
G1 X70.009 Y-60.500 Z-3.000 F1200.000 
G1 X98.009 Y-32.500 Z-3.000 F1200.000 
G1 X93.766 Y-32.500 Z-3.000 F1200.000 
G1 X65.766 Y-60.500 Z-3.000 F1200.000 
G1 X61.524 Y-60.500 Z-3.000 F1200.000 
G1 X89.524 Y-32.500 Z-3.000 F1200.000 
G1 X85.281 Y-32.500 Z-3.000 F1200.000 
G1 X60.050 Y-57.731 Z-3.000 F1200.000 
G1 X60.050 Y-53.488 Z-3.000 F1200.000 
G1 X81.038 Y-32.500 Z-3.000 F1200.000 
G1 X76.796 Y-32.500 Z-3.000 F1200.000 
G1 X60.050 Y-49.246 Z-3.000 F1200.000 
G1 X60.050 Y-45.003 Z-3.000 F1200.000 
G1 X72.553 Y-32.500 Z-3.000 F1200.000 
G1 X68.310 Y-32.500 Z-3.000 F1200.000 
G1 X60.050 Y-40.760 Z-3.000 F1200.000 
G1 X60.050 Y-36.518 Z-3.000 F1200.000 
G1 X60.050 Y-32.500 Z-3.000 F1200.000 
G1 X64.068 Y-32.500 Z-3.000 F1200.000 
G1 X60.050 Y-36.518 Z-3.000 F1200.000 
G1 X60.050 Y-36.518 Z-6.000 F500.000 
G1 X64.068 Y-32.500 Z-6.000 F1200.000 
G1 X60.050 Y-32.500 Z-6.000 F1200.000 
G1 X60.050 Y-36.518 Z-6.000 F1200.000 
G1 X60.050 Y-40.760 Z-6.000 F1200.000 
G1 X68.310 Y-32.500 Z-6.000 F1200.000 
G1 X72.553 Y-32.500 Z-6.000 F1200.000 
G1 X60.050 Y-45.003 Z-6.000 F1200.000 
G1 X60.050 Y-49.246 Z-6.000 F1200.000 
G1 X76.796 Y-32.500 Z-6.000 F1200.000 
G1 X81.038 Y-32.500 Z-6.000 F1200.000 
G1 X60.050 Y-53.488 Z-6.000 F1200.000 
G1 X60.050 Y-57.731 Z-6.000 F1200.000 
G1 X85.281 Y-32.500 Z-6.000 F1200.000 
G1 X89.524 Y-32.500 Z-6.000 F1200.000 
G1 X61.524 Y-60.500 Z-6.000 F1200.000 
G1 X65.766 Y-60.500 Z-6.000 F1200.000 
G1 X93.766 Y-32.500 Z-6.000 F1200.000 
G1 X98.009 Y-32.500 Z-6.000 F1200.000 
G1 X70.009 Y-60.500 Z-6.000 F1200.000 
G1 X74.252 Y-60.500 Z-6.000 F1200.000 
G1 X102.252 Y-32.500 Z-6.000 F1200.000 
G1 X103.950 Y-32.500 Z-6.000 F1200.000 
G1 X103.950 Y-35.044 Z-6.000 F1200.000 
G1 X78.494 Y-60.500 Z-6.000 F1200.000 
G1 X82.737 Y-60.500 Z-6.000 F1200.000 
G1 X103.950 Y-39.287 Z-6.000 F1200.000 
G1 X103.950 Y-43.529 Z-6.000 F1200.000 
G1 X86.979 Y-60.500 Z-6.000 F1200.000 
G1 X91.222 Y-60.500 Z-6.000 F1200.000 
G1 X103.950 Y-47.772 Z-6.000 F1200.000 
G1 X103.950 Y-52.015 Z-6.000 F1200.000 
G1 X95.465 Y-60.500 Z-6.000 F1200.000 
G1 X99.707 Y-60.500 Z-6.000 F1200.000 
G1 X103.950 Y-56.257 Z-6.000 F1200.000 
G1 X103.950 Y-60.500 Z-6.000 F1200.000 
G1 X103.950 Y-60.500 Z-9.000 F500.000 
G1 X103.950 Y-56.257 Z-9.000 F1200.000 
G1 X99.707 Y-60.500 Z-9.000 F1200.000 
G1 X95.465 Y-60.500 Z-9.000 F1200.000 
G1 X103.950 Y-52.015 Z-9.000 F1200.000 
G1 X103.950 Y-47.772 Z-9.000 F1200.000 
G1 X91.222 Y-60.500 Z-9.000 F1200.000 
G1 X86.979 Y-60.500 Z-9.000 F1200.000 
G1 X103.950 Y-43.529 Z-9.000 F1200.000 
G1 X103.950 Y-39.287 Z-9.000 F1200.000 
G1 X82.737 Y-60.500 Z-9.000 F1200.000 
G1 X78.494 Y-60.500 Z-9.000 F1200.000 
G1 X103.950 Y-35.044 Z-9.000 F1200.000 
G1 X103.950 Y-32.500 Z-9.000 F1200.000 
G1 X102.252 Y-32.500 Z-9.000 F1200.000 
G1 X74.252 Y-60.500 Z-9.000 F1200.000 
G1 X70.009 Y-60.500 Z-9.000 F1200.000 
G1 X98.009 Y-32.500 Z-9.000 F1200.000 
G1 X93.766 Y-32.500 Z-9.000 F1200.000 
G1 X65.766 Y-60.500 Z-9.000 F1200.000 
G1 X61.524 Y-60.500 Z-9.000 F1200.000 
G1 X89.524 Y-32.500 Z-9.000 F1200.000 
G1 X85.281 Y-32.500 Z-9.000 F1200.000 
G1 X60.050 Y-57.731 Z-9.000 F1200.000 
G1 X60.050 Y-53.488 Z-9.000 F1200.000 
G1 X81.038 Y-32.500 Z-9.000 F1200.000 
G1 X76.796 Y-32.500 Z-9.000 F1200.000 
G1 X60.050 Y-49.246 Z-9.000 F1200.000 
G1 X60.050 Y-45.003 Z-9.000 F1200.000 
G1 X72.553 Y-32.500 Z-9.000 F1200.000 
G1 X68.310 Y-32.500 Z-9.000 F1200.000 
G1 X60.050 Y-40.760 Z-9.000 F1200.000 
G1 X60.050 Y-36.518 Z-9.000 F1200.000 
G1 X60.050 Y-32.500 Z-9.000 F1200.000 
G1 X64.068 Y-32.500 Z-9.000 F1200.000 
G1 X60.050 Y-36.518 Z-9.000 F1200.000 
G1 X60.050 Y-36.518 Z-12.000 F500.000 
G1 X64.068 Y-32.500 Z-12.000 F1200.000 
G1 X60.050 Y-32.500 Z-12.000 F1200.000 
G1 X60.050 Y-36.518 Z-12.000 F1200.000 
G1 X60.050 Y-40.760 Z-12.000 F1200.000 
G1 X68.310 Y-32.500 Z-12.000 F1200.000 
G1 X72.553 Y-32.500 Z-12.000 F1200.000 
G1 X60.050 Y-45.003 Z-12.000 F1200.000 
G1 X60.050 Y-49.246 Z-12.000 F1200.000 
G1 X76.796 Y-32.500 Z-12.000 F1200.000 
G1 X81.038 Y-32.500 Z-12.000 F1200.000 
G1 X60.050 Y-53.488 Z-12.000 F1200.000 
G1 X60.050 Y-57.731 Z-12.000 F1200.000 
G1 X85.281 Y-32.500 Z-12.000 F1200.000 
G1 X89.524 Y-32.500 Z-12.000 F1200.000 
G1 X61.524 Y-60.500 Z-12.000 F1200.000 
G1 X65.766 Y-60.500 Z-12.000 F1200.000 
G1 X93.766 Y-32.500 Z-12.000 F1200.000 
G1 X98.009 Y-32.500 Z-12.000 F1200.000 
G1 X70.009 Y-60.500 Z-12.000 F1200.000 
G1 X74.252 Y-60.500 Z-12.000 F1200.000 
G1 X102.252 Y-32.500 Z-12.000 F1200.000 
G1 X103.950 Y-32.500 Z-12.000 F1200.000 
G1 X103.950 Y-35.044 Z-12.000 F1200.000 
G1 X78.494 Y-60.500 Z-12.000 F1200.000 
G1 X82.737 Y-60.500 Z-12.000 F1200.000 
G1 X103.950 Y-39.287 Z-12.000 F1200.000 
G1 X103.950 Y-43.529 Z-12.000 F1200.000 
G1 X86.979 Y-60.500 Z-12.000 F1200.000 
G1 X91.222 Y-60.500 Z-12.000 F1200.000 
G1 X103.950 Y-47.772 Z-12.000 F1200.000 
G1 X103.950 Y-52.015 Z-12.000 F1200.000 
G1 X95.465 Y-60.500 Z-12.000 F1200.000 
G1 X99.707 Y-60.500 Z-12.000 F1200.000 
G1 X103.950 Y-56.257 Z-12.000 F1200.000 
G1 X103.950 Y-60.500 Z-12.000 F1200.000 
G0 Z5.000 
G0 Z5.000 
(finish operation: Pocket_Shape001)
(begin operation: 3mm_Endmill_doubleFlute001)
(machine units: mm/min)
(3mm_Endmill_doubleFlute001) 
M5
M6 T1 
G43 H1 
M3 S24000 
(finish operation: 3mm_Endmill_doubleFlute001)
(begin operation: DressupDogbone)
(machine units: mm/min)
(Profile) 
(Compensated Tool Path. Diameter: 3.0) 
G0 Z5.000 
G0 X137.491 Y-18.834 
G0 Z3.000 
G1 X137.491 Y-18.834 Z-3.000 F500.000 
G2 X137.500 Y-19.000 Z-3.000 I-1.491 J-0.166 F1200.000 
G1 X137.500 Y-35.833 Z-3.000 F1200.000 
G1 X137.061 Y-36.273 
G1 X137.500 Y-35.833 
G1 X148.000 Y-35.833 Z-3.000 F1200.000 
G2 X149.500 Y-37.333 Z-3.000 I-0.000 J-1.500 F1200.000 
G1 X149.500 Y-55.667 Z-3.000 F1200.000 
G2 X148.000 Y-57.167 Z-3.000 I-1.500 J0.000 F1200.000 
G1 X137.500 Y-57.167 Z-3.000 F1200.000 
G1 X137.061 Y-56.727 
G1 X137.500 Y-57.167 
G1 X137.500 Y-90.833 Z-3.000 F1200.000 
G1 X137.061 Y-91.273 
G1 X137.500 Y-90.833 
G1 X148.000 Y-90.833 Z-3.000 F1200.000 
G2 X149.500 Y-92.333 Z-3.000 I-0.000 J-1.500 F1200.000 
G1 X149.500 Y-110.667 Z-3.000 F1200.000 
G2 X148.000 Y-112.167 Z-3.000 I-1.500 J0.000 F1200.000 
G1 X137.500 Y-112.167 Z-3.000 F1200.000 
G1 X137.061 Y-111.727 
G1 X137.500 Y-112.167 
G1 X137.500 Y-129.000 Z-3.000 F1200.000 
G2 X136.000 Y-130.500 Z-3.000 I-1.500 J0.000 F1200.000 
G1 X28.000 Y-130.500 Z-3.000 F1200.000 
G2 X26.500 Y-129.000 Z-3.000 I0.000 J1.500 F1200.000 
G1 X26.500 Y-112.167 Z-3.000 F1200.000 
G1 X26.939 Y-111.727 
G1 X26.500 Y-112.167 
G1 X16.000 Y-112.167 Z-3.000 F1200.000 
G2 X14.500 Y-110.667 Z-3.000 I0.000 J1.500 F1200.000 
G1 X14.500 Y-92.333 Z-3.000 F1200.000 
G2 X16.000 Y-90.833 Z-3.000 I1.500 J-0.000 F1200.000 
G1 X26.500 Y-90.833 Z-3.000 F1200.000 
G1 X26.939 Y-91.273 
G1 X26.500 Y-90.833 
G1 X26.500 Y-57.167 Z-3.000 F1200.000 
G1 X26.939 Y-56.727 
G1 X26.500 Y-57.167 
G1 X16.000 Y-57.167 Z-3.000 F1200.000 
G2 X14.500 Y-55.667 Z-3.000 I0.000 J1.500 F1200.000 
G1 X14.500 Y-37.333 Z-3.000 F1200.000 
G2 X16.000 Y-35.833 Z-3.000 I1.500 J-0.000 F1200.000 
G1 X26.500 Y-35.833 Z-3.000 F1200.000 
G1 X26.939 Y-36.273 
G1 X26.500 Y-35.833 
G1 X26.500 Y-19.000 Z-3.000 F1200.000 
G2 X28.000 Y-17.500 Z-3.000 I1.500 J-0.000 F1200.000 
G1 X40.000 Y-17.500 Z-3.000 F1200.000 
G2 X41.500 Y-19.000 Z-3.000 I-0.000 J-1.500 F1200.000 
G1 X41.500 Y-29.500 Z-3.000 F1200.000 
G1 X41.061 Y-29.939 
G1 X41.500 Y-29.500 
G1 X50.500 Y-29.500 Z-3.000 F1200.000 
G1 X50.939 Y-29.939 
G1 X50.500 Y-29.500 
G1 X50.500 Y-19.000 Z-3.000 F1200.000 
G2 X52.000 Y-17.500 Z-3.000 I1.500 J-0.000 F1200.000 
G1 X112.000 Y-17.500 Z-3.000 F1200.000 
G2 X113.500 Y-19.000 Z-3.000 I-0.000 J-1.500 F1200.000 
G1 X113.500 Y-29.500 Z-3.000 F1200.000 
G1 X113.061 Y-29.939 
G1 X113.500 Y-29.500 
G1 X122.500 Y-29.500 Z-3.000 F1200.000 
G1 X122.939 Y-29.939 
G1 X122.500 Y-29.500 
G1 X122.500 Y-19.000 Z-3.000 F1200.000 
G2 X124.000 Y-17.500 Z-3.000 I1.500 J-0.000 F1200.000 
G1 X136.000 Y-17.500 Z-3.000 F1200.000 
G2 X137.491 Y-18.834 Z-3.000 I-0.000 J-1.500 F1200.000 
G1 X137.491 Y-18.834 Z-6.000 F500.000 
G2 X137.500 Y-19.000 Z-6.000 I-1.491 J-0.166 F1200.000 
G1 X137.500 Y-35.833 Z-6.000 F1200.000 
G1 X137.061 Y-36.273 
G1 X137.500 Y-35.833 
G1 X148.000 Y-35.833 Z-6.000 F1200.000 
G2 X149.500 Y-37.333 Z-6.000 I-0.000 J-1.500 F1200.000 
G1 X149.500 Y-55.667 Z-6.000 F1200.000 
G2 X148.000 Y-57.167 Z-6.000 I-1.500 J0.000 F1200.000 
G1 X137.500 Y-57.167 Z-6.000 F1200.000 
G1 X137.061 Y-56.727 
G1 X137.500 Y-57.167 
G1 X137.500 Y-90.833 Z-6.000 F1200.000 
G1 X137.061 Y-91.273 
G1 X137.500 Y-90.833 
G1 X148.000 Y-90.833 Z-6.000 F1200.000 
G2 X149.500 Y-92.333 Z-6.000 I-0.000 J-1.500 F1200.000 
G1 X149.500 Y-110.667 Z-6.000 F1200.000 
G2 X148.000 Y-112.167 Z-6.000 I-1.500 J0.000 F1200.000 
G1 X137.500 Y-112.167 Z-6.000 F1200.000 
G1 X137.061 Y-111.727 
G1 X137.500 Y-112.167 
G1 X137.500 Y-129.000 Z-6.000 F1200.000 
G2 X136.000 Y-130.500 Z-6.000 I-1.500 J0.000 F1200.000 
G1 X28.000 Y-130.500 Z-6.000 F1200.000 
G2 X26.500 Y-129.000 Z-6.000 I0.000 J1.500 F1200.000 
G1 X26.500 Y-112.167 Z-6.000 F1200.000 
G1 X26.939 Y-111.727 
G1 X26.500 Y-112.167 
G1 X16.000 Y-112.167 Z-6.000 F1200.000 
G2 X14.500 Y-110.667 Z-6.000 I0.000 J1.500 F1200.000 
G1 X14.500 Y-92.333 Z-6.000 F1200.000 
G2 X16.000 Y-90.833 Z-6.000 I1.500 J-0.000 F1200.000 
G1 X26.500 Y-90.833 Z-6.000 F1200.000 
G1 X26.939 Y-91.273 
G1 X26.500 Y-90.833 
G1 X26.500 Y-57.167 Z-6.000 F1200.000 
G1 X26.939 Y-56.727 
G1 X26.500 Y-57.167 
G1 X16.000 Y-57.167 Z-6.000 F1200.000 
G2 X14.500 Y-55.667 Z-6.000 I0.000 J1.500 F1200.000 
G1 X14.500 Y-37.333 Z-6.000 F1200.000 
G2 X16.000 Y-35.833 Z-6.000 I1.500 J-0.000 F1200.000 
G1 X26.500 Y-35.833 Z-6.000 F1200.000 
G1 X26.939 Y-36.273 
G1 X26.500 Y-35.833 
G1 X26.500 Y-19.000 Z-6.000 F1200.000 
G2 X28.000 Y-17.500 Z-6.000 I1.500 J-0.000 F1200.000 
G1 X40.000 Y-17.500 Z-6.000 F1200.000 
G2 X41.500 Y-19.000 Z-6.000 I-0.000 J-1.500 F1200.000 
G1 X41.500 Y-29.500 Z-6.000 F1200.000 
G1 X41.061 Y-29.939 
G1 X41.500 Y-29.500 
G1 X50.500 Y-29.500 Z-6.000 F1200.000 
G1 X50.939 Y-29.939 
G1 X50.500 Y-29.500 
G1 X50.500 Y-19.000 Z-6.000 F1200.000 
G2 X52.000 Y-17.500 Z-6.000 I1.500 J-0.000 F1200.000 
G1 X112.000 Y-17.500 Z-6.000 F1200.000 
G2 X113.500 Y-19.000 Z-6.000 I-0.000 J-1.500 F1200.000 
G1 X113.500 Y-29.500 Z-6.000 F1200.000 
G1 X113.061 Y-29.939 
G1 X113.500 Y-29.500 
G1 X122.500 Y-29.500 Z-6.000 F1200.000 
G1 X122.939 Y-29.939 
G1 X122.500 Y-29.500 
G1 X122.500 Y-19.000 Z-6.000 F1200.000 
G2 X124.000 Y-17.500 Z-6.000 I1.500 J-0.000 F1200.000 
G1 X136.000 Y-17.500 Z-6.000 F1200.000 
G2 X137.491 Y-18.834 Z-6.000 I-0.000 J-1.500 F1200.000 
G1 X137.491 Y-18.834 Z-9.000 F500.000 
G2 X137.500 Y-19.000 Z-9.000 I-1.491 J-0.166 F1200.000 
G1 X137.500 Y-35.833 Z-9.000 F1200.000 
G1 X137.061 Y-36.273 
G1 X137.500 Y-35.833 
G1 X148.000 Y-35.833 Z-9.000 F1200.000 
G2 X149.500 Y-37.333 Z-9.000 I-0.000 J-1.500 F1200.000 
G1 X149.500 Y-55.667 Z-9.000 F1200.000 
G2 X148.000 Y-57.167 Z-9.000 I-1.500 J0.000 F1200.000 
G1 X137.500 Y-57.167 Z-9.000 F1200.000 
G1 X137.061 Y-56.727 
G1 X137.500 Y-57.167 
G1 X137.500 Y-90.833 Z-9.000 F1200.000 
G1 X137.061 Y-91.273 
G1 X137.500 Y-90.833 
G1 X148.000 Y-90.833 Z-9.000 F1200.000 
G2 X149.500 Y-92.333 Z-9.000 I-0.000 J-1.500 F1200.000 
G1 X149.500 Y-110.667 Z-9.000 F1200.000 
G2 X148.000 Y-112.167 Z-9.000 I-1.500 J0.000 F1200.000 
G1 X137.500 Y-112.167 Z-9.000 F1200.000 
G1 X137.061 Y-111.727 
G1 X137.500 Y-112.167 
G1 X137.500 Y-129.000 Z-9.000 F1200.000 
G2 X136.000 Y-130.500 Z-9.000 I-1.500 J0.000 F1200.000 
G1 X28.000 Y-130.500 Z-9.000 F1200.000 
G2 X26.500 Y-129.000 Z-9.000 I0.000 J1.500 F1200.000 
G1 X26.500 Y-112.167 Z-9.000 F1200.000 
G1 X26.939 Y-111.727 
G1 X26.500 Y-112.167 
G1 X16.000 Y-112.167 Z-9.000 F1200.000 
G2 X14.500 Y-110.667 Z-9.000 I0.000 J1.500 F1200.000 
G1 X14.500 Y-92.333 Z-9.000 F1200.000 
G2 X16.000 Y-90.833 Z-9.000 I1.500 J-0.000 F1200.000 
G1 X26.500 Y-90.833 Z-9.000 F1200.000 
G1 X26.939 Y-91.273 
G1 X26.500 Y-90.833 
G1 X26.500 Y-57.167 Z-9.000 F1200.000 
G1 X26.939 Y-56.727 
G1 X26.500 Y-57.167 
G1 X16.000 Y-57.167 Z-9.000 F1200.000 
G2 X14.500 Y-55.667 Z-9.000 I0.000 J1.500 F1200.000 
G1 X14.500 Y-37.333 Z-9.000 F1200.000 
G2 X16.000 Y-35.833 Z-9.000 I1.500 J-0.000 F1200.000 
G1 X26.500 Y-35.833 Z-9.000 F1200.000 
G1 X26.939 Y-36.273 
G1 X26.500 Y-35.833 
G1 X26.500 Y-19.000 Z-9.000 F1200.000 
G2 X28.000 Y-17.500 Z-9.000 I1.500 J-0.000 F1200.000 
G1 X40.000 Y-17.500 Z-9.000 F1200.000 
G2 X41.500 Y-19.000 Z-9.000 I-0.000 J-1.500 F1200.000 
G1 X41.500 Y-29.500 Z-9.000 F1200.000 
G1 X41.061 Y-29.939 
G1 X41.500 Y-29.500 
G1 X50.500 Y-29.500 Z-9.000 F1200.000 
G1 X50.939 Y-29.939 
G1 X50.500 Y-29.500 
G1 X50.500 Y-19.000 Z-9.000 F1200.000 
G2 X52.000 Y-17.500 Z-9.000 I1.500 J-0.000 F1200.000 
G1 X112.000 Y-17.500 Z-9.000 F1200.000 
G2 X113.500 Y-19.000 Z-9.000 I-0.000 J-1.500 F1200.000 
G1 X113.500 Y-29.500 Z-9.000 F1200.000 
G1 X113.061 Y-29.939 
G1 X113.500 Y-29.500 
G1 X122.500 Y-29.500 Z-9.000 F1200.000 
G1 X122.939 Y-29.939 
G1 X122.500 Y-29.500 
G1 X122.500 Y-19.000 Z-9.000 F1200.000 
G2 X124.000 Y-17.500 Z-9.000 I1.500 J-0.000 F1200.000 
G1 X136.000 Y-17.500 Z-9.000 F1200.000 
G2 X137.491 Y-18.834 Z-9.000 I-0.000 J-1.500 F1200.000 
G1 X137.491 Y-18.834 Z-12.000 F500.000 
G2 X137.500 Y-19.000 Z-12.000 I-1.491 J-0.166 F1200.000 
G1 X137.500 Y-35.833 Z-12.000 F1200.000 
G1 X137.061 Y-36.273 
G1 X137.500 Y-35.833 
G1 X148.000 Y-35.833 Z-12.000 F1200.000 
G2 X149.500 Y-37.333 Z-12.000 I-0.000 J-1.500 F1200.000 
G1 X149.500 Y-55.667 Z-12.000 F1200.000 
G2 X148.000 Y-57.167 Z-12.000 I-1.500 J0.000 F1200.000 
G1 X137.500 Y-57.167 Z-12.000 F1200.000 
G1 X137.061 Y-56.727 
G1 X137.500 Y-57.167 
G1 X137.500 Y-90.833 Z-12.000 F1200.000 
G1 X137.061 Y-91.273 
G1 X137.500 Y-90.833 
G1 X148.000 Y-90.833 Z-12.000 F1200.000 
G2 X149.500 Y-92.333 Z-12.000 I-0.000 J-1.500 F1200.000 
G1 X149.500 Y-110.667 Z-12.000 F1200.000 
G2 X148.000 Y-112.167 Z-12.000 I-1.500 J0.000 F1200.000 
G1 X137.500 Y-112.167 Z-12.000 F1200.000 
G1 X137.061 Y-111.727 
G1 X137.500 Y-112.167 
G1 X137.500 Y-129.000 Z-12.000 F1200.000 
G2 X136.000 Y-130.500 Z-12.000 I-1.500 J0.000 F1200.000 
G1 X28.000 Y-130.500 Z-12.000 F1200.000 
G2 X26.500 Y-129.000 Z-12.000 I0.000 J1.500 F1200.000 
G1 X26.500 Y-112.167 Z-12.000 F1200.000 
G1 X26.939 Y-111.727 
G1 X26.500 Y-112.167 
G1 X16.000 Y-112.167 Z-12.000 F1200.000 
G2 X14.500 Y-110.667 Z-12.000 I0.000 J1.500 F1200.000 
G1 X14.500 Y-92.333 Z-12.000 F1200.000 
G2 X16.000 Y-90.833 Z-12.000 I1.500 J-0.000 F1200.000 
G1 X26.500 Y-90.833 Z-12.000 F1200.000 
G1 X26.939 Y-91.273 
G1 X26.500 Y-90.833 
G1 X26.500 Y-57.167 Z-12.000 F1200.000 
G1 X26.939 Y-56.727 
G1 X26.500 Y-57.167 
G1 X16.000 Y-57.167 Z-12.000 F1200.000 
G2 X14.500 Y-55.667 Z-12.000 I0.000 J1.500 F1200.000 
G1 X14.500 Y-37.333 Z-12.000 F1200.000 
G2 X16.000 Y-35.833 Z-12.000 I1.500 J-0.000 F1200.000 
G1 X26.500 Y-35.833 Z-12.000 F1200.000 
G1 X26.939 Y-36.273 
G1 X26.500 Y-35.833 
G1 X26.500 Y-19.000 Z-12.000 F1200.000 
G2 X28.000 Y-17.500 Z-12.000 I1.500 J-0.000 F1200.000 
G1 X40.000 Y-17.500 Z-12.000 F1200.000 
G2 X41.500 Y-19.000 Z-12.000 I-0.000 J-1.500 F1200.000 
G1 X41.500 Y-29.500 Z-12.000 F1200.000 
G1 X41.061 Y-29.939 
G1 X41.500 Y-29.500 
G1 X50.500 Y-29.500 Z-12.000 F1200.000 
G1 X50.939 Y-29.939 
G1 X50.500 Y-29.500 
G1 X50.500 Y-19.000 Z-12.000 F1200.000 
G2 X52.000 Y-17.500 Z-12.000 I1.500 J-0.000 F1200.000 
G1 X112.000 Y-17.500 Z-12.000 F1200.000 
G2 X113.500 Y-19.000 Z-12.000 I-0.000 J-1.500 F1200.000 
G1 X113.500 Y-29.500 Z-12.000 F1200.000 
G1 X113.061 Y-29.939 
G1 X113.500 Y-29.500 
G1 X122.500 Y-29.500 Z-12.000 F1200.000 
G1 X122.939 Y-29.939 
G1 X122.500 Y-29.500 
G1 X122.500 Y-19.000 Z-12.000 F1200.000 
G2 X124.000 Y-17.500 Z-12.000 I1.500 J-0.000 F1200.000 
G1 X136.000 Y-17.500 Z-12.000 F1200.000 
G2 X137.491 Y-18.834 Z-12.000 I-0.000 J-1.500 F1200.000 
G0 Z5.000 
G0 Z5.000 
G0 X137.491 Y-18.834 
G0 X154.939 Y-36.273 
G0 X154.939 Y-36.273 Z3.000 
G1 X154.939 Y-36.273 Z-3.000 F500.000 
G2 X156.000 Y-35.833 Z-3.000 I1.061 J-1.060 F1200.000 
G1 X166.500 Y-35.833 Z-3.000 F1200.000 
G1 X166.939 Y-36.273 
G1 X166.500 Y-35.833 
G1 X166.500 Y-19.000 Z-3.000 F1200.000 
G2 X168.000 Y-17.500 Z-3.000 I1.500 J-0.000 F1200.000 
G1 X180.000 Y-17.500 Z-3.000 F1200.000 
G2 X181.500 Y-19.000 Z-3.000 I-0.000 J-1.500 F1200.000 
G1 X181.500 Y-29.500 Z-3.000 F1200.000 
G1 X181.061 Y-29.939 
G1 X181.500 Y-29.500 
G1 X190.500 Y-29.500 Z-3.000 F1200.000 
G1 X190.939 Y-29.939 
G1 X190.500 Y-29.500 
G1 X190.500 Y-19.000 Z-3.000 F1200.000 
G2 X192.000 Y-17.500 Z-3.000 I1.500 J-0.000 F1200.000 
G1 X252.000 Y-17.500 Z-3.000 F1200.000 
G2 X253.500 Y-19.000 Z-3.000 I-0.000 J-1.500 F1200.000 
G1 X253.500 Y-29.500 Z-3.000 F1200.000 
G1 X253.061 Y-29.939 
G1 X253.500 Y-29.500 
G1 X262.500 Y-29.500 Z-3.000 F1200.000 
G1 X262.939 Y-29.939 
G1 X262.500 Y-29.500 
G1 X262.500 Y-19.000 Z-3.000 F1200.000 
G2 X264.000 Y-17.500 Z-3.000 I1.500 J-0.000 F1200.000 
G1 X276.000 Y-17.500 Z-3.000 F1200.000 
G2 X277.500 Y-19.000 Z-3.000 I-0.000 J-1.500 F1200.000 
G1 X277.500 Y-35.833 Z-3.000 F1200.000 
G1 X277.061 Y-36.273 
G1 X277.500 Y-35.833 
G1 X288.000 Y-35.833 Z-3.000 F1200.000 
G2 X289.500 Y-37.333 Z-3.000 I-0.000 J-1.500 F1200.000 
G1 X289.500 Y-55.667 Z-3.000 F1200.000 
G2 X288.000 Y-57.167 Z-3.000 I-1.500 J0.000 F1200.000 
G1 X277.500 Y-57.167 Z-3.000 F1200.000 
G1 X277.061 Y-56.727 
G1 X277.500 Y-57.167 
G1 X277.500 Y-90.833 Z-3.000 F1200.000 
G1 X277.061 Y-91.273 
G1 X277.500 Y-90.833 
G1 X288.000 Y-90.833 Z-3.000 F1200.000 
G2 X289.500 Y-92.333 Z-3.000 I-0.000 J-1.500 F1200.000 
G1 X289.500 Y-110.667 Z-3.000 F1200.000 
G2 X288.000 Y-112.167 Z-3.000 I-1.500 J0.000 F1200.000 
G1 X277.500 Y-112.167 Z-3.000 F1200.000 
G1 X277.061 Y-111.727 
G1 X277.500 Y-112.167 
G1 X277.500 Y-129.000 Z-3.000 F1200.000 
G2 X276.000 Y-130.500 Z-3.000 I-1.500 J0.000 F1200.000 
G1 X168.000 Y-130.500 Z-3.000 F1200.000 
G2 X166.500 Y-129.000 Z-3.000 I0.000 J1.500 F1200.000 
G1 X166.500 Y-112.167 Z-3.000 F1200.000 
G1 X166.939 Y-111.727 
G1 X166.500 Y-112.167 
G1 X156.000 Y-112.167 Z-3.000 F1200.000 
G2 X154.500 Y-110.667 Z-3.000 I0.000 J1.500 F1200.000 
G1 X154.500 Y-92.333 Z-3.000 F1200.000 
G2 X156.000 Y-90.833 Z-3.000 I1.500 J-0.000 F1200.000 
G1 X166.500 Y-90.833 Z-3.000 F1200.000 
G1 X166.939 Y-91.273 
G1 X166.500 Y-90.833 
G1 X166.500 Y-57.167 Z-3.000 F1200.000 
G1 X166.939 Y-56.727 
G1 X166.500 Y-57.167 
G1 X156.000 Y-57.167 Z-3.000 F1200.000 
G2 X154.500 Y-55.667 Z-3.000 I0.000 J1.500 F1200.000 
G1 X154.500 Y-37.333 Z-3.000 F1200.000 
G2 X154.939 Y-36.273 Z-3.000 I1.500 J-0.000 F1200.000 
G1 X154.939 Y-36.273 Z-6.000 F500.000 
G2 X156.000 Y-35.833 Z-6.000 I1.061 J-1.060 F1200.000 
G1 X166.500 Y-35.833 Z-6.000 F1200.000 
G1 X166.939 Y-36.273 
G1 X166.500 Y-35.833 
G1 X166.500 Y-19.000 Z-6.000 F1200.000 
G2 X168.000 Y-17.500 Z-6.000 I1.500 J-0.000 F1200.000 
G1 X180.000 Y-17.500 Z-6.000 F1200.000 
G2 X181.500 Y-19.000 Z-6.000 I-0.000 J-1.500 F1200.000 
G1 X181.500 Y-29.500 Z-6.000 F1200.000 
G1 X181.061 Y-29.939 
G1 X181.500 Y-29.500 
G1 X190.500 Y-29.500 Z-6.000 F1200.000 
G1 X190.939 Y-29.939 
G1 X190.500 Y-29.500 
G1 X190.500 Y-19.000 Z-6.000 F1200.000 
G2 X192.000 Y-17.500 Z-6.000 I1.500 J-0.000 F1200.000 
G1 X252.000 Y-17.500 Z-6.000 F1200.000 
G2 X253.500 Y-19.000 Z-6.000 I-0.000 J-1.500 F1200.000 
G1 X253.500 Y-29.500 Z-6.000 F1200.000 
G1 X253.061 Y-29.939 
G1 X253.500 Y-29.500 
G1 X262.500 Y-29.500 Z-6.000 F1200.000 
G1 X262.939 Y-29.939 
G1 X262.500 Y-29.500 
G1 X262.500 Y-19.000 Z-6.000 F1200.000 
G2 X264.000 Y-17.500 Z-6.000 I1.500 J-0.000 F1200.000 
G1 X276.000 Y-17.500 Z-6.000 F1200.000 
G2 X277.500 Y-19.000 Z-6.000 I-0.000 J-1.500 F1200.000 
G1 X277.500 Y-35.833 Z-6.000 F1200.000 
G1 X277.061 Y-36.273 
G1 X277.500 Y-35.833 
G1 X288.000 Y-35.833 Z-6.000 F1200.000 
G2 X289.500 Y-37.333 Z-6.000 I-0.000 J-1.500 F1200.000 
G1 X289.500 Y-55.667 Z-6.000 F1200.000 
G2 X288.000 Y-57.167 Z-6.000 I-1.500 J0.000 F1200.000 
G1 X277.500 Y-57.167 Z-6.000 F1200.000 
G1 X277.061 Y-56.727 
G1 X277.500 Y-57.167 
G1 X277.500 Y-90.833 Z-6.000 F1200.000 
G1 X277.061 Y-91.273 
G1 X277.500 Y-90.833 
G1 X288.000 Y-90.833 Z-6.000 F1200.000 
G2 X289.500 Y-92.333 Z-6.000 I-0.000 J-1.500 F1200.000 
G1 X289.500 Y-110.667 Z-6.000 F1200.000 
G2 X288.000 Y-112.167 Z-6.000 I-1.500 J0.000 F1200.000 
G1 X277.500 Y-112.167 Z-6.000 F1200.000 
G1 X277.061 Y-111.727 
G1 X277.500 Y-112.167 
G1 X277.500 Y-129.000 Z-6.000 F1200.000 
G2 X276.000 Y-130.500 Z-6.000 I-1.500 J0.000 F1200.000 
G1 X168.000 Y-130.500 Z-6.000 F1200.000 
G2 X166.500 Y-129.000 Z-6.000 I0.000 J1.500 F1200.000 
G1 X166.500 Y-112.167 Z-6.000 F1200.000 
G1 X166.939 Y-111.727 
G1 X166.500 Y-112.167 
G1 X156.000 Y-112.167 Z-6.000 F1200.000 
G2 X154.500 Y-110.667 Z-6.000 I0.000 J1.500 F1200.000 
G1 X154.500 Y-92.333 Z-6.000 F1200.000 
G2 X156.000 Y-90.833 Z-6.000 I1.500 J-0.000 F1200.000 
G1 X166.500 Y-90.833 Z-6.000 F1200.000 
G1 X166.939 Y-91.273 
G1 X166.500 Y-90.833 
G1 X166.500 Y-57.167 Z-6.000 F1200.000 
G1 X166.939 Y-56.727 
G1 X166.500 Y-57.167 
G1 X156.000 Y-57.167 Z-6.000 F1200.000 
G2 X154.500 Y-55.667 Z-6.000 I0.000 J1.500 F1200.000 
G1 X154.500 Y-37.333 Z-6.000 F1200.000 
G2 X154.939 Y-36.273 Z-6.000 I1.500 J-0.000 F1200.000 
G1 X154.939 Y-36.273 Z-9.000 F500.000 
G2 X156.000 Y-35.833 Z-9.000 I1.061 J-1.060 F1200.000 
G1 X166.500 Y-35.833 Z-9.000 F1200.000 
G1 X166.939 Y-36.273 
G1 X166.500 Y-35.833 
G1 X166.500 Y-19.000 Z-9.000 F1200.000 
G2 X168.000 Y-17.500 Z-9.000 I1.500 J-0.000 F1200.000 
G1 X180.000 Y-17.500 Z-9.000 F1200.000 
G2 X181.500 Y-19.000 Z-9.000 I-0.000 J-1.500 F1200.000 
G1 X181.500 Y-29.500 Z-9.000 F1200.000 
G1 X181.061 Y-29.939 
G1 X181.500 Y-29.500 
G1 X190.500 Y-29.500 Z-9.000 F1200.000 
G1 X190.939 Y-29.939 
G1 X190.500 Y-29.500 
G1 X190.500 Y-19.000 Z-9.000 F1200.000 
G2 X192.000 Y-17.500 Z-9.000 I1.500 J-0.000 F1200.000 
G1 X252.000 Y-17.500 Z-9.000 F1200.000 
G2 X253.500 Y-19.000 Z-9.000 I-0.000 J-1.500 F1200.000 
G1 X253.500 Y-29.500 Z-9.000 F1200.000 
G1 X253.061 Y-29.939 
G1 X253.500 Y-29.500 
G1 X262.500 Y-29.500 Z-9.000 F1200.000 
G1 X262.939 Y-29.939 
G1 X262.500 Y-29.500 
G1 X262.500 Y-19.000 Z-9.000 F1200.000 
G2 X264.000 Y-17.500 Z-9.000 I1.500 J-0.000 F1200.000 
G1 X276.000 Y-17.500 Z-9.000 F1200.000 
G2 X277.500 Y-19.000 Z-9.000 I-0.000 J-1.500 F1200.000 
G1 X277.500 Y-35.833 Z-9.000 F1200.000 
G1 X277.061 Y-36.273 
G1 X277.500 Y-35.833 
G1 X288.000 Y-35.833 Z-9.000 F1200.000 
G2 X289.500 Y-37.333 Z-9.000 I-0.000 J-1.500 F1200.000 
G1 X289.500 Y-55.667 Z-9.000 F1200.000 
G2 X288.000 Y-57.167 Z-9.000 I-1.500 J0.000 F1200.000 
G1 X277.500 Y-57.167 Z-9.000 F1200.000 
G1 X277.061 Y-56.727 
G1 X277.500 Y-57.167 
G1 X277.500 Y-90.833 Z-9.000 F1200.000 
G1 X277.061 Y-91.273 
G1 X277.500 Y-90.833 
G1 X288.000 Y-90.833 Z-9.000 F1200.000 
G2 X289.500 Y-92.333 Z-9.000 I-0.000 J-1.500 F1200.000 
G1 X289.500 Y-110.667 Z-9.000 F1200.000 
G2 X288.000 Y-112.167 Z-9.000 I-1.500 J0.000 F1200.000 
G1 X277.500 Y-112.167 Z-9.000 F1200.000 
G1 X277.061 Y-111.727 
G1 X277.500 Y-112.167 
G1 X277.500 Y-129.000 Z-9.000 F1200.000 
G2 X276.000 Y-130.500 Z-9.000 I-1.500 J0.000 F1200.000 
G1 X168.000 Y-130.500 Z-9.000 F1200.000 
G2 X166.500 Y-129.000 Z-9.000 I0.000 J1.500 F1200.000 
G1 X166.500 Y-112.167 Z-9.000 F1200.000 
G1 X166.939 Y-111.727 
G1 X166.500 Y-112.167 
G1 X156.000 Y-112.167 Z-9.000 F1200.000 
G2 X154.500 Y-110.667 Z-9.000 I0.000 J1.500 F1200.000 
G1 X154.500 Y-92.333 Z-9.000 F1200.000 
G2 X156.000 Y-90.833 Z-9.000 I1.500 J-0.000 F1200.000 
G1 X166.500 Y-90.833 Z-9.000 F1200.000 
G1 X166.939 Y-91.273 
G1 X166.500 Y-90.833 
G1 X166.500 Y-57.167 Z-9.000 F1200.000 
G1 X166.939 Y-56.727 
G1 X166.500 Y-57.167 
G1 X156.000 Y-57.167 Z-9.000 F1200.000 
G2 X154.500 Y-55.667 Z-9.000 I0.000 J1.500 F1200.000 
G1 X154.500 Y-37.333 Z-9.000 F1200.000 
G2 X154.939 Y-36.273 Z-9.000 I1.500 J-0.000 F1200.000 
G1 X154.939 Y-36.273 Z-12.000 F500.000 
G2 X156.000 Y-35.833 Z-12.000 I1.061 J-1.060 F1200.000 
G1 X166.500 Y-35.833 Z-12.000 F1200.000 
G1 X166.939 Y-36.273 
G1 X166.500 Y-35.833 
G1 X166.500 Y-19.000 Z-12.000 F1200.000 
G2 X168.000 Y-17.500 Z-12.000 I1.500 J-0.000 F1200.000 
G1 X180.000 Y-17.500 Z-12.000 F1200.000 
G2 X181.500 Y-19.000 Z-12.000 I-0.000 J-1.500 F1200.000 
G1 X181.500 Y-29.500 Z-12.000 F1200.000 
G1 X181.061 Y-29.939 
G1 X181.500 Y-29.500 
G1 X190.500 Y-29.500 Z-12.000 F1200.000 
G1 X190.939 Y-29.939 
G1 X190.500 Y-29.500 
G1 X190.500 Y-19.000 Z-12.000 F1200.000 
G2 X192.000 Y-17.500 Z-12.000 I1.500 J-0.000 F1200.000 
G1 X252.000 Y-17.500 Z-12.000 F1200.000 
G2 X253.500 Y-19.000 Z-12.000 I-0.000 J-1.500 F1200.000 
G1 X253.500 Y-29.500 Z-12.000 F1200.000 
G1 X253.061 Y-29.939 
G1 X253.500 Y-29.500 
G1 X262.500 Y-29.500 Z-12.000 F1200.000 
G1 X262.939 Y-29.939 
G1 X262.500 Y-29.500 
G1 X262.500 Y-19.000 Z-12.000 F1200.000 
G2 X264.000 Y-17.500 Z-12.000 I1.500 J-0.000 F1200.000 
G1 X276.000 Y-17.500 Z-12.000 F1200.000 
G2 X277.500 Y-19.000 Z-12.000 I-0.000 J-1.500 F1200.000 
G1 X277.500 Y-35.833 Z-12.000 F1200.000 
G1 X277.061 Y-36.273 
G1 X277.500 Y-35.833 
G1 X288.000 Y-35.833 Z-12.000 F1200.000 
G2 X289.500 Y-37.333 Z-12.000 I-0.000 J-1.500 F1200.000 
G1 X289.500 Y-55.667 Z-12.000 F1200.000 
G2 X288.000 Y-57.167 Z-12.000 I-1.500 J0.000 F1200.000 
G1 X277.500 Y-57.167 Z-12.000 F1200.000 
G1 X277.061 Y-56.727 
G1 X277.500 Y-57.167 
G1 X277.500 Y-90.833 Z-12.000 F1200.000 
G1 X277.061 Y-91.273 
G1 X277.500 Y-90.833 
G1 X288.000 Y-90.833 Z-12.000 F1200.000 
G2 X289.500 Y-92.333 Z-12.000 I-0.000 J-1.500 F1200.000 
G1 X289.500 Y-110.667 Z-12.000 F1200.000 
G2 X288.000 Y-112.167 Z-12.000 I-1.500 J0.000 F1200.000 
G1 X277.500 Y-112.167 Z-12.000 F1200.000 
G1 X277.061 Y-111.727 
G1 X277.500 Y-112.167 
G1 X277.500 Y-129.000 Z-12.000 F1200.000 
G2 X276.000 Y-130.500 Z-12.000 I-1.500 J0.000 F1200.000 
G1 X168.000 Y-130.500 Z-12.000 F1200.000 
G2 X166.500 Y-129.000 Z-12.000 I0.000 J1.500 F1200.000 
G1 X166.500 Y-112.167 Z-12.000 F1200.000 
G1 X166.939 Y-111.727 
G1 X166.500 Y-112.167 
G1 X156.000 Y-112.167 Z-12.000 F1200.000 
G2 X154.500 Y-110.667 Z-12.000 I0.000 J1.500 F1200.000 
G1 X154.500 Y-92.333 Z-12.000 F1200.000 
G2 X156.000 Y-90.833 Z-12.000 I1.500 J-0.000 F1200.000 
G1 X166.500 Y-90.833 Z-12.000 F1200.000 
G1 X166.939 Y-91.273 
G1 X166.500 Y-90.833 
G1 X166.500 Y-57.167 Z-12.000 F1200.000 
G1 X166.939 Y-56.727 
G1 X166.500 Y-57.167 
G1 X156.000 Y-57.167 Z-12.000 F1200.000 
G2 X154.500 Y-55.667 Z-12.000 I0.000 J1.500 F1200.000 
G1 X154.500 Y-37.333 Z-12.000 F1200.000 
G2 X154.939 Y-36.273 Z-12.000 I1.500 J-0.000 F1200.000 
G0 Z5.000 
G0 Z5.000 
G0 X154.939 Y-36.273 
G0 X294.517 Y-57.277 
G0 X294.517 Y-57.277 Z3.000 
G1 X294.517 Y-57.277 Z-3.000 F500.000 
G2 X296.000 Y-56.000 Z-3.000 I1.483 J-0.223 F1200.000 
G1 X320.000 Y-56.000 Z-3.000 F1200.000 
G2 X321.500 Y-57.500 Z-3.000 I-0.000 J-1.500 F1200.000 
G1 X321.500 Y-68.000 Z-3.000 F1200.000 
G1 X321.061 Y-68.439 
G1 X321.500 Y-68.000 
G1 X330.500 Y-68.000 Z-3.000 F1200.000 
G1 X330.939 Y-68.439 
G1 X330.500 Y-68.000 
G1 X330.500 Y-57.500 Z-3.000 F1200.000 
G2 X332.000 Y-56.000 Z-3.000 I1.500 J-0.000 F1200.000 
G1 X392.000 Y-56.000 Z-3.000 F1200.000 
G2 X393.500 Y-57.500 Z-3.000 I-0.000 J-1.500 F1200.000 
G1 X393.500 Y-68.000 Z-3.000 F1200.000 
G1 X393.061 Y-68.439 
G1 X393.500 Y-68.000 
G1 X402.500 Y-68.000 Z-3.000 F1200.000 
G1 X402.939 Y-68.439 
G1 X402.500 Y-68.000 
G1 X402.500 Y-57.500 Z-3.000 F1200.000 
G2 X404.000 Y-56.000 Z-3.000 I1.500 J-0.000 F1200.000 
G1 X428.000 Y-56.000 Z-3.000 F1200.000 
G2 X429.500 Y-57.500 Z-3.000 I-0.000 J-1.500 F1200.000 
G1 X429.500 Y-68.500 Z-3.000 F1200.000 
G2 X428.000 Y-70.000 Z-3.000 I-1.500 J0.000 F1200.000 
G1 X417.500 Y-70.000 Z-3.000 F1200.000 
G1 X417.061 Y-69.561 
G1 X417.500 Y-70.000 
G1 X417.500 Y-78.000 Z-3.000 F1200.000 
G1 X417.061 Y-78.439 
G1 X417.500 Y-78.000 
G1 X428.000 Y-78.000 Z-3.000 F1200.000 
G2 X429.500 Y-79.500 Z-3.000 I-0.000 J-1.500 F1200.000 
G1 X429.500 Y-90.500 Z-3.000 F1200.000 
G2 X428.000 Y-92.000 Z-3.000 I-1.500 J0.000 F1200.000 
G1 X296.000 Y-92.000 Z-3.000 F1200.000 
G2 X294.500 Y-90.500 Z-3.000 I0.000 J1.500 F1200.000 
G1 X294.500 Y-79.500 Z-3.000 F1200.000 
G2 X296.000 Y-78.000 Z-3.000 I1.500 J-0.000 F1200.000 
G1 X306.500 Y-78.000 Z-3.000 F1200.000 
G1 X306.939 Y-78.439 
G1 X306.500 Y-78.000 
G1 X306.500 Y-70.000 Z-3.000 F1200.000 
G1 X306.939 Y-69.561 
G1 X306.500 Y-70.000 
G1 X296.000 Y-70.000 Z-3.000 F1200.000 
G2 X294.500 Y-68.500 Z-3.000 I0.000 J1.500 F1200.000 
G1 X294.500 Y-57.500 Z-3.000 F1200.000 
G2 X294.517 Y-57.277 Z-3.000 I1.500 J-0.000 F1200.000 
G1 X294.517 Y-57.277 Z-6.000 F500.000 
G2 X296.000 Y-56.000 Z-6.000 I1.483 J-0.223 F1200.000 
G1 X320.000 Y-56.000 Z-6.000 F1200.000 
G2 X321.500 Y-57.500 Z-6.000 I-0.000 J-1.500 F1200.000 
G1 X321.500 Y-68.000 Z-6.000 F1200.000 
G1 X321.061 Y-68.439 
G1 X321.500 Y-68.000 
G1 X330.500 Y-68.000 Z-6.000 F1200.000 
G1 X330.939 Y-68.439 
G1 X330.500 Y-68.000 
G1 X330.500 Y-57.500 Z-6.000 F1200.000 
G2 X332.000 Y-56.000 Z-6.000 I1.500 J-0.000 F1200.000 
G1 X392.000 Y-56.000 Z-6.000 F1200.000 
G2 X393.500 Y-57.500 Z-6.000 I-0.000 J-1.500 F1200.000 
G1 X393.500 Y-68.000 Z-6.000 F1200.000 
G1 X393.061 Y-68.439 
G1 X393.500 Y-68.000 
G1 X402.500 Y-68.000 Z-6.000 F1200.000 
G1 X402.939 Y-68.439 
G1 X402.500 Y-68.000 
G1 X402.500 Y-57.500 Z-6.000 F1200.000 
G2 X404.000 Y-56.000 Z-6.000 I1.500 J-0.000 F1200.000 
G1 X428.000 Y-56.000 Z-6.000 F1200.000 
G2 X429.500 Y-57.500 Z-6.000 I-0.000 J-1.500 F1200.000 
G1 X429.500 Y-68.500 Z-6.000 F1200.000 
G2 X428.000 Y-70.000 Z-6.000 I-1.500 J0.000 F1200.000 
G1 X417.500 Y-70.000 Z-6.000 F1200.000 
G1 X417.061 Y-69.561 
G1 X417.500 Y-70.000 
G1 X417.500 Y-78.000 Z-6.000 F1200.000 
G1 X417.061 Y-78.439 
G1 X417.500 Y-78.000 
G1 X428.000 Y-78.000 Z-6.000 F1200.000 
G2 X429.500 Y-79.500 Z-6.000 I-0.000 J-1.500 F1200.000 
G1 X429.500 Y-90.500 Z-6.000 F1200.000 
G2 X428.000 Y-92.000 Z-6.000 I-1.500 J0.000 F1200.000 
G1 X296.000 Y-92.000 Z-6.000 F1200.000 
G2 X294.500 Y-90.500 Z-6.000 I0.000 J1.500 F1200.000 
G1 X294.500 Y-79.500 Z-6.000 F1200.000 
G2 X296.000 Y-78.000 Z-6.000 I1.500 J-0.000 F1200.000 
G1 X306.500 Y-78.000 Z-6.000 F1200.000 
G1 X306.939 Y-78.439 
G1 X306.500 Y-78.000 
G1 X306.500 Y-70.000 Z-6.000 F1200.000 
G1 X306.939 Y-69.561 
G1 X306.500 Y-70.000 
G1 X296.000 Y-70.000 Z-6.000 F1200.000 
G2 X294.500 Y-68.500 Z-6.000 I0.000 J1.500 F1200.000 
G1 X294.500 Y-57.500 Z-6.000 F1200.000 
G2 X294.517 Y-57.277 Z-6.000 I1.500 J-0.000 F1200.000 
G1 X294.517 Y-57.277 Z-9.000 F500.000 
G2 X296.000 Y-56.000 Z-9.000 I1.483 J-0.223 F1200.000 
G1 X320.000 Y-56.000 Z-9.000 F1200.000 
G2 X321.500 Y-57.500 Z-9.000 I-0.000 J-1.500 F1200.000 
G1 X321.500 Y-68.000 Z-9.000 F1200.000 
G1 X321.061 Y-68.439 
G1 X321.500 Y-68.000 
G1 X330.500 Y-68.000 Z-9.000 F1200.000 
G1 X330.939 Y-68.439 
G1 X330.500 Y-68.000 
G1 X330.500 Y-57.500 Z-9.000 F1200.000 
G2 X332.000 Y-56.000 Z-9.000 I1.500 J-0.000 F1200.000 
G1 X392.000 Y-56.000 Z-9.000 F1200.000 
G2 X393.500 Y-57.500 Z-9.000 I-0.000 J-1.500 F1200.000 
G1 X393.500 Y-68.000 Z-9.000 F1200.000 
G1 X393.061 Y-68.439 
G1 X393.500 Y-68.000 
G1 X402.500 Y-68.000 Z-9.000 F1200.000 
G1 X402.939 Y-68.439 
G1 X402.500 Y-68.000 
G1 X402.500 Y-57.500 Z-9.000 F1200.000 
G2 X404.000 Y-56.000 Z-9.000 I1.500 J-0.000 F1200.000 
G1 X428.000 Y-56.000 Z-9.000 F1200.000 
G2 X429.500 Y-57.500 Z-9.000 I-0.000 J-1.500 F1200.000 
G1 X429.500 Y-68.500 Z-9.000 F1200.000 
G2 X428.000 Y-70.000 Z-9.000 I-1.500 J0.000 F1200.000 
G1 X417.500 Y-70.000 Z-9.000 F1200.000 
G1 X417.061 Y-69.561 
G1 X417.500 Y-70.000 
G1 X417.500 Y-78.000 Z-9.000 F1200.000 
G1 X417.061 Y-78.439 
G1 X417.500 Y-78.000 
G1 X428.000 Y-78.000 Z-9.000 F1200.000 
G2 X429.500 Y-79.500 Z-9.000 I-0.000 J-1.500 F1200.000 
G1 X429.500 Y-90.500 Z-9.000 F1200.000 
G2 X428.000 Y-92.000 Z-9.000 I-1.500 J0.000 F1200.000 
G1 X296.000 Y-92.000 Z-9.000 F1200.000 
G2 X294.500 Y-90.500 Z-9.000 I0.000 J1.500 F1200.000 
G1 X294.500 Y-79.500 Z-9.000 F1200.000 
G2 X296.000 Y-78.000 Z-9.000 I1.500 J-0.000 F1200.000 
G1 X306.500 Y-78.000 Z-9.000 F1200.000 
G1 X306.939 Y-78.439 
G1 X306.500 Y-78.000 
G1 X306.500 Y-70.000 Z-9.000 F1200.000 
G1 X306.939 Y-69.561 
G1 X306.500 Y-70.000 
G1 X296.000 Y-70.000 Z-9.000 F1200.000 
G2 X294.500 Y-68.500 Z-9.000 I0.000 J1.500 F1200.000 
G1 X294.500 Y-57.500 Z-9.000 F1200.000 
G2 X294.517 Y-57.277 Z-9.000 I1.500 J-0.000 F1200.000 
G1 X294.517 Y-57.277 Z-12.000 F500.000 
G2 X296.000 Y-56.000 Z-12.000 I1.483 J-0.223 F1200.000 
G1 X320.000 Y-56.000 Z-12.000 F1200.000 
G2 X321.500 Y-57.500 Z-12.000 I-0.000 J-1.500 F1200.000 
G1 X321.500 Y-68.000 Z-12.000 F1200.000 
G1 X321.061 Y-68.439 
G1 X321.500 Y-68.000 
G1 X330.500 Y-68.000 Z-12.000 F1200.000 
G1 X330.939 Y-68.439 
G1 X330.500 Y-68.000 
G1 X330.500 Y-57.500 Z-12.000 F1200.000 
G2 X332.000 Y-56.000 Z-12.000 I1.500 J-0.000 F1200.000 
G1 X392.000 Y-56.000 Z-12.000 F1200.000 
G2 X393.500 Y-57.500 Z-12.000 I-0.000 J-1.500 F1200.000 
G1 X393.500 Y-68.000 Z-12.000 F1200.000 
G1 X393.061 Y-68.439 
G1 X393.500 Y-68.000 
G1 X402.500 Y-68.000 Z-12.000 F1200.000 
G1 X402.939 Y-68.439 
G1 X402.500 Y-68.000 
G1 X402.500 Y-57.500 Z-12.000 F1200.000 
G2 X404.000 Y-56.000 Z-12.000 I1.500 J-0.000 F1200.000 
G1 X428.000 Y-56.000 Z-12.000 F1200.000 
G2 X429.500 Y-57.500 Z-12.000 I-0.000 J-1.500 F1200.000 
G1 X429.500 Y-68.500 Z-12.000 F1200.000 
G2 X428.000 Y-70.000 Z-12.000 I-1.500 J0.000 F1200.000 
G1 X417.500 Y-70.000 Z-12.000 F1200.000 
G1 X417.061 Y-69.561 
G1 X417.500 Y-70.000 
G1 X417.500 Y-78.000 Z-12.000 F1200.000 
G1 X417.061 Y-78.439 
G1 X417.500 Y-78.000 
G1 X428.000 Y-78.000 Z-12.000 F1200.000 
G2 X429.500 Y-79.500 Z-12.000 I-0.000 J-1.500 F1200.000 
G1 X429.500 Y-90.500 Z-12.000 F1200.000 
G2 X428.000 Y-92.000 Z-12.000 I-1.500 J0.000 F1200.000 
G1 X296.000 Y-92.000 Z-12.000 F1200.000 
G2 X294.500 Y-90.500 Z-12.000 I0.000 J1.500 F1200.000 
G1 X294.500 Y-79.500 Z-12.000 F1200.000 
G2 X296.000 Y-78.000 Z-12.000 I1.500 J-0.000 F1200.000 
G1 X306.500 Y-78.000 Z-12.000 F1200.000 
G1 X306.939 Y-78.439 
G1 X306.500 Y-78.000 
G1 X306.500 Y-70.000 Z-12.000 F1200.000 
G1 X306.939 Y-69.561 
G1 X306.500 Y-70.000 
G1 X296.000 Y-70.000 Z-12.000 F1200.000 
G2 X294.500 Y-68.500 Z-12.000 I0.000 J1.500 F1200.000 
G1 X294.500 Y-57.500 Z-12.000 F1200.000 
G2 X294.517 Y-57.277 Z-12.000 I1.500 J-0.000 F1200.000 
G0 Z5.000 
G0 Z5.000 
G0 X294.517 Y-57.277 
G0 X295.945 Y-96.001 
G0 X295.945 Y-96.001 Z3.000 
G1 X295.945 Y-96.001 Z-3.000 F500.000 
G2 X296.000 Y-96.000 Z-3.000 I0.055 J-1.499 F1200.000 
G1 X320.000 Y-96.000 Z-3.000 F1200.000 
G2 X321.500 Y-97.500 Z-3.000 I-0.000 J-1.500 F1200.000 
G1 X321.500 Y-108.000 Z-3.000 F1200.000 
G1 X321.061 Y-108.439 
G1 X321.500 Y-108.000 
G1 X330.500 Y-108.000 Z-3.000 F1200.000 
G1 X330.939 Y-108.439 
G1 X330.500 Y-108.000 
G1 X330.500 Y-97.500 Z-3.000 F1200.000 
G2 X332.000 Y-96.000 Z-3.000 I1.500 J-0.000 F1200.000 
G1 X392.000 Y-96.000 Z-3.000 F1200.000 
G2 X393.500 Y-97.500 Z-3.000 I-0.000 J-1.500 F1200.000 
G1 X393.500 Y-108.000 Z-3.000 F1200.000 
G1 X393.061 Y-108.439 
G1 X393.500 Y-108.000 
G1 X402.500 Y-108.000 Z-3.000 F1200.000 
G1 X402.939 Y-108.439 
G1 X402.500 Y-108.000 
G1 X402.500 Y-97.500 Z-3.000 F1200.000 
G2 X404.000 Y-96.000 Z-3.000 I1.500 J-0.000 F1200.000 
G1 X428.000 Y-96.000 Z-3.000 F1200.000 
G2 X429.500 Y-97.500 Z-3.000 I-0.000 J-1.500 F1200.000 
G1 X429.500 Y-108.500 Z-3.000 F1200.000 
G2 X428.000 Y-110.000 Z-3.000 I-1.500 J0.000 F1200.000 
G1 X417.500 Y-110.000 Z-3.000 F1200.000 
G1 X417.061 Y-109.561 
G1 X417.500 Y-110.000 
G1 X417.500 Y-118.000 Z-3.000 F1200.000 
G1 X417.061 Y-118.439 
G1 X417.500 Y-118.000 
G1 X428.000 Y-118.000 Z-3.000 F1200.000 
G2 X429.500 Y-119.500 Z-3.000 I-0.000 J-1.500 F1200.000 
G1 X429.500 Y-130.500 Z-3.000 F1200.000 
G2 X428.000 Y-132.000 Z-3.000 I-1.500 J0.000 F1200.000 
G1 X296.000 Y-132.000 Z-3.000 F1200.000 
G2 X294.500 Y-130.500 Z-3.000 I0.000 J1.500 F1200.000 
G1 X294.500 Y-119.500 Z-3.000 F1200.000 
G2 X296.000 Y-118.000 Z-3.000 I1.500 J-0.000 F1200.000 
G1 X306.500 Y-118.000 Z-3.000 F1200.000 
G1 X306.939 Y-118.439 
G1 X306.500 Y-118.000 
G1 X306.500 Y-110.000 Z-3.000 F1200.000 
G1 X306.939 Y-109.561 
G1 X306.500 Y-110.000 
G1 X296.000 Y-110.000 Z-3.000 F1200.000 
G2 X294.500 Y-108.500 Z-3.000 I0.000 J1.500 F1200.000 
G1 X294.500 Y-97.500 Z-3.000 F1200.000 
G2 X295.945 Y-96.001 Z-3.000 I1.500 J-0.000 F1200.000 
G1 X295.945 Y-96.001 Z-6.000 F500.000 
G2 X296.000 Y-96.000 Z-6.000 I0.055 J-1.499 F1200.000 
G1 X320.000 Y-96.000 Z-6.000 F1200.000 
G2 X321.500 Y-97.500 Z-6.000 I-0.000 J-1.500 F1200.000 
G1 X321.500 Y-108.000 Z-6.000 F1200.000 
G1 X321.061 Y-108.439 
G1 X321.500 Y-108.000 
G1 X330.500 Y-108.000 Z-6.000 F1200.000 
G1 X330.939 Y-108.439 
G1 X330.500 Y-108.000 
G1 X330.500 Y-97.500 Z-6.000 F1200.000 
G2 X332.000 Y-96.000 Z-6.000 I1.500 J-0.000 F1200.000 
G1 X392.000 Y-96.000 Z-6.000 F1200.000 
G2 X393.500 Y-97.500 Z-6.000 I-0.000 J-1.500 F1200.000 
G1 X393.500 Y-108.000 Z-6.000 F1200.000 
G1 X393.061 Y-108.439 
G1 X393.500 Y-108.000 
G1 X402.500 Y-108.000 Z-6.000 F1200.000 
G1 X402.939 Y-108.439 
G1 X402.500 Y-108.000 
G1 X402.500 Y-97.500 Z-6.000 F1200.000 
G2 X404.000 Y-96.000 Z-6.000 I1.500 J-0.000 F1200.000 
G1 X428.000 Y-96.000 Z-6.000 F1200.000 
G2 X429.500 Y-97.500 Z-6.000 I-0.000 J-1.500 F1200.000 
G1 X429.500 Y-108.500 Z-6.000 F1200.000 
G2 X428.000 Y-110.000 Z-6.000 I-1.500 J0.000 F1200.000 
G1 X417.500 Y-110.000 Z-6.000 F1200.000 
G1 X417.061 Y-109.561 
G1 X417.500 Y-110.000 
G1 X417.500 Y-118.000 Z-6.000 F1200.000 
G1 X417.061 Y-118.439 
G1 X417.500 Y-118.000 
G1 X428.000 Y-118.000 Z-6.000 F1200.000 
G2 X429.500 Y-119.500 Z-6.000 I-0.000 J-1.500 F1200.000 
G1 X429.500 Y-130.500 Z-6.000 F1200.000 
G2 X428.000 Y-132.000 Z-6.000 I-1.500 J0.000 F1200.000 
G1 X296.000 Y-132.000 Z-6.000 F1200.000 
G2 X294.500 Y-130.500 Z-6.000 I0.000 J1.500 F1200.000 
G1 X294.500 Y-119.500 Z-6.000 F1200.000 
G2 X296.000 Y-118.000 Z-6.000 I1.500 J-0.000 F1200.000 
G1 X306.500 Y-118.000 Z-6.000 F1200.000 
G1 X306.939 Y-118.439 
G1 X306.500 Y-118.000 
G1 X306.500 Y-110.000 Z-6.000 F1200.000 
G1 X306.939 Y-109.561 
G1 X306.500 Y-110.000 
G1 X296.000 Y-110.000 Z-6.000 F1200.000 
G2 X294.500 Y-108.500 Z-6.000 I0.000 J1.500 F1200.000 
G1 X294.500 Y-97.500 Z-6.000 F1200.000 
G2 X295.945 Y-96.001 Z-6.000 I1.500 J-0.000 F1200.000 
G1 X295.945 Y-96.001 Z-9.000 F500.000 
G2 X296.000 Y-96.000 Z-9.000 I0.055 J-1.499 F1200.000 
G1 X320.000 Y-96.000 Z-9.000 F1200.000 
G2 X321.500 Y-97.500 Z-9.000 I-0.000 J-1.500 F1200.000 
G1 X321.500 Y-108.000 Z-9.000 F1200.000 
G1 X321.061 Y-108.439 
G1 X321.500 Y-108.000 
G1 X330.500 Y-108.000 Z-9.000 F1200.000 
G1 X330.939 Y-108.439 
G1 X330.500 Y-108.000 
G1 X330.500 Y-97.500 Z-9.000 F1200.000 
G2 X332.000 Y-96.000 Z-9.000 I1.500 J-0.000 F1200.000 
G1 X392.000 Y-96.000 Z-9.000 F1200.000 
G2 X393.500 Y-97.500 Z-9.000 I-0.000 J-1.500 F1200.000 
G1 X393.500 Y-108.000 Z-9.000 F1200.000 
G1 X393.061 Y-108.439 
G1 X393.500 Y-108.000 
G1 X402.500 Y-108.000 Z-9.000 F1200.000 
G1 X402.939 Y-108.439 
G1 X402.500 Y-108.000 
G1 X402.500 Y-97.500 Z-9.000 F1200.000 
G2 X404.000 Y-96.000 Z-9.000 I1.500 J-0.000 F1200.000 
G1 X428.000 Y-96.000 Z-9.000 F1200.000 
G2 X429.500 Y-97.500 Z-9.000 I-0.000 J-1.500 F1200.000 
G1 X429.500 Y-108.500 Z-9.000 F1200.000 
G2 X428.000 Y-110.000 Z-9.000 I-1.500 J0.000 F1200.000 
G1 X417.500 Y-110.000 Z-9.000 F1200.000 
G1 X417.061 Y-109.561 
G1 X417.500 Y-110.000 
G1 X417.500 Y-118.000 Z-9.000 F1200.000 
G1 X417.061 Y-118.439 
G1 X417.500 Y-118.000 
G1 X428.000 Y-118.000 Z-9.000 F1200.000 
G2 X429.500 Y-119.500 Z-9.000 I-0.000 J-1.500 F1200.000 
G1 X429.500 Y-130.500 Z-9.000 F1200.000 
G2 X428.000 Y-132.000 Z-9.000 I-1.500 J0.000 F1200.000 
G1 X296.000 Y-132.000 Z-9.000 F1200.000 
G2 X294.500 Y-130.500 Z-9.000 I0.000 J1.500 F1200.000 
G1 X294.500 Y-119.500 Z-9.000 F1200.000 
G2 X296.000 Y-118.000 Z-9.000 I1.500 J-0.000 F1200.000 
G1 X306.500 Y-118.000 Z-9.000 F1200.000 
G1 X306.939 Y-118.439 
G1 X306.500 Y-118.000 
G1 X306.500 Y-110.000 Z-9.000 F1200.000 
G1 X306.939 Y-109.561 
G1 X306.500 Y-110.000 
G1 X296.000 Y-110.000 Z-9.000 F1200.000 
G2 X294.500 Y-108.500 Z-9.000 I0.000 J1.500 F1200.000 
G1 X294.500 Y-97.500 Z-9.000 F1200.000 
G2 X295.945 Y-96.001 Z-9.000 I1.500 J-0.000 F1200.000 
G1 X295.945 Y-96.001 Z-12.000 F500.000 
G2 X296.000 Y-96.000 Z-12.000 I0.055 J-1.499 F1200.000 
G1 X320.000 Y-96.000 Z-12.000 F1200.000 
G2 X321.500 Y-97.500 Z-12.000 I-0.000 J-1.500 F1200.000 
G1 X321.500 Y-108.000 Z-12.000 F1200.000 
G1 X321.061 Y-108.439 
G1 X321.500 Y-108.000 
G1 X330.500 Y-108.000 Z-12.000 F1200.000 
G1 X330.939 Y-108.439 
G1 X330.500 Y-108.000 
G1 X330.500 Y-97.500 Z-12.000 F1200.000 
G2 X332.000 Y-96.000 Z-12.000 I1.500 J-0.000 F1200.000 
G1 X392.000 Y-96.000 Z-12.000 F1200.000 
G2 X393.500 Y-97.500 Z-12.000 I-0.000 J-1.500 F1200.000 
G1 X393.500 Y-108.000 Z-12.000 F1200.000 
G1 X393.061 Y-108.439 
G1 X393.500 Y-108.000 
G1 X402.500 Y-108.000 Z-12.000 F1200.000 
G1 X402.939 Y-108.439 
G1 X402.500 Y-108.000 
G1 X402.500 Y-97.500 Z-12.000 F1200.000 
G2 X404.000 Y-96.000 Z-12.000 I1.500 J-0.000 F1200.000 
G1 X428.000 Y-96.000 Z-12.000 F1200.000 
G2 X429.500 Y-97.500 Z-12.000 I-0.000 J-1.500 F1200.000 
G1 X429.500 Y-108.500 Z-12.000 F1200.000 
G2 X428.000 Y-110.000 Z-12.000 I-1.500 J0.000 F1200.000 
G1 X417.500 Y-110.000 Z-12.000 F1200.000 
G1 X417.061 Y-109.561 
G1 X417.500 Y-110.000 
G1 X417.500 Y-118.000 Z-12.000 F1200.000 
G1 X417.061 Y-118.439 
G1 X417.500 Y-118.000 
G1 X428.000 Y-118.000 Z-12.000 F1200.000 
G2 X429.500 Y-119.500 Z-12.000 I-0.000 J-1.500 F1200.000 
G1 X429.500 Y-130.500 Z-12.000 F1200.000 
G2 X428.000 Y-132.000 Z-12.000 I-1.500 J0.000 F1200.000 
G1 X296.000 Y-132.000 Z-12.000 F1200.000 
G2 X294.500 Y-130.500 Z-12.000 I0.000 J1.500 F1200.000 
G1 X294.500 Y-119.500 Z-12.000 F1200.000 
G2 X296.000 Y-118.000 Z-12.000 I1.500 J-0.000 F1200.000 
G1 X306.500 Y-118.000 Z-12.000 F1200.000 
G1 X306.939 Y-118.439 
G1 X306.500 Y-118.000 
G1 X306.500 Y-110.000 Z-12.000 F1200.000 
G1 X306.939 Y-109.561 
G1 X306.500 Y-110.000 
G1 X296.000 Y-110.000 Z-12.000 F1200.000 
G2 X294.500 Y-108.500 Z-12.000 I0.000 J1.500 F1200.000 
G1 X294.500 Y-97.500 Z-12.000 F1200.000 
G2 X295.945 Y-96.001 Z-12.000 I1.500 J-0.000 F1200.000 
G0 Z5.000 
G0 Z5.000 
G0 X295.945 Y-96.001 
G0 X305.794 Y-137.540 
G0 X305.794 Y-137.540 Z3.000 
G1 X305.794 Y-137.540 Z-3.000 F500.000 
G2 X306.140 Y-137.500 Z-3.000 I0.346 J-1.460 F1200.000 
G1 X348.210 Y-137.500 Z-3.000 F1200.000 
G2 X349.710 Y-139.000 Z-3.000 I-0.000 J-1.500 F1200.000 
G1 X349.710 Y-149.500 Z-3.000 F1200.000 
G1 X349.271 Y-149.939 
G1 X349.710 Y-149.500 
G1 X388.780 Y-149.500 Z-3.000 F1200.000 
G1 X389.219 Y-149.939 
G1 X388.780 Y-149.500 
G1 X388.780 Y-139.000 Z-3.000 F1200.000 
G2 X390.280 Y-137.500 Z-3.000 I1.500 J-0.000 F1200.000 
G1 X432.350 Y-137.500 Z-3.000 F1200.000 
G2 X433.850 Y-139.000 Z-3.000 I-0.000 J-1.500 F1200.000 
G1 X433.850 Y-157.333 Z-3.000 F1200.000 
G2 X432.350 Y-158.833 Z-3.000 I-1.500 J0.000 F1200.000 
G1 X421.850 Y-158.833 Z-3.000 F1200.000 
G1 X421.411 Y-158.394 
G1 X421.850 Y-158.833 
G1 X421.850 Y-174.167 Z-3.000 F1200.000 
G1 X421.411 Y-174.606 
G1 X421.850 Y-174.167 
G1 X432.350 Y-174.167 Z-3.000 F1200.000 
G2 X433.850 Y-175.667 Z-3.000 I-0.000 J-1.500 F1200.000 
G1 X433.850 Y-212.333 Z-3.000 F1200.000 
G2 X432.350 Y-213.833 Z-3.000 I-1.500 J0.000 F1200.000 
G1 X421.850 Y-213.833 Z-3.000 F1200.000 
G1 X421.411 Y-213.394 
G1 X421.850 Y-213.833 
G1 X421.850 Y-229.167 Z-3.000 F1200.000 
G1 X421.411 Y-229.606 
G1 X421.850 Y-229.167 
G1 X432.350 Y-229.167 Z-3.000 F1200.000 
G2 X433.850 Y-230.667 Z-3.000 I-0.000 J-1.500 F1200.000 
G1 X433.850 Y-249.000 Z-3.000 F1200.000 
G2 X432.350 Y-250.500 Z-3.000 I-1.500 J0.000 F1200.000 
G1 X11.650 Y-250.500 Z-3.000 F1200.000 
G2 X10.150 Y-249.000 Z-3.000 I0.000 J1.500 F1200.000 
G1 X10.150 Y-230.667 Z-3.000 F1200.000 
G2 X11.650 Y-229.167 Z-3.000 I1.500 J-0.000 F1200.000 
G1 X22.150 Y-229.167 Z-3.000 F1200.000 
G1 X22.589 Y-229.606 
G1 X22.150 Y-229.167 
G1 X22.150 Y-213.833 Z-3.000 F1200.000 
G1 X22.589 Y-213.394 
G1 X22.150 Y-213.833 
G1 X11.650 Y-213.833 Z-3.000 F1200.000 
G2 X10.150 Y-212.333 Z-3.000 I0.000 J1.500 F1200.000 
G1 X10.150 Y-175.667 Z-3.000 F1200.000 
G2 X11.650 Y-174.167 Z-3.000 I1.500 J-0.000 F1200.000 
G1 X22.150 Y-174.167 Z-3.000 F1200.000 
G1 X22.589 Y-174.606 
G1 X22.150 Y-174.167 
G1 X22.150 Y-158.833 Z-3.000 F1200.000 
G1 X22.589 Y-158.394 
G1 X22.150 Y-158.833 
G1 X11.650 Y-158.833 Z-3.000 F1200.000 
G2 X10.150 Y-157.333 Z-3.000 I0.000 J1.500 F1200.000 
G1 X10.150 Y-139.000 Z-3.000 F1200.000 
G2 X11.650 Y-137.500 Z-3.000 I1.500 J-0.000 F1200.000 
G1 X53.720 Y-137.500 Z-3.000 F1200.000 
G2 X55.220 Y-139.000 Z-3.000 I-0.000 J-1.500 F1200.000 
G1 X55.220 Y-149.500 Z-3.000 F1200.000 
G1 X54.781 Y-149.939 
G1 X55.220 Y-149.500 
G1 X94.290 Y-149.500 Z-3.000 F1200.000 
G1 X94.729 Y-149.939 
G1 X94.290 Y-149.500 
G1 X94.290 Y-139.000 Z-3.000 F1200.000 
G2 X95.790 Y-137.500 Z-3.000 I1.500 J-0.000 F1200.000 
G1 X137.860 Y-137.500 Z-3.000 F1200.000 
G2 X139.360 Y-139.000 Z-3.000 I-0.000 J-1.500 F1200.000 
G1 X139.360 Y-149.500 Z-3.000 F1200.000 
G1 X138.921 Y-149.939 
G1 X139.360 Y-149.500 
G1 X178.430 Y-149.500 Z-3.000 F1200.000 
G1 X178.869 Y-149.939 
G1 X178.430 Y-149.500 
G1 X178.430 Y-139.000 Z-3.000 F1200.000 
G2 X179.930 Y-137.500 Z-3.000 I1.500 J-0.000 F1200.000 
G1 X264.070 Y-137.500 Z-3.000 F1200.000 
G2 X265.570 Y-139.000 Z-3.000 I-0.000 J-1.500 F1200.000 
G1 X265.570 Y-149.500 Z-3.000 F1200.000 
G1 X265.131 Y-149.939 
G1 X265.570 Y-149.500 
G1 X304.640 Y-149.500 Z-3.000 F1200.000 
G1 X305.079 Y-149.939 
G1 X304.640 Y-149.500 
G1 X304.640 Y-139.000 Z-3.000 F1200.000 
G2 X305.794 Y-137.540 Z-3.000 I1.500 J-0.000 F1200.000 
G1 X305.794 Y-137.540 Z-6.000 F500.000 
G2 X306.140 Y-137.500 Z-6.000 I0.346 J-1.460 F1200.000 
G1 X348.210 Y-137.500 Z-6.000 F1200.000 
G2 X349.710 Y-139.000 Z-6.000 I-0.000 J-1.500 F1200.000 
G1 X349.710 Y-149.500 Z-6.000 F1200.000 
G1 X349.271 Y-149.939 
G1 X349.710 Y-149.500 
G1 X388.780 Y-149.500 Z-6.000 F1200.000 
G1 X389.219 Y-149.939 
G1 X388.780 Y-149.500 
G1 X388.780 Y-139.000 Z-6.000 F1200.000 
G2 X390.280 Y-137.500 Z-6.000 I1.500 J-0.000 F1200.000 
G1 X432.350 Y-137.500 Z-6.000 F1200.000 
G2 X433.850 Y-139.000 Z-6.000 I-0.000 J-1.500 F1200.000 
G1 X433.850 Y-157.333 Z-6.000 F1200.000 
G2 X432.350 Y-158.833 Z-6.000 I-1.500 J0.000 F1200.000 
G1 X421.850 Y-158.833 Z-6.000 F1200.000 
G1 X421.411 Y-158.394 
G1 X421.850 Y-158.833 
G1 X421.850 Y-174.167 Z-6.000 F1200.000 
G1 X421.411 Y-174.606 
G1 X421.850 Y-174.167 
G1 X432.350 Y-174.167 Z-6.000 F1200.000 
G2 X433.850 Y-175.667 Z-6.000 I-0.000 J-1.500 F1200.000 
G1 X433.850 Y-212.333 Z-6.000 F1200.000 
G2 X432.350 Y-213.833 Z-6.000 I-1.500 J0.000 F1200.000 
G1 X421.850 Y-213.833 Z-6.000 F1200.000 
G1 X421.411 Y-213.394 
G1 X421.850 Y-213.833 
G1 X421.850 Y-229.167 Z-6.000 F1200.000 
G1 X421.411 Y-229.606 
G1 X421.850 Y-229.167 
G1 X432.350 Y-229.167 Z-6.000 F1200.000 
G2 X433.850 Y-230.667 Z-6.000 I-0.000 J-1.500 F1200.000 
G1 X433.850 Y-249.000 Z-6.000 F1200.000 
G2 X432.350 Y-250.500 Z-6.000 I-1.500 J0.000 F1200.000 
G1 X11.650 Y-250.500 Z-6.000 F1200.000 
G2 X10.150 Y-249.000 Z-6.000 I0.000 J1.500 F1200.000 
G1 X10.150 Y-230.667 Z-6.000 F1200.000 
G2 X11.650 Y-229.167 Z-6.000 I1.500 J-0.000 F1200.000 
G1 X22.150 Y-229.167 Z-6.000 F1200.000 
G1 X22.589 Y-229.606 
G1 X22.150 Y-229.167 
G1 X22.150 Y-213.833 Z-6.000 F1200.000 
G1 X22.589 Y-213.394 
G1 X22.150 Y-213.833 
G1 X11.650 Y-213.833 Z-6.000 F1200.000 
G2 X10.150 Y-212.333 Z-6.000 I0.000 J1.500 F1200.000 
G1 X10.150 Y-175.667 Z-6.000 F1200.000 
G2 X11.650 Y-174.167 Z-6.000 I1.500 J-0.000 F1200.000 
G1 X22.150 Y-174.167 Z-6.000 F1200.000 
G1 X22.589 Y-174.606 
G1 X22.150 Y-174.167 
G1 X22.150 Y-158.833 Z-6.000 F1200.000 
G1 X22.589 Y-158.394 
G1 X22.150 Y-158.833 
G1 X11.650 Y-158.833 Z-6.000 F1200.000 
G2 X10.150 Y-157.333 Z-6.000 I0.000 J1.500 F1200.000 
G1 X10.150 Y-139.000 Z-6.000 F1200.000 
G2 X11.650 Y-137.500 Z-6.000 I1.500 J-0.000 F1200.000 
G1 X53.720 Y-137.500 Z-6.000 F1200.000 
G2 X55.220 Y-139.000 Z-6.000 I-0.000 J-1.500 F1200.000 
G1 X55.220 Y-149.500 Z-6.000 F1200.000 
G1 X54.781 Y-149.939 
G1 X55.220 Y-149.500 
G1 X94.290 Y-149.500 Z-6.000 F1200.000 
G1 X94.729 Y-149.939 
G1 X94.290 Y-149.500 
G1 X94.290 Y-139.000 Z-6.000 F1200.000 
G2 X95.790 Y-137.500 Z-6.000 I1.500 J-0.000 F1200.000 
G1 X137.860 Y-137.500 Z-6.000 F1200.000 
G2 X139.360 Y-139.000 Z-6.000 I-0.000 J-1.500 F1200.000 
G1 X139.360 Y-149.500 Z-6.000 F1200.000 
G1 X138.921 Y-149.939 
G1 X139.360 Y-149.500 
G1 X178.430 Y-149.500 Z-6.000 F1200.000 
G1 X178.869 Y-149.939 
G1 X178.430 Y-149.500 
G1 X178.430 Y-139.000 Z-6.000 F1200.000 
G2 X179.930 Y-137.500 Z-6.000 I1.500 J-0.000 F1200.000 
G1 X264.070 Y-137.500 Z-6.000 F1200.000 
G2 X265.570 Y-139.000 Z-6.000 I-0.000 J-1.500 F1200.000 
G1 X265.570 Y-149.500 Z-6.000 F1200.000 
G1 X265.131 Y-149.939 
G1 X265.570 Y-149.500 
G1 X304.640 Y-149.500 Z-6.000 F1200.000 
G1 X305.079 Y-149.939 
G1 X304.640 Y-149.500 
G1 X304.640 Y-139.000 Z-6.000 F1200.000 
G2 X305.794 Y-137.540 Z-6.000 I1.500 J-0.000 F1200.000 
G1 X305.794 Y-137.540 Z-9.000 F500.000 
G2 X306.140 Y-137.500 Z-9.000 I0.346 J-1.460 F1200.000 
G1 X348.210 Y-137.500 Z-9.000 F1200.000 
G2 X349.710 Y-139.000 Z-9.000 I-0.000 J-1.500 F1200.000 
G1 X349.710 Y-149.500 Z-9.000 F1200.000 
G1 X349.271 Y-149.939 
G1 X349.710 Y-149.500 
G1 X388.780 Y-149.500 Z-9.000 F1200.000 
G1 X389.219 Y-149.939 
G1 X388.780 Y-149.500 
G1 X388.780 Y-139.000 Z-9.000 F1200.000 
G2 X390.280 Y-137.500 Z-9.000 I1.500 J-0.000 F1200.000 
G1 X432.350 Y-137.500 Z-9.000 F1200.000 
G2 X433.850 Y-139.000 Z-9.000 I-0.000 J-1.500 F1200.000 
G1 X433.850 Y-157.333 Z-9.000 F1200.000 
G2 X432.350 Y-158.833 Z-9.000 I-1.500 J0.000 F1200.000 
G1 X421.850 Y-158.833 Z-9.000 F1200.000 
G1 X421.411 Y-158.394 
G1 X421.850 Y-158.833 
G1 X421.850 Y-174.167 Z-9.000 F1200.000 
G1 X421.411 Y-174.606 
G1 X421.850 Y-174.167 
G1 X432.350 Y-174.167 Z-9.000 F1200.000 
G2 X433.850 Y-175.667 Z-9.000 I-0.000 J-1.500 F1200.000 
G1 X433.850 Y-212.333 Z-9.000 F1200.000 
G2 X432.350 Y-213.833 Z-9.000 I-1.500 J0.000 F1200.000 
G1 X421.850 Y-213.833 Z-9.000 F1200.000 
G1 X421.411 Y-213.394 
G1 X421.850 Y-213.833 
G1 X421.850 Y-229.167 Z-9.000 F1200.000 
G1 X421.411 Y-229.606 
G1 X421.850 Y-229.167 
G1 X432.350 Y-229.167 Z-9.000 F1200.000 
G2 X433.850 Y-230.667 Z-9.000 I-0.000 J-1.500 F1200.000 
G1 X433.850 Y-249.000 Z-9.000 F1200.000 
G2 X432.350 Y-250.500 Z-9.000 I-1.500 J0.000 F1200.000 
G1 X11.650 Y-250.500 Z-9.000 F1200.000 
G2 X10.150 Y-249.000 Z-9.000 I0.000 J1.500 F1200.000 
G1 X10.150 Y-230.667 Z-9.000 F1200.000 
G2 X11.650 Y-229.167 Z-9.000 I1.500 J-0.000 F1200.000 
G1 X22.150 Y-229.167 Z-9.000 F1200.000 
G1 X22.589 Y-229.606 
G1 X22.150 Y-229.167 
G1 X22.150 Y-213.833 Z-9.000 F1200.000 
G1 X22.589 Y-213.394 
G1 X22.150 Y-213.833 
G1 X11.650 Y-213.833 Z-9.000 F1200.000 
G2 X10.150 Y-212.333 Z-9.000 I0.000 J1.500 F1200.000 
G1 X10.150 Y-175.667 Z-9.000 F1200.000 
G2 X11.650 Y-174.167 Z-9.000 I1.500 J-0.000 F1200.000 
G1 X22.150 Y-174.167 Z-9.000 F1200.000 
G1 X22.589 Y-174.606 
G1 X22.150 Y-174.167 
G1 X22.150 Y-158.833 Z-9.000 F1200.000 
G1 X22.589 Y-158.394 
G1 X22.150 Y-158.833 
G1 X11.650 Y-158.833 Z-9.000 F1200.000 
G2 X10.150 Y-157.333 Z-9.000 I0.000 J1.500 F1200.000 
G1 X10.150 Y-139.000 Z-9.000 F1200.000 
G2 X11.650 Y-137.500 Z-9.000 I1.500 J-0.000 F1200.000 
G1 X53.720 Y-137.500 Z-9.000 F1200.000 
G2 X55.220 Y-139.000 Z-9.000 I-0.000 J-1.500 F1200.000 
G1 X55.220 Y-149.500 Z-9.000 F1200.000 
G1 X54.781 Y-149.939 
G1 X55.220 Y-149.500 
G1 X94.290 Y-149.500 Z-9.000 F1200.000 
G1 X94.729 Y-149.939 
G1 X94.290 Y-149.500 
G1 X94.290 Y-139.000 Z-9.000 F1200.000 
G2 X95.790 Y-137.500 Z-9.000 I1.500 J-0.000 F1200.000 
G1 X137.860 Y-137.500 Z-9.000 F1200.000 
G2 X139.360 Y-139.000 Z-9.000 I-0.000 J-1.500 F1200.000 
G1 X139.360 Y-149.500 Z-9.000 F1200.000 
G1 X138.921 Y-149.939 
G1 X139.360 Y-149.500 
G1 X178.430 Y-149.500 Z-9.000 F1200.000 
G1 X178.869 Y-149.939 
G1 X178.430 Y-149.500 
G1 X178.430 Y-139.000 Z-9.000 F1200.000 
G2 X179.930 Y-137.500 Z-9.000 I1.500 J-0.000 F1200.000 
G1 X264.070 Y-137.500 Z-9.000 F1200.000 
G2 X265.570 Y-139.000 Z-9.000 I-0.000 J-1.500 F1200.000 
G1 X265.570 Y-149.500 Z-9.000 F1200.000 
G1 X265.131 Y-149.939 
G1 X265.570 Y-149.500 
G1 X304.640 Y-149.500 Z-9.000 F1200.000 
G1 X305.079 Y-149.939 
G1 X304.640 Y-149.500 
G1 X304.640 Y-139.000 Z-9.000 F1200.000 
G2 X305.794 Y-137.540 Z-9.000 I1.500 J-0.000 F1200.000 
G1 X305.794 Y-137.540 Z-12.000 F500.000 
G2 X306.140 Y-137.500 Z-12.000 I0.346 J-1.460 F1200.000 
G1 X348.210 Y-137.500 Z-12.000 F1200.000 
G2 X349.710 Y-139.000 Z-12.000 I-0.000 J-1.500 F1200.000 
G1 X349.710 Y-149.500 Z-12.000 F1200.000 
G1 X349.271 Y-149.939 
G1 X349.710 Y-149.500 
G1 X388.780 Y-149.500 Z-12.000 F1200.000 
G1 X389.219 Y-149.939 
G1 X388.780 Y-149.500 
G1 X388.780 Y-139.000 Z-12.000 F1200.000 
G2 X390.280 Y-137.500 Z-12.000 I1.500 J-0.000 F1200.000 
G1 X432.350 Y-137.500 Z-12.000 F1200.000 
G2 X433.850 Y-139.000 Z-12.000 I-0.000 J-1.500 F1200.000 
G1 X433.850 Y-157.333 Z-12.000 F1200.000 
G2 X432.350 Y-158.833 Z-12.000 I-1.500 J0.000 F1200.000 
G1 X421.850 Y-158.833 Z-12.000 F1200.000 
G1 X421.411 Y-158.394 
G1 X421.850 Y-158.833 
G1 X421.850 Y-174.167 Z-12.000 F1200.000 
G1 X421.411 Y-174.606 
G1 X421.850 Y-174.167 
G1 X432.350 Y-174.167 Z-12.000 F1200.000 
G2 X433.850 Y-175.667 Z-12.000 I-0.000 J-1.500 F1200.000 
G1 X433.850 Y-212.333 Z-12.000 F1200.000 
G2 X432.350 Y-213.833 Z-12.000 I-1.500 J0.000 F1200.000 
G1 X421.850 Y-213.833 Z-12.000 F1200.000 
G1 X421.411 Y-213.394 
G1 X421.850 Y-213.833 
G1 X421.850 Y-229.167 Z-12.000 F1200.000 
G1 X421.411 Y-229.606 
G1 X421.850 Y-229.167 
G1 X432.350 Y-229.167 Z-12.000 F1200.000 
G2 X433.850 Y-230.667 Z-12.000 I-0.000 J-1.500 F1200.000 
G1 X433.850 Y-249.000 Z-12.000 F1200.000 
G2 X432.350 Y-250.500 Z-12.000 I-1.500 J0.000 F1200.000 
G1 X11.650 Y-250.500 Z-12.000 F1200.000 
G2 X10.150 Y-249.000 Z-12.000 I0.000 J1.500 F1200.000 
G1 X10.150 Y-230.667 Z-12.000 F1200.000 
G2 X11.650 Y-229.167 Z-12.000 I1.500 J-0.000 F1200.000 
G1 X22.150 Y-229.167 Z-12.000 F1200.000 
G1 X22.589 Y-229.606 
G1 X22.150 Y-229.167 
G1 X22.150 Y-213.833 Z-12.000 F1200.000 
G1 X22.589 Y-213.394 
G1 X22.150 Y-213.833 
G1 X11.650 Y-213.833 Z-12.000 F1200.000 
G2 X10.150 Y-212.333 Z-12.000 I0.000 J1.500 F1200.000 
G1 X10.150 Y-175.667 Z-12.000 F1200.000 
G2 X11.650 Y-174.167 Z-12.000 I1.500 J-0.000 F1200.000 
G1 X22.150 Y-174.167 Z-12.000 F1200.000 
G1 X22.589 Y-174.606 
G1 X22.150 Y-174.167 
G1 X22.150 Y-158.833 Z-12.000 F1200.000 
G1 X22.589 Y-158.394 
G1 X22.150 Y-158.833 
G1 X11.650 Y-158.833 Z-12.000 F1200.000 
G2 X10.150 Y-157.333 Z-12.000 I0.000 J1.500 F1200.000 
G1 X10.150 Y-139.000 Z-12.000 F1200.000 
G2 X11.650 Y-137.500 Z-12.000 I1.500 J-0.000 F1200.000 
G1 X53.720 Y-137.500 Z-12.000 F1200.000 
G2 X55.220 Y-139.000 Z-12.000 I-0.000 J-1.500 F1200.000 
G1 X55.220 Y-149.500 Z-12.000 F1200.000 
G1 X54.781 Y-149.939 
G1 X55.220 Y-149.500 
G1 X94.290 Y-149.500 Z-12.000 F1200.000 
G1 X94.729 Y-149.939 
G1 X94.290 Y-149.500 
G1 X94.290 Y-139.000 Z-12.000 F1200.000 
G2 X95.790 Y-137.500 Z-12.000 I1.500 J-0.000 F1200.000 
G1 X137.860 Y-137.500 Z-12.000 F1200.000 
G2 X139.360 Y-139.000 Z-12.000 I-0.000 J-1.500 F1200.000 
G1 X139.360 Y-149.500 Z-12.000 F1200.000 
G1 X138.921 Y-149.939 
G1 X139.360 Y-149.500 
G1 X178.430 Y-149.500 Z-12.000 F1200.000 
G1 X178.869 Y-149.939 
G1 X178.430 Y-149.500 
G1 X178.430 Y-139.000 Z-12.000 F1200.000 
G2 X179.930 Y-137.500 Z-12.000 I1.500 J-0.000 F1200.000 
G1 X264.070 Y-137.500 Z-12.000 F1200.000 
G2 X265.570 Y-139.000 Z-12.000 I-0.000 J-1.500 F1200.000 
G1 X265.570 Y-149.500 Z-12.000 F1200.000 
G1 X265.131 Y-149.939 
G1 X265.570 Y-149.500 
G1 X304.640 Y-149.500 Z-12.000 F1200.000 
G1 X305.079 Y-149.939 
G1 X304.640 Y-149.500 
G1 X304.640 Y-139.000 Z-12.000 F1200.000 
G2 X305.794 Y-137.540 Z-12.000 I1.500 J-0.000 F1200.000 
G0 Z5.000 
G0 Z5.000 
G0 X305.794 Y-137.540 
G0 Y-256.500 
G0 Y-256.500 Z3.000 
G1 X305.794 Y-256.500 Z-3.000 F500.000 
G1 X306.140 Y-256.500 Z-3.000 F1200.000 
G2 X307.640 Y-258.000 Z-3.000 I-0.000 J-1.500 F1200.000 
G1 X307.640 Y-268.500 Z-3.000 F1200.000 
G1 X307.201 Y-268.939 
G1 X307.640 Y-268.500 
G1 X346.710 Y-268.500 Z-3.000 F1200.000 
G1 X347.149 Y-268.939 
G1 X346.710 Y-268.500 
G1 X346.710 Y-258.000 Z-3.000 F1200.000 
G2 X348.210 Y-256.500 Z-3.000 I1.500 J-0.000 F1200.000 
G1 X390.280 Y-256.500 Z-3.000 F1200.000 
G2 X391.780 Y-258.000 Z-3.000 I-0.000 J-1.500 F1200.000 
G1 X391.780 Y-268.500 Z-3.000 F1200.000 
G1 X391.341 Y-268.939 
G1 X391.780 Y-268.500 
G1 X420.350 Y-268.500 Z-3.000 F1200.000 
G2 X421.850 Y-270.000 Z-3.000 I-0.000 J-1.500 F1200.000 
G1 X421.850 Y-280.500 Z-3.000 F1200.000 
G1 X421.411 Y-280.939 
G1 X421.850 Y-280.500 
G1 X432.350 Y-280.500 Z-3.000 F1200.000 
G2 X433.850 Y-282.000 Z-3.000 I-0.000 J-1.500 F1200.000 
G1 X433.850 Y-294.000 Z-3.000 F1200.000 
G2 X432.350 Y-295.500 Z-3.000 I-1.500 J0.000 F1200.000 
G1 X421.850 Y-295.500 Z-3.000 F1200.000 
G1 X421.411 Y-295.061 
G1 X421.850 Y-295.500 
G1 X421.850 Y-352.500 Z-3.000 F1200.000 
G1 X421.411 Y-352.939 
G1 X421.850 Y-352.500 
G1 X432.350 Y-352.500 Z-3.000 F1200.000 
G2 X433.850 Y-354.000 Z-3.000 I-0.000 J-1.500 F1200.000 
G1 X433.850 Y-366.000 Z-3.000 F1200.000 
G2 X432.350 Y-367.500 Z-3.000 I-1.500 J0.000 F1200.000 
G1 X421.850 Y-367.500 Z-3.000 F1200.000 
G1 X421.411 Y-367.061 
G1 X421.850 Y-367.500 
G1 X421.850 Y-378.000 Z-3.000 F1200.000 
G2 X420.350 Y-379.500 Z-3.000 I-1.500 J0.000 F1200.000 
G1 X391.780 Y-379.500 Z-3.000 F1200.000 
G1 X391.341 Y-379.061 
G1 X391.780 Y-379.500 
G1 X391.780 Y-390.000 Z-3.000 F1200.000 
G2 X390.280 Y-391.500 Z-3.000 I-1.500 J0.000 F1200.000 
G1 X348.210 Y-391.500 Z-3.000 F1200.000 
G2 X346.710 Y-390.000 Z-3.000 I0.000 J1.500 F1200.000 
G1 X346.710 Y-379.500 Z-3.000 F1200.000 
G1 X347.149 Y-379.061 
G1 X346.710 Y-379.500 
G1 X307.640 Y-379.500 Z-3.000 F1200.000 
G1 X307.201 Y-379.061 
G1 X307.640 Y-379.500 
G1 X307.640 Y-390.000 Z-3.000 F1200.000 
G2 X306.140 Y-391.500 Z-3.000 I-1.500 J0.000 F1200.000 
G1 X264.070 Y-391.500 Z-3.000 F1200.000 
G2 X262.570 Y-390.000 Z-3.000 I0.000 J1.500 F1200.000 
G1 X262.570 Y-379.500 Z-3.000 F1200.000 
G1 X263.009 Y-379.061 
G1 X262.570 Y-379.500 
G1 X181.430 Y-379.500 Z-3.000 F1200.000 
G1 X180.991 Y-379.061 
G1 X181.430 Y-379.500 
G1 X181.430 Y-390.000 Z-3.000 F1200.000 
G2 X179.930 Y-391.500 Z-3.000 I-1.500 J0.000 F1200.000 
G1 X137.860 Y-391.500 Z-3.000 F1200.000 
G2 X136.360 Y-390.000 Z-3.000 I0.000 J1.500 F1200.000 
G1 X136.360 Y-379.500 Z-3.000 F1200.000 
G1 X136.799 Y-379.061 
G1 X136.360 Y-379.500 
G1 X97.290 Y-379.500 Z-3.000 F1200.000 
G1 X96.851 Y-379.061 
G1 X97.290 Y-379.500 
G1 X97.290 Y-390.000 Z-3.000 F1200.000 
G2 X95.790 Y-391.500 Z-3.000 I-1.500 J0.000 F1200.000 
G1 X53.720 Y-391.500 Z-3.000 F1200.000 
G2 X52.220 Y-390.000 Z-3.000 I0.000 J1.500 F1200.000 
G1 X52.220 Y-379.500 Z-3.000 F1200.000 
G1 X52.659 Y-379.061 
G1 X52.220 Y-379.500 
G1 X23.650 Y-379.500 Z-3.000 F1200.000 
G2 X22.150 Y-378.000 Z-3.000 I0.000 J1.500 F1200.000 
G1 X22.150 Y-367.500 Z-3.000 F1200.000 
G1 X22.589 Y-367.061 
G1 X22.150 Y-367.500 
G1 X11.650 Y-367.500 Z-3.000 F1200.000 
G2 X10.150 Y-366.000 Z-3.000 I0.000 J1.500 F1200.000 
G1 X10.150 Y-354.000 Z-3.000 F1200.000 
G2 X11.650 Y-352.500 Z-3.000 I1.500 J-0.000 F1200.000 
G1 X22.150 Y-352.500 Z-3.000 F1200.000 
G1 X22.589 Y-352.939 
G1 X22.150 Y-352.500 
G1 X22.150 Y-295.500 Z-3.000 F1200.000 
G1 X22.589 Y-295.061 
G1 X22.150 Y-295.500 
G1 X11.650 Y-295.500 Z-3.000 F1200.000 
G2 X10.150 Y-294.000 Z-3.000 I0.000 J1.500 F1200.000 
G1 X10.150 Y-282.000 Z-3.000 F1200.000 
G2 X11.650 Y-280.500 Z-3.000 I1.500 J-0.000 F1200.000 
G1 X22.150 Y-280.500 Z-3.000 F1200.000 
G1 X22.589 Y-280.939 
G1 X22.150 Y-280.500 
G1 X22.150 Y-270.000 Z-3.000 F1200.000 
G2 X23.650 Y-268.500 Z-3.000 I1.500 J-0.000 F1200.000 
G1 X52.220 Y-268.500 Z-3.000 F1200.000 
G1 X52.659 Y-268.939 
G1 X52.220 Y-268.500 
G1 X52.220 Y-258.000 Z-3.000 F1200.000 
G2 X53.720 Y-256.500 Z-3.000 I1.500 J-0.000 F1200.000 
G1 X95.790 Y-256.500 Z-3.000 F1200.000 
G2 X97.290 Y-258.000 Z-3.000 I-0.000 J-1.500 F1200.000 
G1 X97.290 Y-268.500 Z-3.000 F1200.000 
G1 X96.851 Y-268.939 
G1 X97.290 Y-268.500 
G1 X136.360 Y-268.500 Z-3.000 F1200.000 
G1 X136.799 Y-268.939 
G1 X136.360 Y-268.500 
G1 X136.360 Y-258.000 Z-3.000 F1200.000 
G2 X137.860 Y-256.500 Z-3.000 I1.500 J-0.000 F1200.000 
G1 X179.930 Y-256.500 Z-3.000 F1200.000 
G2 X181.430 Y-258.000 Z-3.000 I-0.000 J-1.500 F1200.000 
G1 X181.430 Y-268.500 Z-3.000 F1200.000 
G1 X180.991 Y-268.939 
G1 X181.430 Y-268.500 
G1 X262.570 Y-268.500 Z-3.000 F1200.000 
G1 X263.009 Y-268.939 
G1 X262.570 Y-268.500 
G1 X262.570 Y-258.000 Z-3.000 F1200.000 
G2 X264.070 Y-256.500 Z-3.000 I1.500 J-0.000 F1200.000 
G1 X305.794 Y-256.500 Z-3.000 F1200.000 
G1 X305.794 Y-256.500 Z-6.000 F500.000 
G1 X306.140 Y-256.500 Z-6.000 F1200.000 
G2 X307.640 Y-258.000 Z-6.000 I-0.000 J-1.500 F1200.000 
G1 X307.640 Y-268.500 Z-6.000 F1200.000 
G1 X307.201 Y-268.939 
G1 X307.640 Y-268.500 
G1 X346.710 Y-268.500 Z-6.000 F1200.000 
G1 X347.149 Y-268.939 
G1 X346.710 Y-268.500 
G1 X346.710 Y-258.000 Z-6.000 F1200.000 
G2 X348.210 Y-256.500 Z-6.000 I1.500 J-0.000 F1200.000 
G1 X390.280 Y-256.500 Z-6.000 F1200.000 
G2 X391.780 Y-258.000 Z-6.000 I-0.000 J-1.500 F1200.000 
G1 X391.780 Y-268.500 Z-6.000 F1200.000 
G1 X391.341 Y-268.939 
G1 X391.780 Y-268.500 
G1 X420.350 Y-268.500 Z-6.000 F1200.000 
G2 X421.850 Y-270.000 Z-6.000 I-0.000 J-1.500 F1200.000 
G1 X421.850 Y-280.500 Z-6.000 F1200.000 
G1 X421.411 Y-280.939 
G1 X421.850 Y-280.500 
G1 X432.350 Y-280.500 Z-6.000 F1200.000 
G2 X433.850 Y-282.000 Z-6.000 I-0.000 J-1.500 F1200.000 
G1 X433.850 Y-294.000 Z-6.000 F1200.000 
G2 X432.350 Y-295.500 Z-6.000 I-1.500 J0.000 F1200.000 
G1 X421.850 Y-295.500 Z-6.000 F1200.000 
G1 X421.411 Y-295.061 
G1 X421.850 Y-295.500 
G1 X421.850 Y-352.500 Z-6.000 F1200.000 
G1 X421.411 Y-352.939 
G1 X421.850 Y-352.500 
G1 X432.350 Y-352.500 Z-6.000 F1200.000 
G2 X433.850 Y-354.000 Z-6.000 I-0.000 J-1.500 F1200.000 
G1 X433.850 Y-366.000 Z-6.000 F1200.000 
G2 X432.350 Y-367.500 Z-6.000 I-1.500 J0.000 F1200.000 
G1 X421.850 Y-367.500 Z-6.000 F1200.000 
G1 X421.411 Y-367.061 
G1 X421.850 Y-367.500 
G1 X421.850 Y-378.000 Z-6.000 F1200.000 
G2 X420.350 Y-379.500 Z-6.000 I-1.500 J0.000 F1200.000 
G1 X391.780 Y-379.500 Z-6.000 F1200.000 
G1 X391.341 Y-379.061 
G1 X391.780 Y-379.500 
G1 X391.780 Y-390.000 Z-6.000 F1200.000 
G2 X390.280 Y-391.500 Z-6.000 I-1.500 J0.000 F1200.000 
G1 X348.210 Y-391.500 Z-6.000 F1200.000 
G2 X346.710 Y-390.000 Z-6.000 I0.000 J1.500 F1200.000 
G1 X346.710 Y-379.500 Z-6.000 F1200.000 
G1 X347.149 Y-379.061 
G1 X346.710 Y-379.500 
G1 X307.640 Y-379.500 Z-6.000 F1200.000 
G1 X307.201 Y-379.061 
G1 X307.640 Y-379.500 
G1 X307.640 Y-390.000 Z-6.000 F1200.000 
G2 X306.140 Y-391.500 Z-6.000 I-1.500 J0.000 F1200.000 
G1 X264.070 Y-391.500 Z-6.000 F1200.000 
G2 X262.570 Y-390.000 Z-6.000 I0.000 J1.500 F1200.000 
G1 X262.570 Y-379.500 Z-6.000 F1200.000 
G1 X263.009 Y-379.061 
G1 X262.570 Y-379.500 
G1 X181.430 Y-379.500 Z-6.000 F1200.000 
G1 X180.991 Y-379.061 
G1 X181.430 Y-379.500 
G1 X181.430 Y-390.000 Z-6.000 F1200.000 
G2 X179.930 Y-391.500 Z-6.000 I-1.500 J0.000 F1200.000 
G1 X137.860 Y-391.500 Z-6.000 F1200.000 
G2 X136.360 Y-390.000 Z-6.000 I0.000 J1.500 F1200.000 
G1 X136.360 Y-379.500 Z-6.000 F1200.000 
G1 X136.799 Y-379.061 
G1 X136.360 Y-379.500 
G1 X97.290 Y-379.500 Z-6.000 F1200.000 
G1 X96.851 Y-379.061 
G1 X97.290 Y-379.500 
G1 X97.290 Y-390.000 Z-6.000 F1200.000 
G2 X95.790 Y-391.500 Z-6.000 I-1.500 J0.000 F1200.000 
G1 X53.720 Y-391.500 Z-6.000 F1200.000 
G2 X52.220 Y-390.000 Z-6.000 I0.000 J1.500 F1200.000 
G1 X52.220 Y-379.500 Z-6.000 F1200.000 
G1 X52.659 Y-379.061 
G1 X52.220 Y-379.500 
G1 X23.650 Y-379.500 Z-6.000 F1200.000 
G2 X22.150 Y-378.000 Z-6.000 I0.000 J1.500 F1200.000 
G1 X22.150 Y-367.500 Z-6.000 F1200.000 
G1 X22.589 Y-367.061 
G1 X22.150 Y-367.500 
G1 X11.650 Y-367.500 Z-6.000 F1200.000 
G2 X10.150 Y-366.000 Z-6.000 I0.000 J1.500 F1200.000 
G1 X10.150 Y-354.000 Z-6.000 F1200.000 
G2 X11.650 Y-352.500 Z-6.000 I1.500 J-0.000 F1200.000 
G1 X22.150 Y-352.500 Z-6.000 F1200.000 
G1 X22.589 Y-352.939 
G1 X22.150 Y-352.500 
G1 X22.150 Y-295.500 Z-6.000 F1200.000 
G1 X22.589 Y-295.061 
G1 X22.150 Y-295.500 
G1 X11.650 Y-295.500 Z-6.000 F1200.000 
G2 X10.150 Y-294.000 Z-6.000 I0.000 J1.500 F1200.000 
G1 X10.150 Y-282.000 Z-6.000 F1200.000 
G2 X11.650 Y-280.500 Z-6.000 I1.500 J-0.000 F1200.000 
G1 X22.150 Y-280.500 Z-6.000 F1200.000 
G1 X22.589 Y-280.939 
G1 X22.150 Y-280.500 
G1 X22.150 Y-270.000 Z-6.000 F1200.000 
G2 X23.650 Y-268.500 Z-6.000 I1.500 J-0.000 F1200.000 
G1 X52.220 Y-268.500 Z-6.000 F1200.000 
G1 X52.659 Y-268.939 
G1 X52.220 Y-268.500 
G1 X52.220 Y-258.000 Z-6.000 F1200.000 
G2 X53.720 Y-256.500 Z-6.000 I1.500 J-0.000 F1200.000 
G1 X95.790 Y-256.500 Z-6.000 F1200.000 
G2 X97.290 Y-258.000 Z-6.000 I-0.000 J-1.500 F1200.000 
G1 X97.290 Y-268.500 Z-6.000 F1200.000 
G1 X96.851 Y-268.939 
G1 X97.290 Y-268.500 
G1 X136.360 Y-268.500 Z-6.000 F1200.000 
G1 X136.799 Y-268.939 
G1 X136.360 Y-268.500 
G1 X136.360 Y-258.000 Z-6.000 F1200.000 
G2 X137.860 Y-256.500 Z-6.000 I1.500 J-0.000 F1200.000 
G1 X179.930 Y-256.500 Z-6.000 F1200.000 
G2 X181.430 Y-258.000 Z-6.000 I-0.000 J-1.500 F1200.000 
G1 X181.430 Y-268.500 Z-6.000 F1200.000 
G1 X180.991 Y-268.939 
G1 X181.430 Y-268.500 
G1 X262.570 Y-268.500 Z-6.000 F1200.000 
G1 X263.009 Y-268.939 
G1 X262.570 Y-268.500 
G1 X262.570 Y-258.000 Z-6.000 F1200.000 
G2 X264.070 Y-256.500 Z-6.000 I1.500 J-0.000 F1200.000 
G1 X305.794 Y-256.500 Z-6.000 F1200.000 
G1 X305.794 Y-256.500 Z-9.000 F500.000 
G1 X306.140 Y-256.500 Z-9.000 F1200.000 
G2 X307.640 Y-258.000 Z-9.000 I-0.000 J-1.500 F1200.000 
G1 X307.640 Y-268.500 Z-9.000 F1200.000 
G1 X307.201 Y-268.939 
G1 X307.640 Y-268.500 
G1 X346.710 Y-268.500 Z-9.000 F1200.000 
G1 X347.149 Y-268.939 
G1 X346.710 Y-268.500 
G1 X346.710 Y-258.000 Z-9.000 F1200.000 
G2 X348.210 Y-256.500 Z-9.000 I1.500 J-0.000 F1200.000 
G1 X390.280 Y-256.500 Z-9.000 F1200.000 
G2 X391.780 Y-258.000 Z-9.000 I-0.000 J-1.500 F1200.000 
G1 X391.780 Y-268.500 Z-9.000 F1200.000 
G1 X391.341 Y-268.939 
G1 X391.780 Y-268.500 
G1 X420.350 Y-268.500 Z-9.000 F1200.000 
G2 X421.850 Y-270.000 Z-9.000 I-0.000 J-1.500 F1200.000 
G1 X421.850 Y-280.500 Z-9.000 F1200.000 
G1 X421.411 Y-280.939 
G1 X421.850 Y-280.500 
G1 X432.350 Y-280.500 Z-9.000 F1200.000 
G2 X433.850 Y-282.000 Z-9.000 I-0.000 J-1.500 F1200.000 
G1 X433.850 Y-294.000 Z-9.000 F1200.000 
G2 X432.350 Y-295.500 Z-9.000 I-1.500 J0.000 F1200.000 
G1 X421.850 Y-295.500 Z-9.000 F1200.000 
G1 X421.411 Y-295.061 
G1 X421.850 Y-295.500 
G1 X421.850 Y-352.500 Z-9.000 F1200.000 
G1 X421.411 Y-352.939 
G1 X421.850 Y-352.500 
G1 X432.350 Y-352.500 Z-9.000 F1200.000 
G2 X433.850 Y-354.000 Z-9.000 I-0.000 J-1.500 F1200.000 
G1 X433.850 Y-366.000 Z-9.000 F1200.000 
G2 X432.350 Y-367.500 Z-9.000 I-1.500 J0.000 F1200.000 
G1 X421.850 Y-367.500 Z-9.000 F1200.000 
G1 X421.411 Y-367.061 
G1 X421.850 Y-367.500 
G1 X421.850 Y-378.000 Z-9.000 F1200.000 
G2 X420.350 Y-379.500 Z-9.000 I-1.500 J0.000 F1200.000 
G1 X391.780 Y-379.500 Z-9.000 F1200.000 
G1 X391.341 Y-379.061 
G1 X391.780 Y-379.500 
G1 X391.780 Y-390.000 Z-9.000 F1200.000 
G2 X390.280 Y-391.500 Z-9.000 I-1.500 J0.000 F1200.000 
G1 X348.210 Y-391.500 Z-9.000 F1200.000 
G2 X346.710 Y-390.000 Z-9.000 I0.000 J1.500 F1200.000 
G1 X346.710 Y-379.500 Z-9.000 F1200.000 
G1 X347.149 Y-379.061 
G1 X346.710 Y-379.500 
G1 X307.640 Y-379.500 Z-9.000 F1200.000 
G1 X307.201 Y-379.061 
G1 X307.640 Y-379.500 
G1 X307.640 Y-390.000 Z-9.000 F1200.000 
G2 X306.140 Y-391.500 Z-9.000 I-1.500 J0.000 F1200.000 
G1 X264.070 Y-391.500 Z-9.000 F1200.000 
G2 X262.570 Y-390.000 Z-9.000 I0.000 J1.500 F1200.000 
G1 X262.570 Y-379.500 Z-9.000 F1200.000 
G1 X263.009 Y-379.061 
G1 X262.570 Y-379.500 
G1 X181.430 Y-379.500 Z-9.000 F1200.000 
G1 X180.991 Y-379.061 
G1 X181.430 Y-379.500 
G1 X181.430 Y-390.000 Z-9.000 F1200.000 
G2 X179.930 Y-391.500 Z-9.000 I-1.500 J0.000 F1200.000 
G1 X137.860 Y-391.500 Z-9.000 F1200.000 
G2 X136.360 Y-390.000 Z-9.000 I0.000 J1.500 F1200.000 
G1 X136.360 Y-379.500 Z-9.000 F1200.000 
G1 X136.799 Y-379.061 
G1 X136.360 Y-379.500 
G1 X97.290 Y-379.500 Z-9.000 F1200.000 
G1 X96.851 Y-379.061 
G1 X97.290 Y-379.500 
G1 X97.290 Y-390.000 Z-9.000 F1200.000 
G2 X95.790 Y-391.500 Z-9.000 I-1.500 J0.000 F1200.000 
G1 X53.720 Y-391.500 Z-9.000 F1200.000 
G2 X52.220 Y-390.000 Z-9.000 I0.000 J1.500 F1200.000 
G1 X52.220 Y-379.500 Z-9.000 F1200.000 
G1 X52.659 Y-379.061 
G1 X52.220 Y-379.500 
G1 X23.650 Y-379.500 Z-9.000 F1200.000 
G2 X22.150 Y-378.000 Z-9.000 I0.000 J1.500 F1200.000 
G1 X22.150 Y-367.500 Z-9.000 F1200.000 
G1 X22.589 Y-367.061 
G1 X22.150 Y-367.500 
G1 X11.650 Y-367.500 Z-9.000 F1200.000 
G2 X10.150 Y-366.000 Z-9.000 I0.000 J1.500 F1200.000 
G1 X10.150 Y-354.000 Z-9.000 F1200.000 
G2 X11.650 Y-352.500 Z-9.000 I1.500 J-0.000 F1200.000 
G1 X22.150 Y-352.500 Z-9.000 F1200.000 
G1 X22.589 Y-352.939 
G1 X22.150 Y-352.500 
G1 X22.150 Y-295.500 Z-9.000 F1200.000 
G1 X22.589 Y-295.061 
G1 X22.150 Y-295.500 
G1 X11.650 Y-295.500 Z-9.000 F1200.000 
G2 X10.150 Y-294.000 Z-9.000 I0.000 J1.500 F1200.000 
G1 X10.150 Y-282.000 Z-9.000 F1200.000 
G2 X11.650 Y-280.500 Z-9.000 I1.500 J-0.000 F1200.000 
G1 X22.150 Y-280.500 Z-9.000 F1200.000 
G1 X22.589 Y-280.939 
G1 X22.150 Y-280.500 
G1 X22.150 Y-270.000 Z-9.000 F1200.000 
G2 X23.650 Y-268.500 Z-9.000 I1.500 J-0.000 F1200.000 
G1 X52.220 Y-268.500 Z-9.000 F1200.000 
G1 X52.659 Y-268.939 
G1 X52.220 Y-268.500 
G1 X52.220 Y-258.000 Z-9.000 F1200.000 
G2 X53.720 Y-256.500 Z-9.000 I1.500 J-0.000 F1200.000 
G1 X95.790 Y-256.500 Z-9.000 F1200.000 
G2 X97.290 Y-258.000 Z-9.000 I-0.000 J-1.500 F1200.000 
G1 X97.290 Y-268.500 Z-9.000 F1200.000 
G1 X96.851 Y-268.939 
G1 X97.290 Y-268.500 
G1 X136.360 Y-268.500 Z-9.000 F1200.000 
G1 X136.799 Y-268.939 
G1 X136.360 Y-268.500 
G1 X136.360 Y-258.000 Z-9.000 F1200.000 
G2 X137.860 Y-256.500 Z-9.000 I1.500 J-0.000 F1200.000 
G1 X179.930 Y-256.500 Z-9.000 F1200.000 
G2 X181.430 Y-258.000 Z-9.000 I-0.000 J-1.500 F1200.000 
G1 X181.430 Y-268.500 Z-9.000 F1200.000 
G1 X180.991 Y-268.939 
G1 X181.430 Y-268.500 
G1 X262.570 Y-268.500 Z-9.000 F1200.000 
G1 X263.009 Y-268.939 
G1 X262.570 Y-268.500 
G1 X262.570 Y-258.000 Z-9.000 F1200.000 
G2 X264.070 Y-256.500 Z-9.000 I1.500 J-0.000 F1200.000 
G1 X305.794 Y-256.500 Z-9.000 F1200.000 
G1 X305.794 Y-256.500 Z-12.000 F500.000 
G1 X306.140 Y-256.500 Z-12.000 F1200.000 
G2 X307.640 Y-258.000 Z-12.000 I-0.000 J-1.500 F1200.000 
G1 X307.640 Y-268.500 Z-12.000 F1200.000 
G1 X307.201 Y-268.939 
G1 X307.640 Y-268.500 
G1 X346.710 Y-268.500 Z-12.000 F1200.000 
G1 X347.149 Y-268.939 
G1 X346.710 Y-268.500 
G1 X346.710 Y-258.000 Z-12.000 F1200.000 
G2 X348.210 Y-256.500 Z-12.000 I1.500 J-0.000 F1200.000 
G1 X390.280 Y-256.500 Z-12.000 F1200.000 
G2 X391.780 Y-258.000 Z-12.000 I-0.000 J-1.500 F1200.000 
G1 X391.780 Y-268.500 Z-12.000 F1200.000 
G1 X391.341 Y-268.939 
G1 X391.780 Y-268.500 
G1 X420.350 Y-268.500 Z-12.000 F1200.000 
G2 X421.850 Y-270.000 Z-12.000 I-0.000 J-1.500 F1200.000 
G1 X421.850 Y-280.500 Z-12.000 F1200.000 
G1 X421.411 Y-280.939 
G1 X421.850 Y-280.500 
G1 X432.350 Y-280.500 Z-12.000 F1200.000 
G2 X433.850 Y-282.000 Z-12.000 I-0.000 J-1.500 F1200.000 
G1 X433.850 Y-294.000 Z-12.000 F1200.000 
G2 X432.350 Y-295.500 Z-12.000 I-1.500 J0.000 F1200.000 
G1 X421.850 Y-295.500 Z-12.000 F1200.000 
G1 X421.411 Y-295.061 
G1 X421.850 Y-295.500 
G1 X421.850 Y-352.500 Z-12.000 F1200.000 
G1 X421.411 Y-352.939 
G1 X421.850 Y-352.500 
G1 X432.350 Y-352.500 Z-12.000 F1200.000 
G2 X433.850 Y-354.000 Z-12.000 I-0.000 J-1.500 F1200.000 
G1 X433.850 Y-366.000 Z-12.000 F1200.000 
G2 X432.350 Y-367.500 Z-12.000 I-1.500 J0.000 F1200.000 
G1 X421.850 Y-367.500 Z-12.000 F1200.000 
G1 X421.411 Y-367.061 
G1 X421.850 Y-367.500 
G1 X421.850 Y-378.000 Z-12.000 F1200.000 
G2 X420.350 Y-379.500 Z-12.000 I-1.500 J0.000 F1200.000 
G1 X391.780 Y-379.500 Z-12.000 F1200.000 
G1 X391.341 Y-379.061 
G1 X391.780 Y-379.500 
G1 X391.780 Y-390.000 Z-12.000 F1200.000 
G2 X390.280 Y-391.500 Z-12.000 I-1.500 J0.000 F1200.000 
G1 X348.210 Y-391.500 Z-12.000 F1200.000 
G2 X346.710 Y-390.000 Z-12.000 I0.000 J1.500 F1200.000 
G1 X346.710 Y-379.500 Z-12.000 F1200.000 
G1 X347.149 Y-379.061 
G1 X346.710 Y-379.500 
G1 X307.640 Y-379.500 Z-12.000 F1200.000 
G1 X307.201 Y-379.061 
G1 X307.640 Y-379.500 
G1 X307.640 Y-390.000 Z-12.000 F1200.000 
G2 X306.140 Y-391.500 Z-12.000 I-1.500 J0.000 F1200.000 
G1 X264.070 Y-391.500 Z-12.000 F1200.000 
G2 X262.570 Y-390.000 Z-12.000 I0.000 J1.500 F1200.000 
G1 X262.570 Y-379.500 Z-12.000 F1200.000 
G1 X263.009 Y-379.061 
G1 X262.570 Y-379.500 
G1 X181.430 Y-379.500 Z-12.000 F1200.000 
G1 X180.991 Y-379.061 
G1 X181.430 Y-379.500 
G1 X181.430 Y-390.000 Z-12.000 F1200.000 
G2 X179.930 Y-391.500 Z-12.000 I-1.500 J0.000 F1200.000 
G1 X137.860 Y-391.500 Z-12.000 F1200.000 
G2 X136.360 Y-390.000 Z-12.000 I0.000 J1.500 F1200.000 
G1 X136.360 Y-379.500 Z-12.000 F1200.000 
G1 X136.799 Y-379.061 
G1 X136.360 Y-379.500 
G1 X97.290 Y-379.500 Z-12.000 F1200.000 
G1 X96.851 Y-379.061 
G1 X97.290 Y-379.500 
G1 X97.290 Y-390.000 Z-12.000 F1200.000 
G2 X95.790 Y-391.500 Z-12.000 I-1.500 J0.000 F1200.000 
G1 X53.720 Y-391.500 Z-12.000 F1200.000 
G2 X52.220 Y-390.000 Z-12.000 I0.000 J1.500 F1200.000 
G1 X52.220 Y-379.500 Z-12.000 F1200.000 
G1 X52.659 Y-379.061 
G1 X52.220 Y-379.500 
G1 X23.650 Y-379.500 Z-12.000 F1200.000 
G2 X22.150 Y-378.000 Z-12.000 I0.000 J1.500 F1200.000 
G1 X22.150 Y-367.500 Z-12.000 F1200.000 
G1 X22.589 Y-367.061 
G1 X22.150 Y-367.500 
G1 X11.650 Y-367.500 Z-12.000 F1200.000 
G2 X10.150 Y-366.000 Z-12.000 I0.000 J1.500 F1200.000 
G1 X10.150 Y-354.000 Z-12.000 F1200.000 
G2 X11.650 Y-352.500 Z-12.000 I1.500 J-0.000 F1200.000 
G1 X22.150 Y-352.500 Z-12.000 F1200.000 
G1 X22.589 Y-352.939 
G1 X22.150 Y-352.500 
G1 X22.150 Y-295.500 Z-12.000 F1200.000 
G1 X22.589 Y-295.061 
G1 X22.150 Y-295.500 
G1 X11.650 Y-295.500 Z-12.000 F1200.000 
G2 X10.150 Y-294.000 Z-12.000 I0.000 J1.500 F1200.000 
G1 X10.150 Y-282.000 Z-12.000 F1200.000 
G2 X11.650 Y-280.500 Z-12.000 I1.500 J-0.000 F1200.000 
G1 X22.150 Y-280.500 Z-12.000 F1200.000 
G1 X22.589 Y-280.939 
G1 X22.150 Y-280.500 
G1 X22.150 Y-270.000 Z-12.000 F1200.000 
G2 X23.650 Y-268.500 Z-12.000 I1.500 J-0.000 F1200.000 
G1 X52.220 Y-268.500 Z-12.000 F1200.000 
G1 X52.659 Y-268.939 
G1 X52.220 Y-268.500 
G1 X52.220 Y-258.000 Z-12.000 F1200.000 
G2 X53.720 Y-256.500 Z-12.000 I1.500 J-0.000 F1200.000 
G1 X95.790 Y-256.500 Z-12.000 F1200.000 
G2 X97.290 Y-258.000 Z-12.000 I-0.000 J-1.500 F1200.000 
G1 X97.290 Y-268.500 Z-12.000 F1200.000 
G1 X96.851 Y-268.939 
G1 X97.290 Y-268.500 
G1 X136.360 Y-268.500 Z-12.000 F1200.000 
G1 X136.799 Y-268.939 
G1 X136.360 Y-268.500 
G1 X136.360 Y-258.000 Z-12.000 F1200.000 
G2 X137.860 Y-256.500 Z-12.000 I1.500 J-0.000 F1200.000 
G1 X179.930 Y-256.500 Z-12.000 F1200.000 
G2 X181.430 Y-258.000 Z-12.000 I-0.000 J-1.500 F1200.000 
G1 X181.430 Y-268.500 Z-12.000 F1200.000 
G1 X180.991 Y-268.939 
G1 X181.430 Y-268.500 
G1 X262.570 Y-268.500 Z-12.000 F1200.000 
G1 X263.009 Y-268.939 
G1 X262.570 Y-268.500 
G1 X262.570 Y-258.000 Z-12.000 F1200.000 
G2 X264.070 Y-256.500 Z-12.000 I1.500 J-0.000 F1200.000 
G1 X305.794 Y-256.500 Z-12.000 F1200.000 
G0 Z5.000 
G0 Z5.000 
G0 X305.794 Y-256.500 
G0 X440.176 Y-281.723 
G0 X440.176 Y-281.723 Z3.000 
G1 X440.176 Y-281.723 Z-3.000 F500.000 
G2 X441.650 Y-280.500 Z-3.000 I1.474 J-0.277 F1200.000 
G1 X452.150 Y-280.500 Z-3.000 F1200.000 
G1 X452.589 Y-280.939 
G1 X452.150 Y-280.500 
G1 X452.150 Y-270.000 Z-3.000 F1200.000 
G2 X453.650 Y-268.500 Z-3.000 I1.500 J-0.000 F1200.000 
G1 X482.220 Y-268.500 Z-3.000 F1200.000 
G1 X482.659 Y-268.939 
G1 X482.220 Y-268.500 
G1 X482.220 Y-258.000 Z-3.000 F1200.000 
G2 X483.720 Y-256.500 Z-3.000 I1.500 J-0.000 F1200.000 
G1 X525.790 Y-256.500 Z-3.000 F1200.000 
G2 X527.290 Y-258.000 Z-3.000 I-0.000 J-1.500 F1200.000 
G1 X527.290 Y-268.500 Z-3.000 F1200.000 
G1 X526.851 Y-268.939 
G1 X527.290 Y-268.500 
G1 X566.360 Y-268.500 Z-3.000 F1200.000 
G1 X566.799 Y-268.939 
G1 X566.360 Y-268.500 
G1 X566.360 Y-258.000 Z-3.000 F1200.000 
G2 X567.860 Y-256.500 Z-3.000 I1.500 J-0.000 F1200.000 
G1 X609.930 Y-256.500 Z-3.000 F1200.000 
G2 X611.430 Y-258.000 Z-3.000 I-0.000 J-1.500 F1200.000 
G1 X611.430 Y-268.500 Z-3.000 F1200.000 
G1 X610.991 Y-268.939 
G1 X611.430 Y-268.500 
G1 X692.570 Y-268.500 Z-3.000 F1200.000 
G1 X693.009 Y-268.939 
G1 X692.570 Y-268.500 
G1 X692.570 Y-258.000 Z-3.000 F1200.000 
G2 X694.070 Y-256.500 Z-3.000 I1.500 J-0.000 F1200.000 
G1 X736.140 Y-256.500 Z-3.000 F1200.000 
G2 X737.640 Y-258.000 Z-3.000 I-0.000 J-1.500 F1200.000 
G1 X737.640 Y-268.500 Z-3.000 F1200.000 
G1 X737.201 Y-268.939 
G1 X737.640 Y-268.500 
G1 X776.710 Y-268.500 Z-3.000 F1200.000 
G1 X777.149 Y-268.939 
G1 X776.710 Y-268.500 
G1 X776.710 Y-258.000 Z-3.000 F1200.000 
G2 X778.210 Y-256.500 Z-3.000 I1.500 J-0.000 F1200.000 
G1 X820.280 Y-256.500 Z-3.000 F1200.000 
G2 X821.780 Y-258.000 Z-3.000 I-0.000 J-1.500 F1200.000 
G1 X821.780 Y-268.500 Z-3.000 F1200.000 
G1 X821.341 Y-268.939 
G1 X821.780 Y-268.500 
G1 X850.350 Y-268.500 Z-3.000 F1200.000 
G2 X851.850 Y-270.000 Z-3.000 I-0.000 J-1.500 F1200.000 
G1 X851.850 Y-280.500 Z-3.000 F1200.000 
G1 X851.411 Y-280.939 
G1 X851.850 Y-280.500 
G1 X862.350 Y-280.500 Z-3.000 F1200.000 
G2 X863.850 Y-282.000 Z-3.000 I-0.000 J-1.500 F1200.000 
G1 X863.850 Y-294.000 Z-3.000 F1200.000 
G2 X862.350 Y-295.500 Z-3.000 I-1.500 J0.000 F1200.000 
G1 X851.850 Y-295.500 Z-3.000 F1200.000 
G1 X851.411 Y-295.061 
G1 X851.850 Y-295.500 
G1 X851.850 Y-352.500 Z-3.000 F1200.000 
G1 X851.411 Y-352.939 
G1 X851.850 Y-352.500 
G1 X862.350 Y-352.500 Z-3.000 F1200.000 
G2 X863.850 Y-354.000 Z-3.000 I-0.000 J-1.500 F1200.000 
G1 X863.850 Y-366.000 Z-3.000 F1200.000 
G2 X862.350 Y-367.500 Z-3.000 I-1.500 J0.000 F1200.000 
G1 X851.850 Y-367.500 Z-3.000 F1200.000 
G1 X851.411 Y-367.061 
G1 X851.850 Y-367.500 
G1 X851.850 Y-378.000 Z-3.000 F1200.000 
G2 X850.350 Y-379.500 Z-3.000 I-1.500 J0.000 F1200.000 
G1 X821.780 Y-379.500 Z-3.000 F1200.000 
G1 X821.341 Y-379.061 
G1 X821.780 Y-379.500 
G1 X821.780 Y-390.000 Z-3.000 F1200.000 
G2 X820.280 Y-391.500 Z-3.000 I-1.500 J0.000 F1200.000 
G1 X778.210 Y-391.500 Z-3.000 F1200.000 
G2 X776.710 Y-390.000 Z-3.000 I0.000 J1.500 F1200.000 
G1 X776.710 Y-379.500 Z-3.000 F1200.000 
G1 X777.149 Y-379.061 
G1 X776.710 Y-379.500 
G1 X737.640 Y-379.500 Z-3.000 F1200.000 
G1 X737.201 Y-379.061 
G1 X737.640 Y-379.500 
G1 X737.640 Y-390.000 Z-3.000 F1200.000 
G2 X736.140 Y-391.500 Z-3.000 I-1.500 J0.000 F1200.000 
G1 X694.070 Y-391.500 Z-3.000 F1200.000 
G2 X692.570 Y-390.000 Z-3.000 I0.000 J1.500 F1200.000 
G1 X692.570 Y-379.500 Z-3.000 F1200.000 
G1 X693.009 Y-379.061 
G1 X692.570 Y-379.500 
G1 X611.430 Y-379.500 Z-3.000 F1200.000 
G1 X610.991 Y-379.061 
G1 X611.430 Y-379.500 
G1 X611.430 Y-390.000 Z-3.000 F1200.000 
G2 X609.930 Y-391.500 Z-3.000 I-1.500 J0.000 F1200.000 
G1 X567.860 Y-391.500 Z-3.000 F1200.000 
G2 X566.360 Y-390.000 Z-3.000 I0.000 J1.500 F1200.000 
G1 X566.360 Y-379.500 Z-3.000 F1200.000 
G1 X566.799 Y-379.061 
G1 X566.360 Y-379.500 
G1 X527.290 Y-379.500 Z-3.000 F1200.000 
G1 X526.851 Y-379.061 
G1 X527.290 Y-379.500 
G1 X527.290 Y-390.000 Z-3.000 F1200.000 
G2 X525.790 Y-391.500 Z-3.000 I-1.500 J0.000 F1200.000 
G1 X483.720 Y-391.500 Z-3.000 F1200.000 
G2 X482.220 Y-390.000 Z-3.000 I0.000 J1.500 F1200.000 
G1 X482.220 Y-379.500 Z-3.000 F1200.000 
G1 X482.659 Y-379.061 
G1 X482.220 Y-379.500 
G1 X453.650 Y-379.500 Z-3.000 F1200.000 
G2 X452.150 Y-378.000 Z-3.000 I0.000 J1.500 F1200.000 
G1 X452.150 Y-367.500 Z-3.000 F1200.000 
G1 X452.589 Y-367.061 
G1 X452.150 Y-367.500 
G1 X441.650 Y-367.500 Z-3.000 F1200.000 
G2 X440.150 Y-366.000 Z-3.000 I0.000 J1.500 F1200.000 
G1 X440.150 Y-354.000 Z-3.000 F1200.000 
G2 X441.650 Y-352.500 Z-3.000 I1.500 J-0.000 F1200.000 
G1 X452.150 Y-352.500 Z-3.000 F1200.000 
G1 X452.589 Y-352.939 
G1 X452.150 Y-352.500 
G1 X452.150 Y-295.500 Z-3.000 F1200.000 
G1 X452.589 Y-295.061 
G1 X452.150 Y-295.500 
G1 X441.650 Y-295.500 Z-3.000 F1200.000 
G2 X440.150 Y-294.000 Z-3.000 I0.000 J1.500 F1200.000 
G1 X440.150 Y-282.000 Z-3.000 F1200.000 
G2 X440.176 Y-281.723 Z-3.000 I1.500 J-0.000 F1200.000 
G1 X440.176 Y-281.723 Z-6.000 F500.000 
G2 X441.650 Y-280.500 Z-6.000 I1.474 J-0.277 F1200.000 
G1 X452.150 Y-280.500 Z-6.000 F1200.000 
G1 X452.589 Y-280.939 
G1 X452.150 Y-280.500 
G1 X452.150 Y-270.000 Z-6.000 F1200.000 
G2 X453.650 Y-268.500 Z-6.000 I1.500 J-0.000 F1200.000 
G1 X482.220 Y-268.500 Z-6.000 F1200.000 
G1 X482.659 Y-268.939 
G1 X482.220 Y-268.500 
G1 X482.220 Y-258.000 Z-6.000 F1200.000 
G2 X483.720 Y-256.500 Z-6.000 I1.500 J-0.000 F1200.000 
G1 X525.790 Y-256.500 Z-6.000 F1200.000 
G2 X527.290 Y-258.000 Z-6.000 I-0.000 J-1.500 F1200.000 
G1 X527.290 Y-268.500 Z-6.000 F1200.000 
G1 X526.851 Y-268.939 
G1 X527.290 Y-268.500 
G1 X566.360 Y-268.500 Z-6.000 F1200.000 
G1 X566.799 Y-268.939 
G1 X566.360 Y-268.500 
G1 X566.360 Y-258.000 Z-6.000 F1200.000 
G2 X567.860 Y-256.500 Z-6.000 I1.500 J-0.000 F1200.000 
G1 X609.930 Y-256.500 Z-6.000 F1200.000 
G2 X611.430 Y-258.000 Z-6.000 I-0.000 J-1.500 F1200.000 
G1 X611.430 Y-268.500 Z-6.000 F1200.000 
G1 X610.991 Y-268.939 
G1 X611.430 Y-268.500 
G1 X692.570 Y-268.500 Z-6.000 F1200.000 
G1 X693.009 Y-268.939 
G1 X692.570 Y-268.500 
G1 X692.570 Y-258.000 Z-6.000 F1200.000 
G2 X694.070 Y-256.500 Z-6.000 I1.500 J-0.000 F1200.000 
G1 X736.140 Y-256.500 Z-6.000 F1200.000 
G2 X737.640 Y-258.000 Z-6.000 I-0.000 J-1.500 F1200.000 
G1 X737.640 Y-268.500 Z-6.000 F1200.000 
G1 X737.201 Y-268.939 
G1 X737.640 Y-268.500 
G1 X776.710 Y-268.500 Z-6.000 F1200.000 
G1 X777.149 Y-268.939 
G1 X776.710 Y-268.500 
G1 X776.710 Y-258.000 Z-6.000 F1200.000 
G2 X778.210 Y-256.500 Z-6.000 I1.500 J-0.000 F1200.000 
G1 X820.280 Y-256.500 Z-6.000 F1200.000 
G2 X821.780 Y-258.000 Z-6.000 I-0.000 J-1.500 F1200.000 
G1 X821.780 Y-268.500 Z-6.000 F1200.000 
G1 X821.341 Y-268.939 
G1 X821.780 Y-268.500 
G1 X850.350 Y-268.500 Z-6.000 F1200.000 
G2 X851.850 Y-270.000 Z-6.000 I-0.000 J-1.500 F1200.000 
G1 X851.850 Y-280.500 Z-6.000 F1200.000 
G1 X851.411 Y-280.939 
G1 X851.850 Y-280.500 
G1 X862.350 Y-280.500 Z-6.000 F1200.000 
G2 X863.850 Y-282.000 Z-6.000 I-0.000 J-1.500 F1200.000 
G1 X863.850 Y-294.000 Z-6.000 F1200.000 
G2 X862.350 Y-295.500 Z-6.000 I-1.500 J0.000 F1200.000 
G1 X851.850 Y-295.500 Z-6.000 F1200.000 
G1 X851.411 Y-295.061 
G1 X851.850 Y-295.500 
G1 X851.850 Y-352.500 Z-6.000 F1200.000 
G1 X851.411 Y-352.939 
G1 X851.850 Y-352.500 
G1 X862.350 Y-352.500 Z-6.000 F1200.000 
G2 X863.850 Y-354.000 Z-6.000 I-0.000 J-1.500 F1200.000 
G1 X863.850 Y-366.000 Z-6.000 F1200.000 
G2 X862.350 Y-367.500 Z-6.000 I-1.500 J0.000 F1200.000 
G1 X851.850 Y-367.500 Z-6.000 F1200.000 
G1 X851.411 Y-367.061 
G1 X851.850 Y-367.500 
G1 X851.850 Y-378.000 Z-6.000 F1200.000 
G2 X850.350 Y-379.500 Z-6.000 I-1.500 J0.000 F1200.000 
G1 X821.780 Y-379.500 Z-6.000 F1200.000 
G1 X821.341 Y-379.061 
G1 X821.780 Y-379.500 
G1 X821.780 Y-390.000 Z-6.000 F1200.000 
G2 X820.280 Y-391.500 Z-6.000 I-1.500 J0.000 F1200.000 
G1 X778.210 Y-391.500 Z-6.000 F1200.000 
G2 X776.710 Y-390.000 Z-6.000 I0.000 J1.500 F1200.000 
G1 X776.710 Y-379.500 Z-6.000 F1200.000 
G1 X777.149 Y-379.061 
G1 X776.710 Y-379.500 
G1 X737.640 Y-379.500 Z-6.000 F1200.000 
G1 X737.201 Y-379.061 
G1 X737.640 Y-379.500 
G1 X737.640 Y-390.000 Z-6.000 F1200.000 
G2 X736.140 Y-391.500 Z-6.000 I-1.500 J0.000 F1200.000 
G1 X694.070 Y-391.500 Z-6.000 F1200.000 
G2 X692.570 Y-390.000 Z-6.000 I0.000 J1.500 F1200.000 
G1 X692.570 Y-379.500 Z-6.000 F1200.000 
G1 X693.009 Y-379.061 
G1 X692.570 Y-379.500 
G1 X611.430 Y-379.500 Z-6.000 F1200.000 
G1 X610.991 Y-379.061 
G1 X611.430 Y-379.500 
G1 X611.430 Y-390.000 Z-6.000 F1200.000 
G2 X609.930 Y-391.500 Z-6.000 I-1.500 J0.000 F1200.000 
G1 X567.860 Y-391.500 Z-6.000 F1200.000 
G2 X566.360 Y-390.000 Z-6.000 I0.000 J1.500 F1200.000 
G1 X566.360 Y-379.500 Z-6.000 F1200.000 
G1 X566.799 Y-379.061 
G1 X566.360 Y-379.500 
G1 X527.290 Y-379.500 Z-6.000 F1200.000 
G1 X526.851 Y-379.061 
G1 X527.290 Y-379.500 
G1 X527.290 Y-390.000 Z-6.000 F1200.000 
G2 X525.790 Y-391.500 Z-6.000 I-1.500 J0.000 F1200.000 
G1 X483.720 Y-391.500 Z-6.000 F1200.000 
G2 X482.220 Y-390.000 Z-6.000 I0.000 J1.500 F1200.000 
G1 X482.220 Y-379.500 Z-6.000 F1200.000 
G1 X482.659 Y-379.061 
G1 X482.220 Y-379.500 
G1 X453.650 Y-379.500 Z-6.000 F1200.000 
G2 X452.150 Y-378.000 Z-6.000 I0.000 J1.500 F1200.000 
G1 X452.150 Y-367.500 Z-6.000 F1200.000 
G1 X452.589 Y-367.061 
G1 X452.150 Y-367.500 
G1 X441.650 Y-367.500 Z-6.000 F1200.000 
G2 X440.150 Y-366.000 Z-6.000 I0.000 J1.500 F1200.000 
G1 X440.150 Y-354.000 Z-6.000 F1200.000 
G2 X441.650 Y-352.500 Z-6.000 I1.500 J-0.000 F1200.000 
G1 X452.150 Y-352.500 Z-6.000 F1200.000 
G1 X452.589 Y-352.939 
G1 X452.150 Y-352.500 
G1 X452.150 Y-295.500 Z-6.000 F1200.000 
G1 X452.589 Y-295.061 
G1 X452.150 Y-295.500 
G1 X441.650 Y-295.500 Z-6.000 F1200.000 
