(Exported by FreeCAD)
(Post Processor: linuxcnc_post)
(Output Time:2025-08-01 14:56:23.073424)
(begin preamble)
G17 G54 G40 G49 G80 G90
G21
(begin operation: Fixture)
(machine units: mm/min)
G54 
(finish operation: Fixture)
(begin operation: 3mm_Endmill_doubleFlute006)
(machine units: mm/min)
(3mm_Endmill_doubleFlute006) 
M5
M6 T1 
G43 H1 
M3 S24000 
(finish operation: 3mm_Endmill_doubleFlute006)
(begin operation: MillFace)
(machine units: mm/min)
(MillFace) 
G0 Z5.000 
G0 
G0 X127.750 Y-120.750 
G0 X127.750 Y-120.750 Z3.000 
G1 X127.750 Y-120.750 Z-3.000 F500.000 
G1 X127.750 Y-120.250 Z-3.000 F1200.000 
G1 X36.250 Y-120.250 Z-3.000 F1200.000 
G1 X36.250 Y-120.750 Z-3.000 F1200.000 
G1 X127.750 Y-120.750 Z-3.000 F1200.000 
G0 Z5.000 
G0 X128.500 Y-121.500 Z5.000 
G0 X128.500 Y-121.500 Z3.000 
G1 X128.500 Y-121.500 Z-3.000 F500.000 
G1 X128.500 Y-119.500 Z-3.000 F1200.000 
G1 X35.500 Y-119.500 Z-3.000 F1200.000 
G1 X35.500 Y-121.500 Z-3.000 F1200.000 
G1 X128.500 Y-121.500 Z-3.000 F1200.000 
G0 Z5.000 
G0 X130.000 Y-123.000 Z5.000 
G0 X130.000 Y-123.000 Z3.000 
G1 X130.000 Y-123.000 Z-3.000 F500.000 
G1 X130.000 Y-118.000 Z-3.000 F1200.000 
G1 X34.000 Y-118.000 Z-3.000 F1200.000 
G1 X34.000 Y-123.000 Z-3.000 F1200.000 
G1 X130.000 Y-123.000 Z-3.000 F1200.000 
G0 Z5.000 
G0 X131.500 Y-124.500 Z5.000 
G0 X131.500 Y-124.500 Z3.000 
G1 X131.500 Y-124.500 Z-3.000 F500.000 
G1 X131.500 Y-116.500 Z-3.000 F1200.000 
G1 X32.500 Y-116.500 Z-3.000 F1200.000 
G1 X32.500 Y-124.500 Z-3.000 F1200.000 
G1 X131.500 Y-124.500 Z-3.000 F1200.000 
G0 Z5.000 
G0 X133.000 Y-126.000 Z5.000 
G0 X133.000 Y-126.000 Z3.000 
G1 X133.000 Y-126.000 Z-3.000 F500.000 
G1 X133.000 Y-115.000 Z-3.000 F1200.000 
G1 X31.000 Y-115.000 Z-3.000 F1200.000 
G1 X31.000 Y-126.000 Z-3.000 F1200.000 
G1 X133.000 Y-126.000 Z-3.000 F1200.000 
G0 Z5.000 
G0 X134.500 Y-127.500 Z5.000 
G0 X134.500 Y-127.500 Z3.000 
G1 X134.500 Y-127.500 Z-3.000 F500.000 
G1 X134.500 Y-113.500 Z-3.000 F1200.000 
G1 X29.500 Y-113.500 Z-3.000 F1200.000 
G1 X29.500 Y-127.500 Z-3.000 F1200.000 
G1 X134.500 Y-127.500 Z-3.000 F1200.000 
G0 Z5.000 
G0 Z5.000 
(finish operation: MillFace)
(begin operation: MillFace001)
(machine units: mm/min)
(MillFace001) 
G0 Z5.000 
G0 
G0 X267.750 Y-120.750 
G0 X267.750 Y-120.750 Z3.000 
G1 X267.750 Y-120.750 Z-3.000 F500.000 
G1 X267.750 Y-120.250 Z-3.000 F1200.000 
G1 X176.250 Y-120.250 Z-3.000 F1200.000 
G1 X176.250 Y-120.750 Z-3.000 F1200.000 
G1 X267.750 Y-120.750 Z-3.000 F1200.000 
G0 Z5.000 
G0 X268.500 Y-121.500 Z5.000 
G0 X268.500 Y-121.500 Z3.000 
G1 X268.500 Y-121.500 Z-3.000 F500.000 
G1 X268.500 Y-119.500 Z-3.000 F1200.000 
G1 X175.500 Y-119.500 Z-3.000 F1200.000 
G1 X175.500 Y-121.500 Z-3.000 F1200.000 
G1 X268.500 Y-121.500 Z-3.000 F1200.000 
G0 Z5.000 
G0 X270.000 Y-123.000 Z5.000 
G0 X270.000 Y-123.000 Z3.000 
G1 X270.000 Y-123.000 Z-3.000 F500.000 
G1 X270.000 Y-118.000 Z-3.000 F1200.000 
G1 X174.000 Y-118.000 Z-3.000 F1200.000 
G1 X174.000 Y-123.000 Z-3.000 F1200.000 
G1 X270.000 Y-123.000 Z-3.000 F1200.000 
G0 Z5.000 
G0 X271.500 Y-124.500 Z5.000 
G0 X271.500 Y-124.500 Z3.000 
G1 X271.500 Y-124.500 Z-3.000 F500.000 
G1 X271.500 Y-116.500 Z-3.000 F1200.000 
G1 X172.500 Y-116.500 Z-3.000 F1200.000 
G1 X172.500 Y-124.500 Z-3.000 F1200.000 
G1 X271.500 Y-124.500 Z-3.000 F1200.000 
G0 Z5.000 
G0 X273.000 Y-126.000 Z5.000 
G0 X273.000 Y-126.000 Z3.000 
G1 X273.000 Y-126.000 Z-3.000 F500.000 
G1 X273.000 Y-115.000 Z-3.000 F1200.000 
G1 X171.000 Y-115.000 Z-3.000 F1200.000 
G1 X171.000 Y-126.000 Z-3.000 F1200.000 
G1 X273.000 Y-126.000 Z-3.000 F1200.000 
G0 Z5.000 
G0 X274.500 Y-127.500 Z5.000 
G0 X274.500 Y-127.500 Z3.000 
G1 X274.500 Y-127.500 Z-3.000 F500.000 
G1 X274.500 Y-113.500 Z-3.000 F1200.000 
G1 X169.500 Y-113.500 Z-3.000 F1200.000 
G1 X169.500 Y-127.500 Z-3.000 F1200.000 
G1 X274.500 Y-127.500 Z-3.000 F1200.000 
G0 Z5.000 
G0 Z5.000 
(finish operation: MillFace001)
(begin operation: Pocket_Shape)
(machine units: mm/min)
(Pocket_Shape) 
G0 Z5.000 
G0 X48.699 Y-72.385 
G0 Z3.000 
G1 X48.699 Y-72.385 Z-3.000 F500.000 
G3 X47.385 Y-73.699 Z-3.000 I0.289 J-1.603 F1200.000 
G1 X48.699 Y-72.385 Z-3.000 F1200.000 
G2 X50.163 Y-75.163 Z-3.000 I0.304 J-1.615 F1200.000 
G1 X50.163 Y-75.163 Z-6.000 F500.000 
G3 X48.699 Y-72.385 Z-6.000 I-1.161 J1.163 F1200.000 
G1 X47.385 Y-73.699 Z-6.000 F1200.000 
G2 X48.699 Y-72.385 Z-6.000 I1.603 J-0.289 F1200.000 
G1 X48.699 Y-72.385 Z-9.000 F500.000 
G3 X47.385 Y-73.699 Z-9.000 I0.289 J-1.603 F1200.000 
G1 X48.699 Y-72.385 Z-9.000 F1200.000 
G2 X50.163 Y-75.163 Z-9.000 I0.304 J-1.615 F1200.000 
G1 X50.163 Y-75.163 Z-12.000 F500.000 
G3 X48.699 Y-72.385 Z-12.000 I-1.161 J1.163 F1200.000 
G1 X47.385 Y-73.699 Z-12.000 F1200.000 
G2 X48.699 Y-72.385 Z-12.000 I1.603 J-0.289 F1200.000 
G0 Z5.000 
G0 Z5.000 
G0 X48.699 Y-72.385 
G0 X114.699 
G0 X114.699 Z3.000 
G1 X114.699 Y-72.385 Z-3.000 F500.000 
G3 X113.385 Y-73.699 Z-3.000 I0.289 J-1.603 F1200.000 
G1 X114.699 Y-72.385 Z-3.000 F1200.000 
G2 X116.163 Y-75.163 Z-3.000 I0.304 J-1.615 F1200.000 
G1 X116.163 Y-75.163 Z-6.000 F500.000 
G3 X114.699 Y-72.385 Z-6.000 I-1.161 J1.163 F1200.000 
G1 X113.385 Y-73.699 Z-6.000 F1200.000 
G2 X114.699 Y-72.385 Z-6.000 I1.603 J-0.289 F1200.000 
G1 X114.699 Y-72.385 Z-9.000 F500.000 
G3 X113.385 Y-73.699 Z-9.000 I0.289 J-1.603 F1200.000 
G1 X114.699 Y-72.385 Z-9.000 F1200.000 
G2 X116.163 Y-75.163 Z-9.000 I0.304 J-1.615 F1200.000 
G1 X116.163 Y-75.163 Z-12.000 F500.000 
G3 X114.699 Y-72.385 Z-12.000 I-1.161 J1.163 F1200.000 
G1 X113.385 Y-73.699 Z-12.000 F1200.000 
G2 X114.699 Y-72.385 Z-12.000 I1.603 J-0.289 F1200.000 
G0 Z5.000 
G0 Z5.000 
(finish operation: Pocket_Shape)
(begin operation: Pocket_Shape001)
(machine units: mm/min)
(Pocket_Shape001) 
G0 Z5.000 
G0 X188.699 Y-72.385 
G0 Z3.000 
G1 X188.699 Y-72.385 Z-3.000 F500.000 
G3 X187.385 Y-73.699 Z-3.000 I0.289 J-1.603 F1200.000 
G1 X188.699 Y-72.385 Z-3.000 F1200.000 
G2 X190.163 Y-75.163 Z-3.000 I0.304 J-1.615 F1200.000 
G1 X190.163 Y-75.163 Z-6.000 F500.000 
G3 X188.699 Y-72.385 Z-6.000 I-1.161 J1.163 F1200.000 
G1 X187.385 Y-73.699 Z-6.000 F1200.000 
G2 X188.699 Y-72.385 Z-6.000 I1.603 J-0.289 F1200.000 
G1 X188.699 Y-72.385 Z-9.000 F500.000 
G3 X187.385 Y-73.699 Z-9.000 I0.289 J-1.603 F1200.000 
G1 X188.699 Y-72.385 Z-9.000 F1200.000 
G2 X190.163 Y-75.163 Z-9.000 I0.304 J-1.615 F1200.000 
G1 X190.163 Y-75.163 Z-12.000 F500.000 
G3 X188.699 Y-72.385 Z-12.000 I-1.161 J1.163 F1200.000 
G1 X187.385 Y-73.699 Z-12.000 F1200.000 
G2 X188.699 Y-72.385 Z-12.000 I1.603 J-0.289 F1200.000 
G0 Z5.000 
G0 Z5.000 
G0 X188.699 Y-72.385 
G0 X254.699 
G0 X254.699 Z3.000 
G1 X254.699 Y-72.385 Z-3.000 F500.000 
G3 X253.385 Y-73.699 Z-3.000 I0.289 J-1.603 F1200.000 
G1 X254.699 Y-72.385 Z-3.000 F1200.000 
G2 X256.163 Y-75.163 Z-3.000 I0.304 J-1.615 F1200.000 
G1 X256.163 Y-75.163 Z-6.000 F500.000 
G3 X254.699 Y-72.385 Z-6.000 I-1.161 J1.163 F1200.000 
G1 X253.385 Y-73.699 Z-6.000 F1200.000 
G2 X254.699 Y-72.385 Z-6.000 I1.603 J-0.289 F1200.000 
G1 X254.699 Y-72.385 Z-9.000 F500.000 
G3 X253.385 Y-73.699 Z-9.000 I0.289 J-1.603 F1200.000 
G1 X254.699 Y-72.385 Z-9.000 F1200.000 
G2 X256.163 Y-75.163 Z-9.000 I0.304 J-1.615 F1200.000 
G1 X256.163 Y-75.163 Z-12.000 F500.000 
G3 X254.699 Y-72.385 Z-12.000 I-1.161 J1.163 F1200.000 
G1 X253.385 Y-73.699 Z-12.000 F1200.000 
G2 X254.699 Y-72.385 Z-12.000 I1.603 J-0.289 F1200.000 
G0 Z5.000 
G0 Z5.000 
(finish operation: Pocket_Shape001)
(begin operation: Pocket_Shape002)
(machine units: mm/min)
(Pocket_Shape002) 
G0 Z5.000 
G0 
G0 X90.450 Y-47.000 
G0 X90.450 Y-47.000 Z3.000 
G1 X90.450 Y-47.000 Z-3.000 F500.000 
G1 X90.450 Y-46.000 Z-3.000 F1200.000 
G1 X73.550 Y-46.000 Z-3.000 F1200.000 
G1 X73.550 Y-47.000 Z-3.000 F1200.000 
G1 X90.450 Y-47.000 Z-3.000 F1200.000 
G0 Z5.000 
G0 X91.200 Y-47.750 Z5.000 
G0 X91.200 Y-47.750 Z3.000 
G1 X91.200 Y-47.750 Z-3.000 F500.000 
G1 X91.200 Y-45.250 Z-3.000 F1200.000 
G1 X72.800 Y-45.250 Z-3.000 F1200.000 
G1 X72.800 Y-47.750 Z-3.000 F1200.000 
G1 X91.200 Y-47.750 Z-3.000 F1200.000 
G0 Z5.000 
G0 X91.950 Y-48.500 Z5.000 
G0 X91.950 Y-48.500 Z3.000 
G1 X91.950 Y-48.500 Z-3.000 F500.000 
G1 X91.950 Y-44.500 Z-3.000 F1200.000 
G1 X72.050 Y-44.500 Z-3.000 F1200.000 
G1 X72.050 Y-48.500 Z-3.000 F1200.000 
G1 X91.950 Y-48.500 Z-3.000 F1200.000 
G0 Z5.000 
G0 X94.950 Y-51.500 Z5.000 
G0 X94.950 Y-51.500 Z3.000 
G1 X94.950 Y-51.500 Z-3.000 F500.000 
G1 X94.950 Y-41.500 Z-3.000 F1200.000 
G1 X69.050 Y-41.500 Z-3.000 F1200.000 
G1 X69.050 Y-51.500 Z-3.000 F1200.000 
G1 X94.950 Y-51.500 Z-3.000 F1200.000 
G0 Z5.000 
G0 X97.950 Y-54.500 Z5.000 
G0 X97.950 Y-54.500 Z3.000 
G1 X97.950 Y-54.500 Z-3.000 F500.000 
G1 X97.950 Y-38.500 Z-3.000 F1200.000 
G1 X66.050 Y-38.500 Z-3.000 F1200.000 
G1 X66.050 Y-54.500 Z-3.000 F1200.000 
G1 X97.950 Y-54.500 Z-3.000 F1200.000 
G0 Z5.000 
G0 X100.950 Y-57.500 Z5.000 
G0 X100.950 Y-57.500 Z3.000 
G1 X100.950 Y-57.500 Z-3.000 F500.000 
G1 X100.950 Y-35.500 Z-3.000 F1200.000 
G1 X63.050 Y-35.500 Z-3.000 F1200.000 
G1 X63.050 Y-57.500 Z-3.000 F1200.000 
G1 X100.950 Y-57.500 Z-3.000 F1200.000 
G0 Z5.000 
G0 X103.950 Y-60.500 Z5.000 
G0 X103.950 Y-60.500 Z3.000 
G1 X103.950 Y-60.500 Z-3.000 F500.000 
G1 X103.950 Y-32.500 Z-3.000 F1200.000 
G1 X60.050 Y-32.500 Z-3.000 F1200.000 
G1 X60.050 Y-60.500 Z-3.000 F1200.000 
G1 X103.950 Y-60.500 Z-3.000 F1200.000 
G0 Z5.000 
G0 X90.450 Y-47.000 Z5.000 
G0 X90.450 Y-47.000 Z3.000 
G1 X90.450 Y-47.000 Z-6.000 F500.000 
G1 X90.450 Y-46.000 Z-6.000 F1200.000 
G1 X73.550 Y-46.000 Z-6.000 F1200.000 
G1 X73.550 Y-47.000 Z-6.000 F1200.000 
G1 X90.450 Y-47.000 Z-6.000 F1200.000 
G0 Z5.000 
G0 X91.200 Y-47.750 Z5.000 
G0 X91.200 Y-47.750 Z3.000 
G1 X91.200 Y-47.750 Z-6.000 F500.000 
G1 X91.200 Y-45.250 Z-6.000 F1200.000 
G1 X72.800 Y-45.250 Z-6.000 F1200.000 
G1 X72.800 Y-47.750 Z-6.000 F1200.000 
G1 X91.200 Y-47.750 Z-6.000 F1200.000 
G0 Z5.000 
G0 X91.950 Y-48.500 Z5.000 
G0 X91.950 Y-48.500 Z3.000 
G1 X91.950 Y-48.500 Z-6.000 F500.000 
G1 X91.950 Y-44.500 Z-6.000 F1200.000 
G1 X72.050 Y-44.500 Z-6.000 F1200.000 
G1 X72.050 Y-48.500 Z-6.000 F1200.000 
G1 X91.950 Y-48.500 Z-6.000 F1200.000 
G0 Z5.000 
G0 X94.950 Y-51.500 Z5.000 
G0 X94.950 Y-51.500 Z3.000 
G1 X94.950 Y-51.500 Z-6.000 F500.000 
G1 X94.950 Y-41.500 Z-6.000 F1200.000 
G1 X69.050 Y-41.500 Z-6.000 F1200.000 
G1 X69.050 Y-51.500 Z-6.000 F1200.000 
G1 X94.950 Y-51.500 Z-6.000 F1200.000 
G0 Z5.000 
G0 X97.950 Y-54.500 Z5.000 
G0 X97.950 Y-54.500 Z3.000 
G1 X97.950 Y-54.500 Z-6.000 F500.000 
G1 X97.950 Y-38.500 Z-6.000 F1200.000 
G1 X66.050 Y-38.500 Z-6.000 F1200.000 
G1 X66.050 Y-54.500 Z-6.000 F1200.000 
G1 X97.950 Y-54.500 Z-6.000 F1200.000 
G0 Z5.000 
G0 X100.950 Y-57.500 Z5.000 
G0 X100.950 Y-57.500 Z3.000 
G1 X100.950 Y-57.500 Z-6.000 F500.000 
G1 X100.950 Y-35.500 Z-6.000 F1200.000 
G1 X63.050 Y-35.500 Z-6.000 F1200.000 
G1 X63.050 Y-57.500 Z-6.000 F1200.000 
G1 X100.950 Y-57.500 Z-6.000 F1200.000 
G0 Z5.000 
G0 X103.950 Y-60.500 Z5.000 
G0 X103.950 Y-60.500 Z3.000 
G1 X103.950 Y-60.500 Z-6.000 F500.000 
G1 X103.950 Y-32.500 Z-6.000 F1200.000 
G1 X60.050 Y-32.500 Z-6.000 F1200.000 
G1 X60.050 Y-60.500 Z-6.000 F1200.000 
G1 X103.950 Y-60.500 Z-6.000 F1200.000 
G0 Z5.000 
G0 X90.450 Y-47.000 Z5.000 
G0 X90.450 Y-47.000 Z3.000 
G1 X90.450 Y-47.000 Z-9.000 F500.000 
G1 X90.450 Y-46.000 Z-9.000 F1200.000 
G1 X73.550 Y-46.000 Z-9.000 F1200.000 
G1 X73.550 Y-47.000 Z-9.000 F1200.000 
G1 X90.450 Y-47.000 Z-9.000 F1200.000 
G0 Z5.000 
G0 X91.200 Y-47.750 Z5.000 
G0 X91.200 Y-47.750 Z3.000 
G1 X91.200 Y-47.750 Z-9.000 F500.000 
G1 X91.200 Y-45.250 Z-9.000 F1200.000 
G1 X72.800 Y-45.250 Z-9.000 F1200.000 
G1 X72.800 Y-47.750 Z-9.000 F1200.000 
G1 X91.200 Y-47.750 Z-9.000 F1200.000 
G0 Z5.000 
G0 X91.950 Y-48.500 Z5.000 
G0 X91.950 Y-48.500 Z3.000 
G1 X91.950 Y-48.500 Z-9.000 F500.000 
G1 X91.950 Y-44.500 Z-9.000 F1200.000 
G1 X72.050 Y-44.500 Z-9.000 F1200.000 
G1 X72.050 Y-48.500 Z-9.000 F1200.000 
G1 X91.950 Y-48.500 Z-9.000 F1200.000 
G0 Z5.000 
G0 X94.950 Y-51.500 Z5.000 
G0 X94.950 Y-51.500 Z3.000 
G1 X94.950 Y-51.500 Z-9.000 F500.000 
G1 X94.950 Y-41.500 Z-9.000 F1200.000 
G1 X69.050 Y-41.500 Z-9.000 F1200.000 
G1 X69.050 Y-51.500 Z-9.000 F1200.000 
G1 X94.950 Y-51.500 Z-9.000 F1200.000 
G0 Z5.000 
G0 X97.950 Y-54.500 Z5.000 
G0 X97.950 Y-54.500 Z3.000 
G1 X97.950 Y-54.500 Z-9.000 F500.000 
G1 X97.950 Y-38.500 Z-9.000 F1200.000 
G1 X66.050 Y-38.500 Z-9.000 F1200.000 
G1 X66.050 Y-54.500 Z-9.000 F1200.000 
G1 X97.950 Y-54.500 Z-9.000 F1200.000 
G0 Z5.000 
G0 X100.950 Y-57.500 Z5.000 
G0 X100.950 Y-57.500 Z3.000 
G1 X100.950 Y-57.500 Z-9.000 F500.000 
G1 X100.950 Y-35.500 Z-9.000 F1200.000 
G1 X63.050 Y-35.500 Z-9.000 F1200.000 
G1 X63.050 Y-57.500 Z-9.000 F1200.000 
G1 X100.950 Y-57.500 Z-9.000 F1200.000 
G0 Z5.000 
G0 X103.950 Y-60.500 Z5.000 
G0 X103.950 Y-60.500 Z3.000 
G1 X103.950 Y-60.500 Z-9.000 F500.000 
G1 X103.950 Y-32.500 Z-9.000 F1200.000 
G1 X60.050 Y-32.500 Z-9.000 F1200.000 
G1 X60.050 Y-60.500 Z-9.000 F1200.000 
G1 X103.950 Y-60.500 Z-9.000 F1200.000 
G0 Z5.000 
G0 X90.450 Y-47.000 Z5.000 
G0 X90.450 Y-47.000 Z3.000 
G1 X90.450 Y-47.000 Z-12.000 F500.000 
G1 X90.450 Y-46.000 Z-12.000 F1200.000 
G1 X73.550 Y-46.000 Z-12.000 F1200.000 
G1 X73.550 Y-47.000 Z-12.000 F1200.000 
G1 X90.450 Y-47.000 Z-12.000 F1200.000 
G0 Z5.000 
G0 X91.200 Y-47.750 Z5.000 
G0 X91.200 Y-47.750 Z3.000 
G1 X91.200 Y-47.750 Z-12.000 F500.000 
G1 X91.200 Y-45.250 Z-12.000 F1200.000 
G1 X72.800 Y-45.250 Z-12.000 F1200.000 
G1 X72.800 Y-47.750 Z-12.000 F1200.000 
G1 X91.200 Y-47.750 Z-12.000 F1200.000 
G0 Z5.000 
G0 X91.950 Y-48.500 Z5.000 
G0 X91.950 Y-48.500 Z3.000 
G1 X91.950 Y-48.500 Z-12.000 F500.000 
G1 X91.950 Y-44.500 Z-12.000 F1200.000 
G1 X72.050 Y-44.500 Z-12.000 F1200.000 
G1 X72.050 Y-48.500 Z-12.000 F1200.000 
G1 X91.950 Y-48.500 Z-12.000 F1200.000 
G0 Z5.000 
G0 X94.950 Y-51.500 Z5.000 
G0 X94.950 Y-51.500 Z3.000 
G1 X94.950 Y-51.500 Z-12.000 F500.000 
G1 X94.950 Y-41.500 Z-12.000 F1200.000 
G1 X69.050 Y-41.500 Z-12.000 F1200.000 
G1 X69.050 Y-51.500 Z-12.000 F1200.000 
G1 X94.950 Y-51.500 Z-12.000 F1200.000 
G0 Z5.000 
G0 X97.950 Y-54.500 Z5.000 
G0 X97.950 Y-54.500 Z3.000 
G1 X97.950 Y-54.500 Z-12.000 F500.000 
G1 X97.950 Y-38.500 Z-12.000 F1200.000 
G1 X66.050 Y-38.500 Z-12.000 F1200.000 
G1 X66.050 Y-54.500 Z-12.000 F1200.000 
G1 X97.950 Y-54.500 Z-12.000 F1200.000 
G0 Z5.000 
G0 X100.950 Y-57.500 Z5.000 
G0 X100.950 Y-57.500 Z3.000 
G1 X100.950 Y-57.500 Z-12.000 F500.000 
G1 X100.950 Y-35.500 Z-12.000 F1200.000 
G1 X63.050 Y-35.500 Z-12.000 F1200.000 
G1 X63.050 Y-57.500 Z-12.000 F1200.000 
G1 X100.950 Y-57.500 Z-12.000 F1200.000 
G0 Z5.000 
G0 X103.950 Y-60.500 Z5.000 
G0 X103.950 Y-60.500 Z3.000 
G1 X103.950 Y-60.500 Z-12.000 F500.000 
G1 X103.950 Y-32.500 Z-12.000 F1200.000 
G1 X60.050 Y-32.500 Z-12.000 F1200.000 
G1 X60.050 Y-60.500 Z-12.000 F1200.000 
G1 X103.950 Y-60.500 Z-12.000 F1200.000 
G0 Z5.000 
G0 Z5.000 
(finish operation: Pocket_Shape002)
(begin operation: Pocket_Shape003)
(machine units: mm/min)
(Pocket_Shape003) 
G0 Z5.000 
G0 
G0 X230.450 Y-47.000 
G0 X230.450 Y-47.000 Z3.000 
G1 X230.450 Y-47.000 Z-3.000 F500.000 
G1 X230.450 Y-46.000 Z-3.000 F1200.000 
G1 X213.550 Y-46.000 Z-3.000 F1200.000 
G1 X213.550 Y-47.000 Z-3.000 F1200.000 
G1 X230.450 Y-47.000 Z-3.000 F1200.000 
G0 Z5.000 
G0 X231.200 Y-47.750 Z5.000 
G0 X231.200 Y-47.750 Z3.000 
G1 X231.200 Y-47.750 Z-3.000 F500.000 
G1 X231.200 Y-45.250 Z-3.000 F1200.000 
G1 X212.800 Y-45.250 Z-3.000 F1200.000 
G1 X212.800 Y-47.750 Z-3.000 F1200.000 
G1 X231.200 Y-47.750 Z-3.000 F1200.000 
G0 Z5.000 
G0 X231.950 Y-48.500 Z5.000 
G0 X231.950 Y-48.500 Z3.000 
G1 X231.950 Y-48.500 Z-3.000 F500.000 
G1 X231.950 Y-44.500 Z-3.000 F1200.000 
G1 X212.050 Y-44.500 Z-3.000 F1200.000 
G1 X212.050 Y-48.500 Z-3.000 F1200.000 
G1 X231.950 Y-48.500 Z-3.000 F1200.000 
G0 Z5.000 
G0 X234.950 Y-51.500 Z5.000 
G0 X234.950 Y-51.500 Z3.000 
G1 X234.950 Y-51.500 Z-3.000 F500.000 
G1 X234.950 Y-41.500 Z-3.000 F1200.000 
G1 X209.050 Y-41.500 Z-3.000 F1200.000 
G1 X209.050 Y-51.500 Z-3.000 F1200.000 
G1 X234.950 Y-51.500 Z-3.000 F1200.000 
G0 Z5.000 
G0 X237.950 Y-54.500 Z5.000 
G0 X237.950 Y-54.500 Z3.000 
G1 X237.950 Y-54.500 Z-3.000 F500.000 
G1 X237.950 Y-38.500 Z-3.000 F1200.000 
G1 X206.050 Y-38.500 Z-3.000 F1200.000 
G1 X206.050 Y-54.500 Z-3.000 F1200.000 
G1 X237.950 Y-54.500 Z-3.000 F1200.000 
G0 Z5.000 
G0 X240.950 Y-57.500 Z5.000 
G0 X240.950 Y-57.500 Z3.000 
G1 X240.950 Y-57.500 Z-3.000 F500.000 
G1 X240.950 Y-35.500 Z-3.000 F1200.000 
G1 X203.050 Y-35.500 Z-3.000 F1200.000 
G1 X203.050 Y-57.500 Z-3.000 F1200.000 
G1 X240.950 Y-57.500 Z-3.000 F1200.000 
G0 Z5.000 
G0 X243.950 Y-60.500 Z5.000 
G0 X243.950 Y-60.500 Z3.000 
G1 X243.950 Y-60.500 Z-3.000 F500.000 
G1 X243.950 Y-32.500 Z-3.000 F1200.000 
G1 X200.050 Y-32.500 Z-3.000 F1200.000 
G1 X200.050 Y-60.500 Z-3.000 F1200.000 
G1 X243.950 Y-60.500 Z-3.000 F1200.000 
G0 Z5.000 
G0 X230.450 Y-47.000 Z5.000 
G0 X230.450 Y-47.000 Z3.000 
G1 X230.450 Y-47.000 Z-6.000 F500.000 
G1 X230.450 Y-46.000 Z-6.000 F1200.000 
G1 X213.550 Y-46.000 Z-6.000 F1200.000 
G1 X213.550 Y-47.000 Z-6.000 F1200.000 
G1 X230.450 Y-47.000 Z-6.000 F1200.000 
G0 Z5.000 
G0 X231.200 Y-47.750 Z5.000 
G0 X231.200 Y-47.750 Z3.000 
G1 X231.200 Y-47.750 Z-6.000 F500.000 
G1 X231.200 Y-45.250 Z-6.000 F1200.000 
G1 X212.800 Y-45.250 Z-6.000 F1200.000 
G1 X212.800 Y-47.750 Z-6.000 F1200.000 
G1 X231.200 Y-47.750 Z-6.000 F1200.000 
G0 Z5.000 
G0 X231.950 Y-48.500 Z5.000 
G0 X231.950 Y-48.500 Z3.000 
G1 X231.950 Y-48.500 Z-6.000 F500.000 
G1 X231.950 Y-44.500 Z-6.000 F1200.000 
G1 X212.050 Y-44.500 Z-6.000 F1200.000 
G1 X212.050 Y-48.500 Z-6.000 F1200.000 
G1 X231.950 Y-48.500 Z-6.000 F1200.000 
G0 Z5.000 
G0 X234.950 Y-51.500 Z5.000 
G0 X234.950 Y-51.500 Z3.000 
G1 X234.950 Y-51.500 Z-6.000 F500.000 
G1 X234.950 Y-41.500 Z-6.000 F1200.000 
G1 X209.050 Y-41.500 Z-6.000 F1200.000 
G1 X209.050 Y-51.500 Z-6.000 F1200.000 
G1 X234.950 Y-51.500 Z-6.000 F1200.000 
G0 Z5.000 
G0 X237.950 Y-54.500 Z5.000 
G0 X237.950 Y-54.500 Z3.000 
G1 X237.950 Y-54.500 Z-6.000 F500.000 
G1 X237.950 Y-38.500 Z-6.000 F1200.000 
G1 X206.050 Y-38.500 Z-6.000 F1200.000 
G1 X206.050 Y-54.500 Z-6.000 F1200.000 
G1 X237.950 Y-54.500 Z-6.000 F1200.000 
G0 Z5.000 
G0 X240.950 Y-57.500 Z5.000 
G0 X240.950 Y-57.500 Z3.000 
G1 X240.950 Y-57.500 Z-6.000 F500.000 
G1 X240.950 Y-35.500 Z-6.000 F1200.000 
G1 X203.050 Y-35.500 Z-6.000 F1200.000 
G1 X203.050 Y-57.500 Z-6.000 F1200.000 
G1 X240.950 Y-57.500 Z-6.000 F1200.000 
G0 Z5.000 
G0 X243.950 Y-60.500 Z5.000 
G0 X243.950 Y-60.500 Z3.000 
G1 X243.950 Y-60.500 Z-6.000 F500.000 
G1 X243.950 Y-32.500 Z-6.000 F1200.000 
G1 X200.050 Y-32.500 Z-6.000 F1200.000 
G1 X200.050 Y-60.500 Z-6.000 F1200.000 
G1 X243.950 Y-60.500 Z-6.000 F1200.000 
G0 Z5.000 
G0 X230.450 Y-47.000 Z5.000 
G0 X230.450 Y-47.000 Z3.000 
G1 X230.450 Y-47.000 Z-9.000 F500.000 
G1 X230.450 Y-46.000 Z-9.000 F1200.000 
G1 X213.550 Y-46.000 Z-9.000 F1200.000 
G1 X213.550 Y-47.000 Z-9.000 F1200.000 
G1 X230.450 Y-47.000 Z-9.000 F1200.000 
G0 Z5.000 
G0 X231.200 Y-47.750 Z5.000 
G0 X231.200 Y-47.750 Z3.000 
G1 X231.200 Y-47.750 Z-9.000 F500.000 
G1 X231.200 Y-45.250 Z-9.000 F1200.000 
G1 X212.800 Y-45.250 Z-9.000 F1200.000 
G1 X212.800 Y-47.750 Z-9.000 F1200.000 
G1 X231.200 Y-47.750 Z-9.000 F1200.000 
G0 Z5.000 
G0 X231.950 Y-48.500 Z5.000 
G0 X231.950 Y-48.500 Z3.000 
G1 X231.950 Y-48.500 Z-9.000 F500.000 
G1 X231.950 Y-44.500 Z-9.000 F1200.000 
G1 X212.050 Y-44.500 Z-9.000 F1200.000 
G1 X212.050 Y-48.500 Z-9.000 F1200.000 
G1 X231.950 Y-48.500 Z-9.000 F1200.000 
G0 Z5.000 
G0 X234.950 Y-51.500 Z5.000 
G0 X234.950 Y-51.500 Z3.000 
G1 X234.950 Y-51.500 Z-9.000 F500.000 
G1 X234.950 Y-41.500 Z-9.000 F1200.000 
G1 X209.050 Y-41.500 Z-9.000 F1200.000 
G1 X209.050 Y-51.500 Z-9.000 F1200.000 
G1 X234.950 Y-51.500 Z-9.000 F1200.000 
G0 Z5.000 
G0 X237.950 Y-54.500 Z5.000 
G0 X237.950 Y-54.500 Z3.000 
G1 X237.950 Y-54.500 Z-9.000 F500.000 
G1 X237.950 Y-38.500 Z-9.000 F1200.000 
G1 X206.050 Y-38.500 Z-9.000 F1200.000 
G1 X206.050 Y-54.500 Z-9.000 F1200.000 
G1 X237.950 Y-54.500 Z-9.000 F1200.000 
G0 Z5.000 
G0 X240.950 Y-57.500 Z5.000 
G0 X240.950 Y-57.500 Z3.000 
G1 X240.950 Y-57.500 Z-9.000 F500.000 
G1 X240.950 Y-35.500 Z-9.000 F1200.000 
G1 X203.050 Y-35.500 Z-9.000 F1200.000 
G1 X203.050 Y-57.500 Z-9.000 F1200.000 
G1 X240.950 Y-57.500 Z-9.000 F1200.000 
G0 Z5.000 
G0 X243.950 Y-60.500 Z5.000 
G0 X243.950 Y-60.500 Z3.000 
G1 X243.950 Y-60.500 Z-9.000 F500.000 
G1 X243.950 Y-32.500 Z-9.000 F1200.000 
G1 X200.050 Y-32.500 Z-9.000 F1200.000 
G1 X200.050 Y-60.500 Z-9.000 F1200.000 
G1 X243.950 Y-60.500 Z-9.000 F1200.000 
G0 Z5.000 
G0 X230.450 Y-47.000 Z5.000 
G0 X230.450 Y-47.000 Z3.000 
G1 X230.450 Y-47.000 Z-12.000 F500.000 
G1 X230.450 Y-46.000 Z-12.000 F1200.000 
G1 X213.550 Y-46.000 Z-12.000 F1200.000 
G1 X213.550 Y-47.000 Z-12.000 F1200.000 
G1 X230.450 Y-47.000 Z-12.000 F1200.000 
G0 Z5.000 
G0 X231.200 Y-47.750 Z5.000 
G0 X231.200 Y-47.750 Z3.000 
G1 X231.200 Y-47.750 Z-12.000 F500.000 
G1 X231.200 Y-45.250 Z-12.000 F1200.000 
G1 X212.800 Y-45.250 Z-12.000 F1200.000 
G1 X212.800 Y-47.750 Z-12.000 F1200.000 
G1 X231.200 Y-47.750 Z-12.000 F1200.000 
G0 Z5.000 
G0 X231.950 Y-48.500 Z5.000 
G0 X231.950 Y-48.500 Z3.000 
G1 X231.950 Y-48.500 Z-12.000 F500.000 
G1 X231.950 Y-44.500 Z-12.000 F1200.000 
G1 X212.050 Y-44.500 Z-12.000 F1200.000 
G1 X212.050 Y-48.500 Z-12.000 F1200.000 
G1 X231.950 Y-48.500 Z-12.000 F1200.000 
G0 Z5.000 
G0 X234.950 Y-51.500 Z5.000 
G0 X234.950 Y-51.500 Z3.000 
G1 X234.950 Y-51.500 Z-12.000 F500.000 
G1 X234.950 Y-41.500 Z-12.000 F1200.000 
G1 X209.050 Y-41.500 Z-12.000 F1200.000 
G1 X209.050 Y-51.500 Z-12.000 F1200.000 
G1 X234.950 Y-51.500 Z-12.000 F1200.000 
G0 Z5.000 
G0 X237.950 Y-54.500 Z5.000 
G0 X237.950 Y-54.500 Z3.000 
G1 X237.950 Y-54.500 Z-12.000 F500.000 
G1 X237.950 Y-38.500 Z-12.000 F1200.000 
G1 X206.050 Y-38.500 Z-12.000 F1200.000 
G1 X206.050 Y-54.500 Z-12.000 F1200.000 
G1 X237.950 Y-54.500 Z-12.000 F1200.000 
G0 Z5.000 
G0 X240.950 Y-57.500 Z5.000 
G0 X240.950 Y-57.500 Z3.000 
G1 X240.950 Y-57.500 Z-12.000 F500.000 
G1 X240.950 Y-35.500 Z-12.000 F1200.000 
G1 X203.050 Y-35.500 Z-12.000 F1200.000 
G1 X203.050 Y-57.500 Z-12.000 F1200.000 
G1 X240.950 Y-57.500 Z-12.000 F1200.000 
G0 Z5.000 
G0 X243.950 Y-60.500 Z5.000 
G0 X243.950 Y-60.500 Z3.000 
G1 X243.950 Y-60.500 Z-12.000 F500.000 
G1 X243.950 Y-32.500 Z-12.000 F1200.000 
G1 X200.050 Y-32.500 Z-12.000 F1200.000 
G1 X200.050 Y-60.500 Z-12.000 F1200.000 
G1 X243.950 Y-60.500 Z-12.000 F1200.000 
G0 Z5.000 
G0 Z5.000 
(finish operation: Pocket_Shape003)
(begin operation: DressupDogbone)
(machine units: mm/min)
(Profile) 
(Compensated Tool Path. Diameter: 3.0) 
G0 Z5.000 
G0 X137.491 Y-18.834 
G0 Z3.000 
G1 X137.491 Y-18.834 Z-3.000 F500.000 
G2 X137.500 Y-19.000 Z-3.000 I-1.491 J-0.166 F1200.000 
G1 X137.500 Y-35.833 Z-3.000 F1200.000 
G1 X137.061 Y-36.273 
G1 X137.500 Y-35.833 
G1 X148.000 Y-35.833 Z-3.000 F1200.000 
G2 X149.500 Y-37.333 Z-3.000 I-0.000 J-1.500 F1200.000 
G1 X149.500 Y-55.667 Z-3.000 F1200.000 
G2 X148.000 Y-57.167 Z-3.000 I-1.500 J0.000 F1200.000 
G1 X137.500 Y-57.167 Z-3.000 F1200.000 
G1 X137.061 Y-56.727 
G1 X137.500 Y-57.167 
G1 X137.500 Y-90.833 Z-3.000 F1200.000 
G1 X137.061 Y-91.273 
G1 X137.500 Y-90.833 
G1 X148.000 Y-90.833 Z-3.000 F1200.000 
G2 X149.500 Y-92.333 Z-3.000 I-0.000 J-1.500 F1200.000 
G1 X149.500 Y-110.667 Z-3.000 F1200.000 
G2 X148.000 Y-112.167 Z-3.000 I-1.500 J0.000 F1200.000 
G1 X137.500 Y-112.167 Z-3.000 F1200.000 
G1 X137.061 Y-111.727 
G1 X137.500 Y-112.167 
G1 X137.500 Y-129.000 Z-3.000 F1200.000 
G2 X136.000 Y-130.500 Z-3.000 I-1.500 J0.000 F1200.000 
G1 X28.000 Y-130.500 Z-3.000 F1200.000 
G2 X26.500 Y-129.000 Z-3.000 I0.000 J1.500 F1200.000 
G1 X26.500 Y-112.167 Z-3.000 F1200.000 
G1 X26.939 Y-111.727 
G1 X26.500 Y-112.167 
G1 X16.000 Y-112.167 Z-3.000 F1200.000 
G2 X14.500 Y-110.667 Z-3.000 I0.000 J1.500 F1200.000 
G1 X14.500 Y-92.333 Z-3.000 F1200.000 
G2 X16.000 Y-90.833 Z-3.000 I1.500 J-0.000 F1200.000 
G1 X26.500 Y-90.833 Z-3.000 F1200.000 
G1 X26.939 Y-91.273 
G1 X26.500 Y-90.833 
G1 X26.500 Y-57.167 Z-3.000 F1200.000 
G1 X26.939 Y-56.727 
G1 X26.500 Y-57.167 
G1 X16.000 Y-57.167 Z-3.000 F1200.000 
G2 X14.500 Y-55.667 Z-3.000 I0.000 J1.500 F1200.000 
G1 X14.500 Y-37.333 Z-3.000 F1200.000 
G2 X16.000 Y-35.833 Z-3.000 I1.500 J-0.000 F1200.000 
G1 X26.500 Y-35.833 Z-3.000 F1200.000 
G1 X26.939 Y-36.273 
G1 X26.500 Y-35.833 
G1 X26.500 Y-19.000 Z-3.000 F1200.000 
G2 X28.000 Y-17.500 Z-3.000 I1.500 J-0.000 F1200.000 
G1 X40.000 Y-17.500 Z-3.000 F1200.000 
G2 X41.500 Y-19.000 Z-3.000 I-0.000 J-1.500 F1200.000 
G1 X41.500 Y-29.500 Z-3.000 F1200.000 
G1 X41.061 Y-29.939 
G1 X41.500 Y-29.500 
G1 X50.500 Y-29.500 Z-3.000 F1200.000 
G1 X50.939 Y-29.939 
G1 X50.500 Y-29.500 
G1 X50.500 Y-19.000 Z-3.000 F1200.000 
G2 X52.000 Y-17.500 Z-3.000 I1.500 J-0.000 F1200.000 
G1 X112.000 Y-17.500 Z-3.000 F1200.000 
G2 X113.500 Y-19.000 Z-3.000 I-0.000 J-1.500 F1200.000 
G1 X113.500 Y-29.500 Z-3.000 F1200.000 
G1 X113.061 Y-29.939 
G1 X113.500 Y-29.500 
G1 X122.500 Y-29.500 Z-3.000 F1200.000 
G1 X122.939 Y-29.939 
G1 X122.500 Y-29.500 
G1 X122.500 Y-19.000 Z-3.000 F1200.000 
G2 X124.000 Y-17.500 Z-3.000 I1.500 J-0.000 F1200.000 
G1 X136.000 Y-17.500 Z-3.000 F1200.000 
G2 X137.491 Y-18.834 Z-3.000 I-0.000 J-1.500 F1200.000 
G1 X137.491 Y-18.834 Z-6.000 F500.000 
G2 X137.500 Y-19.000 Z-6.000 I-1.491 J-0.166 F1200.000 
G1 X137.500 Y-35.833 Z-6.000 F1200.000 
G1 X137.061 Y-36.273 
G1 X137.500 Y-35.833 
G1 X148.000 Y-35.833 Z-6.000 F1200.000 
G2 X149.500 Y-37.333 Z-6.000 I-0.000 J-1.500 F1200.000 
G1 X149.500 Y-55.667 Z-6.000 F1200.000 
G2 X148.000 Y-57.167 Z-6.000 I-1.500 J0.000 F1200.000 
G1 X137.500 Y-57.167 Z-6.000 F1200.000 
G1 X137.061 Y-56.727 
G1 X137.500 Y-57.167 
G1 X137.500 Y-90.833 Z-6.000 F1200.000 
G1 X137.061 Y-91.273 
G1 X137.500 Y-90.833 
G1 X148.000 Y-90.833 Z-6.000 F1200.000 
G2 X149.500 Y-92.333 Z-6.000 I-0.000 J-1.500 F1200.000 
G1 X149.500 Y-110.667 Z-6.000 F1200.000 
G2 X148.000 Y-112.167 Z-6.000 I-1.500 J0.000 F1200.000 
G1 X137.500 Y-112.167 Z-6.000 F1200.000 
G1 X137.061 Y-111.727 
G1 X137.500 Y-112.167 
G1 X137.500 Y-129.000 Z-6.000 F1200.000 
G2 X136.000 Y-130.500 Z-6.000 I-1.500 J0.000 F1200.000 
G1 X28.000 Y-130.500 Z-6.000 F1200.000 
G2 X26.500 Y-129.000 Z-6.000 I0.000 J1.500 F1200.000 
G1 X26.500 Y-112.167 Z-6.000 F1200.000 
G1 X26.939 Y-111.727 
G1 X26.500 Y-112.167 
G1 X16.000 Y-112.167 Z-6.000 F1200.000 
G2 X14.500 Y-110.667 Z-6.000 I0.000 J1.500 F1200.000 
G1 X14.500 Y-92.333 Z-6.000 F1200.000 
G2 X16.000 Y-90.833 Z-6.000 I1.500 J-0.000 F1200.000 
G1 X26.500 Y-90.833 Z-6.000 F1200.000 
G1 X26.939 Y-91.273 
G1 X26.500 Y-90.833 
G1 X26.500 Y-57.167 Z-6.000 F1200.000 
G1 X26.939 Y-56.727 
G1 X26.500 Y-57.167 
G1 X16.000 Y-57.167 Z-6.000 F1200.000 
G2 X14.500 Y-55.667 Z-6.000 I0.000 J1.500 F1200.000 
G1 X14.500 Y-37.333 Z-6.000 F1200.000 
G2 X16.000 Y-35.833 Z-6.000 I1.500 J-0.000 F1200.000 
G1 X26.500 Y-35.833 Z-6.000 F1200.000 
G1 X26.939 Y-36.273 
G1 X26.500 Y-35.833 
G1 X26.500 Y-19.000 Z-6.000 F1200.000 
G2 X28.000 Y-17.500 Z-6.000 I1.500 J-0.000 F1200.000 
G1 X40.000 Y-17.500 Z-6.000 F1200.000 
G2 X41.500 Y-19.000 Z-6.000 I-0.000 J-1.500 F1200.000 
G1 X41.500 Y-29.500 Z-6.000 F1200.000 
G1 X41.061 Y-29.939 
G1 X41.500 Y-29.500 
G1 X50.500 Y-29.500 Z-6.000 F1200.000 
G1 X50.939 Y-29.939 
G1 X50.500 Y-29.500 
G1 X50.500 Y-19.000 Z-6.000 F1200.000 
G2 X52.000 Y-17.500 Z-6.000 I1.500 J-0.000 F1200.000 
G1 X112.000 Y-17.500 Z-6.000 F1200.000 
G2 X113.500 Y-19.000 Z-6.000 I-0.000 J-1.500 F1200.000 
G1 X113.500 Y-29.500 Z-6.000 F1200.000 
G1 X113.061 Y-29.939 
G1 X113.500 Y-29.500 
G1 X122.500 Y-29.500 Z-6.000 F1200.000 
G1 X122.939 Y-29.939 
G1 X122.500 Y-29.500 
G1 X122.500 Y-19.000 Z-6.000 F1200.000 
G2 X124.000 Y-17.500 Z-6.000 I1.500 J-0.000 F1200.000 
G1 X136.000 Y-17.500 Z-6.000 F1200.000 
G2 X137.491 Y-18.834 Z-6.000 I-0.000 J-1.500 F1200.000 
G1 X137.491 Y-18.834 Z-9.000 F500.000 
G2 X137.500 Y-19.000 Z-9.000 I-1.491 J-0.166 F1200.000 
G1 X137.500 Y-35.833 Z-9.000 F1200.000 
G1 X137.061 Y-36.273 
G1 X137.500 Y-35.833 
G1 X148.000 Y-35.833 Z-9.000 F1200.000 
G2 X149.500 Y-37.333 Z-9.000 I-0.000 J-1.500 F1200.000 
G1 X149.500 Y-55.667 Z-9.000 F1200.000 
G2 X148.000 Y-57.167 Z-9.000 I-1.500 J0.000 F1200.000 
G1 X137.500 Y-57.167 Z-9.000 F1200.000 
G1 X137.061 Y-56.727 
G1 X137.500 Y-57.167 
G1 X137.500 Y-90.833 Z-9.000 F1200.000 
G1 X137.061 Y-91.273 
G1 X137.500 Y-90.833 
G1 X148.000 Y-90.833 Z-9.000 F1200.000 
G2 X149.500 Y-92.333 Z-9.000 I-0.000 J-1.500 F1200.000 
G1 X149.500 Y-110.667 Z-9.000 F1200.000 
G2 X148.000 Y-112.167 Z-9.000 I-1.500 J0.000 F1200.000 
G1 X137.500 Y-112.167 Z-9.000 F1200.000 
G1 X137.061 Y-111.727 
G1 X137.500 Y-112.167 
G1 X137.500 Y-129.000 Z-9.000 F1200.000 
G2 X136.000 Y-130.500 Z-9.000 I-1.500 J0.000 F1200.000 
G1 X28.000 Y-130.500 Z-9.000 F1200.000 
G2 X26.500 Y-129.000 Z-9.000 I0.000 J1.500 F1200.000 
G1 X26.500 Y-112.167 Z-9.000 F1200.000 
G1 X26.939 Y-111.727 
G1 X26.500 Y-112.167 
G1 X16.000 Y-112.167 Z-9.000 F1200.000 
G2 X14.500 Y-110.667 Z-9.000 I0.000 J1.500 F1200.000 
G1 X14.500 Y-92.333 Z-9.000 F1200.000 
G2 X16.000 Y-90.833 Z-9.000 I1.500 J-0.000 F1200.000 
G1 X26.500 Y-90.833 Z-9.000 F1200.000 
G1 X26.939 Y-91.273 
G1 X26.500 Y-90.833 
G1 X26.500 Y-57.167 Z-9.000 F1200.000 
G1 X26.939 Y-56.727 
G1 X26.500 Y-57.167 
G1 X16.000 Y-57.167 Z-9.000 F1200.000 
G2 X14.500 Y-55.667 Z-9.000 I0.000 J1.500 F1200.000 
G1 X14.500 Y-37.333 Z-9.000 F1200.000 
G2 X16.000 Y-35.833 Z-9.000 I1.500 J-0.000 F1200.000 
G1 X26.500 Y-35.833 Z-9.000 F1200.000 
G1 X26.939 Y-36.273 
G1 X26.500 Y-35.833 
G1 X26.500 Y-19.000 Z-9.000 F1200.000 
G2 X28.000 Y-17.500 Z-9.000 I1.500 J-0.000 F1200.000 
G1 X40.000 Y-17.500 Z-9.000 F1200.000 
G2 X41.500 Y-19.000 Z-9.000 I-0.000 J-1.500 F1200.000 
G1 X41.500 Y-29.500 Z-9.000 F1200.000 
G1 X41.061 Y-29.939 
G1 X41.500 Y-29.500 
G1 X50.500 Y-29.500 Z-9.000 F1200.000 
G1 X50.939 Y-29.939 
G1 X50.500 Y-29.500 
G1 X50.500 Y-19.000 Z-9.000 F1200.000 
G2 X52.000 Y-17.500 Z-9.000 I1.500 J-0.000 F1200.000 
G1 X112.000 Y-17.500 Z-9.000 F1200.000 
G2 X113.500 Y-19.000 Z-9.000 I-0.000 J-1.500 F1200.000 
G1 X113.500 Y-29.500 Z-9.000 F1200.000 
G1 X113.061 Y-29.939 
G1 X113.500 Y-29.500 
G1 X122.500 Y-29.500 Z-9.000 F1200.000 
G1 X122.939 Y-29.939 
G1 X122.500 Y-29.500 
G1 X122.500 Y-19.000 Z-9.000 F1200.000 
G2 X124.000 Y-17.500 Z-9.000 I1.500 J-0.000 F1200.000 
G1 X136.000 Y-17.500 Z-9.000 F1200.000 
G2 X137.491 Y-18.834 Z-9.000 I-0.000 J-1.500 F1200.000 
G1 X137.491 Y-18.834 Z-12.000 F500.000 
G2 X137.500 Y-19.000 Z-12.000 I-1.491 J-0.166 F1200.000 
G1 X137.500 Y-35.833 Z-12.000 F1200.000 
G1 X137.061 Y-36.273 
G1 X137.500 Y-35.833 
G1 X148.000 Y-35.833 Z-12.000 F1200.000 
G2 X149.500 Y-37.333 Z-12.000 I-0.000 J-1.500 F1200.000 
G1 X149.500 Y-55.667 Z-12.000 F1200.000 
G2 X148.000 Y-57.167 Z-12.000 I-1.500 J0.000 F1200.000 
G1 X137.500 Y-57.167 Z-12.000 F1200.000 
G1 X137.061 Y-56.727 
G1 X137.500 Y-57.167 
G1 X137.500 Y-90.833 Z-12.000 F1200.000 
G1 X137.061 Y-91.273 
G1 X137.500 Y-90.833 
G1 X148.000 Y-90.833 Z-12.000 F1200.000 
G2 X149.500 Y-92.333 Z-12.000 I-0.000 J-1.500 F1200.000 
G1 X149.500 Y-110.667 Z-12.000 F1200.000 
G2 X148.000 Y-112.167 Z-12.000 I-1.500 J0.000 F1200.000 
G1 X137.500 Y-112.167 Z-12.000 F1200.000 
G1 X137.061 Y-111.727 
G1 X137.500 Y-112.167 
G1 X137.500 Y-129.000 Z-12.000 F1200.000 
G2 X136.000 Y-130.500 Z-12.000 I-1.500 J0.000 F1200.000 
G1 X28.000 Y-130.500 Z-12.000 F1200.000 
G2 X26.500 Y-129.000 Z-12.000 I0.000 J1.500 F1200.000 
G1 X26.500 Y-112.167 Z-12.000 F1200.000 
G1 X26.939 Y-111.727 
G1 X26.500 Y-112.167 
G1 X16.000 Y-112.167 Z-12.000 F1200.000 
G2 X14.500 Y-110.667 Z-12.000 I0.000 J1.500 F1200.000 
G1 X14.500 Y-92.333 Z-12.000 F1200.000 
G2 X16.000 Y-90.833 Z-12.000 I1.500 J-0.000 F1200.000 
G1 X26.500 Y-90.833 Z-12.000 F1200.000 
G1 X26.939 Y-91.273 
G1 X26.500 Y-90.833 
G1 X26.500 Y-57.167 Z-12.000 F1200.000 
G1 X26.939 Y-56.727 
G1 X26.500 Y-57.167 
G1 X16.000 Y-57.167 Z-12.000 F1200.000 
G2 X14.500 Y-55.667 Z-12.000 I0.000 J1.500 F1200.000 
G1 X14.500 Y-37.333 Z-12.000 F1200.000 
G2 X16.000 Y-35.833 Z-12.000 I1.500 J-0.000 F1200.000 
G1 X26.500 Y-35.833 Z-12.000 F1200.000 
G1 X26.939 Y-36.273 
G1 X26.500 Y-35.833 
G1 X26.500 Y-19.000 Z-12.000 F1200.000 
G2 X28.000 Y-17.500 Z-12.000 I1.500 J-0.000 F1200.000 
G1 X40.000 Y-17.500 Z-12.000 F1200.000 
G2 X41.500 Y-19.000 Z-12.000 I-0.000 J-1.500 F1200.000 
G1 X41.500 Y-29.500 Z-12.000 F1200.000 
G1 X41.061 Y-29.939 
G1 X41.500 Y-29.500 
G1 X50.500 Y-29.500 Z-12.000 F1200.000 
G1 X50.939 Y-29.939 
G1 X50.500 Y-29.500 
G1 X50.500 Y-19.000 Z-12.000 F1200.000 
G2 X52.000 Y-17.500 Z-12.000 I1.500 J-0.000 F1200.000 
G1 X112.000 Y-17.500 Z-12.000 F1200.000 
G2 X113.500 Y-19.000 Z-12.000 I-0.000 J-1.500 F1200.000 
G1 X113.500 Y-29.500 Z-12.000 F1200.000 
G1 X113.061 Y-29.939 
G1 X113.500 Y-29.500 
G1 X122.500 Y-29.500 Z-12.000 F1200.000 
G1 X122.939 Y-29.939 
G1 X122.500 Y-29.500 
G1 X122.500 Y-19.000 Z-12.000 F1200.000 
G2 X124.000 Y-17.500 Z-12.000 I1.500 J-0.000 F1200.000 
G1 X136.000 Y-17.500 Z-12.000 F1200.000 
G2 X137.491 Y-18.834 Z-12.000 I-0.000 J-1.500 F1200.000 
G0 Z5.000 
G0 Z5.000 
G0 X137.491 Y-18.834 
G0 X154.939 Y-36.273 
G0 X154.939 Y-36.273 Z3.000 
G1 X154.939 Y-36.273 Z-3.000 F500.000 
G2 X156.000 Y-35.833 Z-3.000 I1.061 J-1.060 F1200.000 
G1 X166.500 Y-35.833 Z-3.000 F1200.000 
G1 X166.939 Y-36.273 
G1 X166.500 Y-35.833 
G1 X166.500 Y-19.000 Z-3.000 F1200.000 
G2 X168.000 Y-17.500 Z-3.000 I1.500 J-0.000 F1200.000 
G1 X180.000 Y-17.500 Z-3.000 F1200.000 
G2 X181.500 Y-19.000 Z-3.000 I-0.000 J-1.500 F1200.000 
G1 X181.500 Y-29.500 Z-3.000 F1200.000 
G1 X181.061 Y-29.939 
G1 X181.500 Y-29.500 
G1 X190.500 Y-29.500 Z-3.000 F1200.000 
G1 X190.939 Y-29.939 
G1 X190.500 Y-29.500 
G1 X190.500 Y-19.000 Z-3.000 F1200.000 
G2 X192.000 Y-17.500 Z-3.000 I1.500 J-0.000 F1200.000 
G1 X252.000 Y-17.500 Z-3.000 F1200.000 
G2 X253.500 Y-19.000 Z-3.000 I-0.000 J-1.500 F1200.000 
G1 X253.500 Y-29.500 Z-3.000 F1200.000 
G1 X253.061 Y-29.939 
G1 X253.500 Y-29.500 
G1 X262.500 Y-29.500 Z-3.000 F1200.000 
G1 X262.939 Y-29.939 
G1 X262.500 Y-29.500 
G1 X262.500 Y-19.000 Z-3.000 F1200.000 
G2 X264.000 Y-17.500 Z-3.000 I1.500 J-0.000 F1200.000 
G1 X276.000 Y-17.500 Z-3.000 F1200.000 
G2 X277.500 Y-19.000 Z-3.000 I-0.000 J-1.500 F1200.000 
G1 X277.500 Y-35.833 Z-3.000 F1200.000 
G1 X277.061 Y-36.273 
G1 X277.500 Y-35.833 
G1 X288.000 Y-35.833 Z-3.000 F1200.000 
G2 X289.500 Y-37.333 Z-3.000 I-0.000 J-1.500 F1200.000 
G1 X289.500 Y-55.667 Z-3.000 F1200.000 
G2 X288.000 Y-57.167 Z-3.000 I-1.500 J0.000 F1200.000 
G1 X277.500 Y-57.167 Z-3.000 F1200.000 
G1 X277.061 Y-56.727 
G1 X277.500 Y-57.167 
G1 X277.500 Y-90.833 Z-3.000 F1200.000 
G1 X277.061 Y-91.273 
G1 X277.500 Y-90.833 
G1 X288.000 Y-90.833 Z-3.000 F1200.000 
G2 X289.500 Y-92.333 Z-3.000 I-0.000 J-1.500 F1200.000 
G1 X289.500 Y-110.667 Z-3.000 F1200.000 
G2 X288.000 Y-112.167 Z-3.000 I-1.500 J0.000 F1200.000 
G1 X277.500 Y-112.167 Z-3.000 F1200.000 
G1 X277.061 Y-111.727 
G1 X277.500 Y-112.167 
G1 X277.500 Y-129.000 Z-3.000 F1200.000 
G2 X276.000 Y-130.500 Z-3.000 I-1.500 J0.000 F1200.000 
G1 X168.000 Y-130.500 Z-3.000 F1200.000 
G2 X166.500 Y-129.000 Z-3.000 I0.000 J1.500 F1200.000 
G1 X166.500 Y-112.167 Z-3.000 F1200.000 
G1 X166.939 Y-111.727 
G1 X166.500 Y-112.167 
G1 X156.000 Y-112.167 Z-3.000 F1200.000 
G2 X154.500 Y-110.667 Z-3.000 I0.000 J1.500 F1200.000 
G1 X154.500 Y-92.333 Z-3.000 F1200.000 
G2 X156.000 Y-90.833 Z-3.000 I1.500 J-0.000 F1200.000 
G1 X166.500 Y-90.833 Z-3.000 F1200.000 
G1 X166.939 Y-91.273 
G1 X166.500 Y-90.833 
G1 X166.500 Y-57.167 Z-3.000 F1200.000 
G1 X166.939 Y-56.727 
G1 X166.500 Y-57.167 
G1 X156.000 Y-57.167 Z-3.000 F1200.000 
G2 X154.500 Y-55.667 Z-3.000 I0.000 J1.500 F1200.000 
G1 X154.500 Y-37.333 Z-3.000 F1200.000 
G2 X154.939 Y-36.273 Z-3.000 I1.500 J-0.000 F1200.000 
G1 X154.939 Y-36.273 Z-6.000 F500.000 
G2 X156.000 Y-35.833 Z-6.000 I1.061 J-1.060 F1200.000 
G1 X166.500 Y-35.833 Z-6.000 F1200.000 
G1 X166.939 Y-36.273 
G1 X166.500 Y-35.833 
G1 X166.500 Y-19.000 Z-6.000 F1200.000 
G2 X168.000 Y-17.500 Z-6.000 I1.500 J-0.000 F1200.000 
G1 X180.000 Y-17.500 Z-6.000 F1200.000 
G2 X181.500 Y-19.000 Z-6.000 I-0.000 J-1.500 F1200.000 
G1 X181.500 Y-29.500 Z-6.000 F1200.000 
G1 X181.061 Y-29.939 
G1 X181.500 Y-29.500 
G1 X190.500 Y-29.500 Z-6.000 F1200.000 
G1 X190.939 Y-29.939 
G1 X190.500 Y-29.500 
G1 X190.500 Y-19.000 Z-6.000 F1200.000 
G2 X192.000 Y-17.500 Z-6.000 I1.500 J-0.000 F1200.000 
G1 X252.000 Y-17.500 Z-6.000 F1200.000 
G2 X253.500 Y-19.000 Z-6.000 I-0.000 J-1.500 F1200.000 
G1 X253.500 Y-29.500 Z-6.000 F1200.000 
G1 X253.061 Y-29.939 
G1 X253.500 Y-29.500 
G1 X262.500 Y-29.500 Z-6.000 F1200.000 
G1 X262.939 Y-29.939 
G1 X262.500 Y-29.500 
G1 X262.500 Y-19.000 Z-6.000 F1200.000 
G2 X264.000 Y-17.500 Z-6.000 I1.500 J-0.000 F1200.000 
G1 X276.000 Y-17.500 Z-6.000 F1200.000 
G2 X277.500 Y-19.000 Z-6.000 I-0.000 J-1.500 F1200.000 
G1 X277.500 Y-35.833 Z-6.000 F1200.000 
G1 X277.061 Y-36.273 
G1 X277.500 Y-35.833 
G1 X288.000 Y-35.833 Z-6.000 F1200.000 
G2 X289.500 Y-37.333 Z-6.000 I-0.000 J-1.500 F1200.000 
G1 X289.500 Y-55.667 Z-6.000 F1200.000 
G2 X288.000 Y-57.167 Z-6.000 I-1.500 J0.000 F1200.000 
G1 X277.500 Y-57.167 Z-6.000 F1200.000 
G1 X277.061 Y-56.727 
G1 X277.500 Y-57.167 
G1 X277.500 Y-90.833 Z-6.000 F1200.000 
G1 X277.061 Y-91.273 
G1 X277.500 Y-90.833 
G1 X288.000 Y-90.833 Z-6.000 F1200.000 
G2 X289.500 Y-92.333 Z-6.000 I-0.000 J-1.500 F1200.000 
G1 X289.500 Y-110.667 Z-6.000 F1200.000 
G2 X288.000 Y-112.167 Z-6.000 I-1.500 J0.000 F1200.000 
G1 X277.500 Y-112.167 Z-6.000 F1200.000 
G1 X277.061 Y-111.727 
G1 X277.500 Y-112.167 
G1 X277.500 Y-129.000 Z-6.000 F1200.000 
G2 X276.000 Y-130.500 Z-6.000 I-1.500 J0.000 F1200.000 
G1 X168.000 Y-130.500 Z-6.000 F1200.000 
G2 X166.500 Y-129.000 Z-6.000 I0.000 J1.500 F1200.000 
G1 X166.500 Y-112.167 Z-6.000 F1200.000 
G1 X166.939 Y-111.727 
G1 X166.500 Y-112.167 
G1 X156.000 Y-112.167 Z-6.000 F1200.000 
G2 X154.500 Y-110.667 Z-6.000 I0.000 J1.500 F1200.000 
G1 X154.500 Y-92.333 Z-6.000 F1200.000 
G2 X156.000 Y-90.833 Z-6.000 I1.500 J-0.000 F1200.000 
G1 X166.500 Y-90.833 Z-6.000 F1200.000 
G1 X166.939 Y-91.273 
G1 X166.500 Y-90.833 
G1 X166.500 Y-57.167 Z-6.000 F1200.000 
G1 X166.939 Y-56.727 
G1 X166.500 Y-57.167 
G1 X156.000 Y-57.167 Z-6.000 F1200.000 
G2 X154.500 Y-55.667 Z-6.000 I0.000 J1.500 F1200.000 
G1 X154.500 Y-37.333 Z-6.000 F1200.000 
G2 X154.939 Y-36.273 Z-6.000 I1.500 J-0.000 F1200.000 
G1 X154.939 Y-36.273 Z-9.000 F500.000 
G2 X156.000 Y-35.833 Z-9.000 I1.061 J-1.060 F1200.000 
G1 X166.500 Y-35.833 Z-9.000 F1200.000 
G1 X166.939 Y-36.273 
G1 X166.500 Y-35.833 
G1 X166.500 Y-19.000 Z-9.000 F1200.000 
G2 X168.000 Y-17.500 Z-9.000 I1.500 J-0.000 F1200.000 
G1 X180.000 Y-17.500 Z-9.000 F1200.000 
G2 X181.500 Y-19.000 Z-9.000 I-0.000 J-1.500 F1200.000 
G1 X181.500 Y-29.500 Z-9.000 F1200.000 
G1 X181.061 Y-29.939 
G1 X181.500 Y-29.500 
G1 X190.500 Y-29.500 Z-9.000 F1200.000 
G1 X190.939 Y-29.939 
G1 X190.500 Y-29.500 
G1 X190.500 Y-19.000 Z-9.000 F1200.000 
G2 X192.000 Y-17.500 Z-9.000 I1.500 J-0.000 F1200.000 
G1 X252.000 Y-17.500 Z-9.000 F1200.000 
G2 X253.500 Y-19.000 Z-9.000 I-0.000 J-1.500 F1200.000 
G1 X253.500 Y-29.500 Z-9.000 F1200.000 
G1 X253.061 Y-29.939 
G1 X253.500 Y-29.500 
G1 X262.500 Y-29.500 Z-9.000 F1200.000 
G1 X262.939 Y-29.939 
G1 X262.500 Y-29.500 
G1 X262.500 Y-19.000 Z-9.000 F1200.000 
G2 X264.000 Y-17.500 Z-9.000 I1.500 J-0.000 F1200.000 
G1 X276.000 Y-17.500 Z-9.000 F1200.000 
G2 X277.500 Y-19.000 Z-9.000 I-0.000 J-1.500 F1200.000 
G1 X277.500 Y-35.833 Z-9.000 F1200.000 
G1 X277.061 Y-36.273 
G1 X277.500 Y-35.833 
G1 X288.000 Y-35.833 Z-9.000 F1200.000 
G2 X289.500 Y-37.333 Z-9.000 I-0.000 J-1.500 F1200.000 
G1 X289.500 Y-55.667 Z-9.000 F1200.000 
G2 X288.000 Y-57.167 Z-9.000 I-1.500 J0.000 F1200.000 
G1 X277.500 Y-57.167 Z-9.000 F1200.000 
G1 X277.061 Y-56.727 
G1 X277.500 Y-57.167 
G1 X277.500 Y-90.833 Z-9.000 F1200.000 
G1 X277.061 Y-91.273 
G1 X277.500 Y-90.833 
G1 X288.000 Y-90.833 Z-9.000 F1200.000 
G2 X289.500 Y-92.333 Z-9.000 I-0.000 J-1.500 F1200.000 
G1 X289.500 Y-110.667 Z-9.000 F1200.000 
G2 X288.000 Y-112.167 Z-9.000 I-1.500 J0.000 F1200.000 
G1 X277.500 Y-112.167 Z-9.000 F1200.000 
G1 X277.061 Y-111.727 
G1 X277.500 Y-112.167 
G1 X277.500 Y-129.000 Z-9.000 F1200.000 
G2 X276.000 Y-130.500 Z-9.000 I-1.500 J0.000 F1200.000 
G1 X168.000 Y-130.500 Z-9.000 F1200.000 
G2 X166.500 Y-129.000 Z-9.000 I0.000 J1.500 F1200.000 
G1 X166.500 Y-112.167 Z-9.000 F1200.000 
G1 X166.939 Y-111.727 
G1 X166.500 Y-112.167 
G1 X156.000 Y-112.167 Z-9.000 F1200.000 
G2 X154.500 Y-110.667 Z-9.000 I0.000 J1.500 F1200.000 
G1 X154.500 Y-92.333 Z-9.000 F1200.000 
G2 X156.000 Y-90.833 Z-9.000 I1.500 J-0.000 F1200.000 
G1 X166.500 Y-90.833 Z-9.000 F1200.000 
G1 X166.939 Y-91.273 
G1 X166.500 Y-90.833 
G1 X166.500 Y-57.167 Z-9.000 F1200.000 
G1 X166.939 Y-56.727 
G1 X166.500 Y-57.167 
G1 X156.000 Y-57.167 Z-9.000 F1200.000 
G2 X154.500 Y-55.667 Z-9.000 I0.000 J1.500 F1200.000 
G1 X154.500 Y-37.333 Z-9.000 F1200.000 
G2 X154.939 Y-36.273 Z-9.000 I1.500 J-0.000 F1200.000 
G1 X154.939 Y-36.273 Z-12.000 F500.000 
G2 X156.000 Y-35.833 Z-12.000 I1.061 J-1.060 F1200.000 
G1 X166.500 Y-35.833 Z-12.000 F1200.000 
G1 X166.939 Y-36.273 
G1 X166.500 Y-35.833 
G1 X166.500 Y-19.000 Z-12.000 F1200.000 
G2 X168.000 Y-17.500 Z-12.000 I1.500 J-0.000 F1200.000 
G1 X180.000 Y-17.500 Z-12.000 F1200.000 
G2 X181.500 Y-19.000 Z-12.000 I-0.000 J-1.500 F1200.000 
G1 X181.500 Y-29.500 Z-12.000 F1200.000 
G1 X181.061 Y-29.939 
G1 X181.500 Y-29.500 
G1 X190.500 Y-29.500 Z-12.000 F1200.000 
G1 X190.939 Y-29.939 
G1 X190.500 Y-29.500 
G1 X190.500 Y-19.000 Z-12.000 F1200.000 
G2 X192.000 Y-17.500 Z-12.000 I1.500 J-0.000 F1200.000 
G1 X252.000 Y-17.500 Z-12.000 F1200.000 
G2 X253.500 Y-19.000 Z-12.000 I-0.000 J-1.500 F1200.000 
G1 X253.500 Y-29.500 Z-12.000 F1200.000 
G1 X253.061 Y-29.939 
G1 X253.500 Y-29.500 
G1 X262.500 Y-29.500 Z-12.000 F1200.000 
G1 X262.939 Y-29.939 
G1 X262.500 Y-29.500 
G1 X262.500 Y-19.000 Z-12.000 F1200.000 
G2 X264.000 Y-17.500 Z-12.000 I1.500 J-0.000 F1200.000 
G1 X276.000 Y-17.500 Z-12.000 F1200.000 
G2 X277.500 Y-19.000 Z-12.000 I-0.000 J-1.500 F1200.000 
G1 X277.500 Y-35.833 Z-12.000 F1200.000 
G1 X277.061 Y-36.273 
G1 X277.500 Y-35.833 
G1 X288.000 Y-35.833 Z-12.000 F1200.000 
G2 X289.500 Y-37.333 Z-12.000 I-0.000 J-1.500 F1200.000 
G1 X289.500 Y-55.667 Z-12.000 F1200.000 
G2 X288.000 Y-57.167 Z-12.000 I-1.500 J0.000 F1200.000 
G1 X277.500 Y-57.167 Z-12.000 F1200.000 
G1 X277.061 Y-56.727 
G1 X277.500 Y-57.167 
G1 X277.500 Y-90.833 Z-12.000 F1200.000 
G1 X277.061 Y-91.273 
G1 X277.500 Y-90.833 
G1 X288.000 Y-90.833 Z-12.000 F1200.000 
G2 X289.500 Y-92.333 Z-12.000 I-0.000 J-1.500 F1200.000 
G1 X289.500 Y-110.667 Z-12.000 F1200.000 
G2 X288.000 Y-112.167 Z-12.000 I-1.500 J0.000 F1200.000 
G1 X277.500 Y-112.167 Z-12.000 F1200.000 
G1 X277.061 Y-111.727 
G1 X277.500 Y-112.167 
G1 X277.500 Y-129.000 Z-12.000 F1200.000 
G2 X276.000 Y-130.500 Z-12.000 I-1.500 J0.000 F1200.000 
G1 X168.000 Y-130.500 Z-12.000 F1200.000 
G2 X166.500 Y-129.000 Z-12.000 I0.000 J1.500 F1200.000 
G1 X166.500 Y-112.167 Z-12.000 F1200.000 
G1 X166.939 Y-111.727 
G1 X166.500 Y-112.167 
G1 X156.000 Y-112.167 Z-12.000 F1200.000 
G2 X154.500 Y-110.667 Z-12.000 I0.000 J1.500 F1200.000 
G1 X154.500 Y-92.333 Z-12.000 F1200.000 
G2 X156.000 Y-90.833 Z-12.000 I1.500 J-0.000 F1200.000 
G1 X166.500 Y-90.833 Z-12.000 F1200.000 
G1 X166.939 Y-91.273 
G1 X166.500 Y-90.833 
G1 X166.500 Y-57.167 Z-12.000 F1200.000 
G1 X166.939 Y-56.727 
G1 X166.500 Y-57.167 
G1 X156.000 Y-57.167 Z-12.000 F1200.000 
G2 X154.500 Y-55.667 Z-12.000 I0.000 J1.500 F1200.000 
G1 X154.500 Y-37.333 Z-12.000 F1200.000 
G2 X154.939 Y-36.273 Z-12.000 I1.500 J-0.000 F1200.000 
G0 Z5.000 
G0 Z5.000 
G0 X154.939 Y-36.273 
G0 X294.517 Y-57.277 
G0 X294.517 Y-57.277 Z3.000 
G1 X294.517 Y-57.277 Z-3.000 F500.000 
G2 X296.000 Y-56.000 Z-3.000 I1.483 J-0.223 F1200.000 
G1 X320.000 Y-56.000 Z-3.000 F1200.000 
G2 X321.500 Y-57.500 Z-3.000 I-0.000 J-1.500 F1200.000 
G1 X321.500 Y-68.000 Z-3.000 F1200.000 
G1 X321.061 Y-68.439 
G1 X321.500 Y-68.000 
G1 X330.500 Y-68.000 Z-3.000 F1200.000 
G1 X330.939 Y-68.439 
G1 X330.500 Y-68.000 
G1 X330.500 Y-57.500 Z-3.000 F1200.000 
G2 X332.000 Y-56.000 Z-3.000 I1.500 J-0.000 F1200.000 
G1 X392.000 Y-56.000 Z-3.000 F1200.000 
G2 X393.500 Y-57.500 Z-3.000 I-0.000 J-1.500 F1200.000 
G1 X393.500 Y-68.000 Z-3.000 F1200.000 
G1 X393.061 Y-68.439 
G1 X393.500 Y-68.000 
G1 X402.500 Y-68.000 Z-3.000 F1200.000 
G1 X402.939 Y-68.439 
G1 X402.500 Y-68.000 
G1 X402.500 Y-57.500 Z-3.000 F1200.000 
G2 X404.000 Y-56.000 Z-3.000 I1.500 J-0.000 F1200.000 
G1 X428.000 Y-56.000 Z-3.000 F1200.000 
G2 X429.500 Y-57.500 Z-3.000 I-0.000 J-1.500 F1200.000 
G1 X429.500 Y-68.500 Z-3.000 F1200.000 
G2 X428.000 Y-70.000 Z-3.000 I-1.500 J0.000 F1200.000 
G1 X417.500 Y-70.000 Z-3.000 F1200.000 
G1 X417.061 Y-69.561 
G1 X417.500 Y-70.000 
G1 X417.500 Y-78.000 Z-3.000 F1200.000 
G1 X417.061 Y-78.439 
G1 X417.500 Y-78.000 
G1 X428.000 Y-78.000 Z-3.000 F1200.000 
G2 X429.500 Y-79.500 Z-3.000 I-0.000 J-1.500 F1200.000 
G1 X429.500 Y-90.500 Z-3.000 F1200.000 
G2 X428.000 Y-92.000 Z-3.000 I-1.500 J0.000 F1200.000 
G1 X296.000 Y-92.000 Z-3.000 F1200.000 
G2 X294.500 Y-90.500 Z-3.000 I0.000 J1.500 F1200.000 
G1 X294.500 Y-79.500 Z-3.000 F1200.000 
G2 X296.000 Y-78.000 Z-3.000 I1.500 J-0.000 F1200.000 
G1 X306.500 Y-78.000 Z-3.000 F1200.000 
G1 X306.939 Y-78.439 
G1 X306.500 Y-78.000 
G1 X306.500 Y-70.000 Z-3.000 F1200.000 
G1 X306.939 Y-69.561 
G1 X306.500 Y-70.000 
G1 X296.000 Y-70.000 Z-3.000 F1200.000 
G2 X294.500 Y-68.500 Z-3.000 I0.000 J1.500 F1200.000 
G1 X294.500 Y-57.500 Z-3.000 F1200.000 
G2 X294.517 Y-57.277 Z-3.000 I1.500 J-0.000 F1200.000 
G1 X294.517 Y-57.277 Z-6.000 F500.000 
G2 X296.000 Y-56.000 Z-6.000 I1.483 J-0.223 F1200.000 
G1 X320.000 Y-56.000 Z-6.000 F1200.000 
G2 X321.500 Y-57.500 Z-6.000 I-0.000 J-1.500 F1200.000 
G1 X321.500 Y-68.000 Z-6.000 F1200.000 
G1 X321.061 Y-68.439 
G1 X321.500 Y-68.000 
G1 X330.500 Y-68.000 Z-6.000 F1200.000 
G1 X330.939 Y-68.439 
G1 X330.500 Y-68.000 
G1 X330.500 Y-57.500 Z-6.000 F1200.000 
G2 X332.000 Y-56.000 Z-6.000 I1.500 J-0.000 F1200.000 
G1 X392.000 Y-56.000 Z-6.000 F1200.000 
G2 X393.500 Y-57.500 Z-6.000 I-0.000 J-1.500 F1200.000 
G1 X393.500 Y-68.000 Z-6.000 F1200.000 
G1 X393.061 Y-68.439 
G1 X393.500 Y-68.000 
G1 X402.500 Y-68.000 Z-6.000 F1200.000 
G1 X402.939 Y-68.439 
G1 X402.500 Y-68.000 
G1 X402.500 Y-57.500 Z-6.000 F1200.000 
G2 X404.000 Y-56.000 Z-6.000 I1.500 J-0.000 F1200.000 
G1 X428.000 Y-56.000 Z-6.000 F1200.000 
G2 X429.500 Y-57.500 Z-6.000 I-0.000 J-1.500 F1200.000 
G1 X429.500 Y-68.500 Z-6.000 F1200.000 
G2 X428.000 Y-70.000 Z-6.000 I-1.500 J0.000 F1200.000 
G1 X417.500 Y-70.000 Z-6.000 F1200.000 
G1 X417.061 Y-69.561 
G1 X417.500 Y-70.000 
G1 X417.500 Y-78.000 Z-6.000 F1200.000 
G1 X417.061 Y-78.439 
G1 X417.500 Y-78.000 
G1 X428.000 Y-78.000 Z-6.000 F1200.000 
G2 X429.500 Y-79.500 Z-6.000 I-0.000 J-1.500 F1200.000 
G1 X429.500 Y-90.500 Z-6.000 F1200.000 
G2 X428.000 Y-92.000 Z-6.000 I-1.500 J0.000 F1200.000 
G1 X296.000 Y-92.000 Z-6.000 F1200.000 
G2 X294.500 Y-90.500 Z-6.000 I0.000 J1.500 F1200.000 
G1 X294.500 Y-79.500 Z-6.000 F1200.000 
G2 X296.000 Y-78.000 Z-6.000 I1.500 J-0.000 F1200.000 
G1 X306.500 Y-78.000 Z-6.000 F1200.000 
G1 X306.939 Y-78.439 
G1 X306.500 Y-78.000 
G1 X306.500 Y-70.000 Z-6.000 F1200.000 
G1 X306.939 Y-69.561 
G1 X306.500 Y-70.000 
G1 X296.000 Y-70.000 Z-6.000 F1200.000 
G2 X294.500 Y-68.500 Z-6.000 I0.000 J1.500 F1200.000 
G1 X294.500 Y-57.500 Z-6.000 F1200.000 
G2 X294.517 Y-57.277 Z-6.000 I1.500 J-0.000 F1200.000 
G1 X294.517 Y-57.277 Z-9.000 F500.000 
G2 X296.000 Y-56.000 Z-9.000 I1.483 J-0.223 F1200.000 
G1 X320.000 Y-56.000 Z-9.000 F1200.000 
G2 X321.500 Y-57.500 Z-9.000 I-0.000 J-1.500 F1200.000 
G1 X321.500 Y-68.000 Z-9.000 F1200.000 
G1 X321.061 Y-68.439 
G1 X321.500 Y-68.000 
G1 X330.500 Y-68.000 Z-9.000 F1200.000 
G1 X330.939 Y-68.439 
G1 X330.500 Y-68.000 
G1 X330.500 Y-57.500 Z-9.000 F1200.000 
G2 X332.000 Y-56.000 Z-9.000 I1.500 J-0.000 F1200.000 
G1 X392.000 Y-56.000 Z-9.000 F1200.000 
G2 X393.500 Y-57.500 Z-9.000 I-0.000 J-1.500 F1200.000 
G1 X393.500 Y-68.000 Z-9.000 F1200.000 
G1 X393.061 Y-68.439 
G1 X393.500 Y-68.000 
G1 X402.500 Y-68.000 Z-9.000 F1200.000 
G1 X402.939 Y-68.439 
G1 X402.500 Y-68.000 
G1 X402.500 Y-57.500 Z-9.000 F1200.000 
G2 X404.000 Y-56.000 Z-9.000 I1.500 J-0.000 F1200.000 
G1 X428.000 Y-56.000 Z-9.000 F1200.000 
G2 X429.500 Y-57.500 Z-9.000 I-0.000 J-1.500 F1200.000 
G1 X429.500 Y-68.500 Z-9.000 F1200.000 
G2 X428.000 Y-70.000 Z-9.000 I-1.500 J0.000 F1200.000 
G1 X417.500 Y-70.000 Z-9.000 F1200.000 
G1 X417.061 Y-69.561 
G1 X417.500 Y-70.000 
G1 X417.500 Y-78.000 Z-9.000 F1200.000 
G1 X417.061 Y-78.439 
G1 X417.500 Y-78.000 
G1 X428.000 Y-78.000 Z-9.000 F1200.000 
G2 X429.500 Y-79.500 Z-9.000 I-0.000 J-1.500 F1200.000 
G1 X429.500 Y-90.500 Z-9.000 F1200.000 
G2 X428.000 Y-92.000 Z-9.000 I-1.500 J0.000 F1200.000 
G1 X296.000 Y-92.000 Z-9.000 F1200.000 
G2 X294.500 Y-90.500 Z-9.000 I0.000 J1.500 F1200.000 
G1 X294.500 Y-79.500 Z-9.000 F1200.000 
G2 X296.000 Y-78.000 Z-9.000 I1.500 J-0.000 F1200.000 
G1 X306.500 Y-78.000 Z-9.000 F1200.000 
G1 X306.939 Y-78.439 
G1 X306.500 Y-78.000 
G1 X306.500 Y-70.000 Z-9.000 F1200.000 
G1 X306.939 Y-69.561 
G1 X306.500 Y-70.000 
G1 X296.000 Y-70.000 Z-9.000 F1200.000 
G2 X294.500 Y-68.500 Z-9.000 I0.000 J1.500 F1200.000 
G1 X294.500 Y-57.500 Z-9.000 F1200.000 
G2 X294.517 Y-57.277 Z-9.000 I1.500 J-0.000 F1200.000 
G1 X294.517 Y-57.277 Z-12.000 F500.000 
G2 X296.000 Y-56.000 Z-12.000 I1.483 J-0.223 F1200.000 
G1 X320.000 Y-56.000 Z-12.000 F1200.000 
G2 X321.500 Y-57.500 Z-12.000 I-0.000 J-1.500 F1200.000 
G1 X321.500 Y-68.000 Z-12.000 F1200.000 
G1 X321.061 Y-68.439 
G1 X321.500 Y-68.000 
G1 X330.500 Y-68.000 Z-12.000 F1200.000 
G1 X330.939 Y-68.439 
G1 X330.500 Y-68.000 
G1 X330.500 Y-57.500 Z-12.000 F1200.000 
G2 X332.000 Y-56.000 Z-12.000 I1.500 J-0.000 F1200.000 
G1 X392.000 Y-56.000 Z-12.000 F1200.000 
G2 X393.500 Y-57.500 Z-12.000 I-0.000 J-1.500 F1200.000 
G1 X393.500 Y-68.000 Z-12.000 F1200.000 
G1 X393.061 Y-68.439 
G1 X393.500 Y-68.000 
G1 X402.500 Y-68.000 Z-12.000 F1200.000 
G1 X402.939 Y-68.439 
G1 X402.500 Y-68.000 
G1 X402.500 Y-57.500 Z-12.000 F1200.000 
G2 X404.000 Y-56.000 Z-12.000 I1.500 J-0.000 F1200.000 
G1 X428.000 Y-56.000 Z-12.000 F1200.000 
G2 X429.500 Y-57.500 Z-12.000 I-0.000 J-1.500 F1200.000 
G1 X429.500 Y-68.500 Z-12.000 F1200.000 
G2 X428.000 Y-70.000 Z-12.000 I-1.500 J0.000 F1200.000 
G1 X417.500 Y-70.000 Z-12.000 F1200.000 
G1 X417.061 Y-69.561 
G1 X417.500 Y-70.000 
G1 X417.500 Y-78.000 Z-12.000 F1200.000 
G1 X417.061 Y-78.439 
G1 X417.500 Y-78.000 
G1 X428.000 Y-78.000 Z-12.000 F1200.000 
G2 X429.500 Y-79.500 Z-12.000 I-0.000 J-1.500 F1200.000 
G1 X429.500 Y-90.500 Z-12.000 F1200.000 
G2 X428.000 Y-92.000 Z-12.000 I-1.500 J0.000 F1200.000 
G1 X296.000 Y-92.000 Z-12.000 F1200.000 
G2 X294.500 Y-90.500 Z-12.000 I0.000 J1.500 F1200.000 
G1 X294.500 Y-79.500 Z-12.000 F1200.000 
G2 X296.000 Y-78.000 Z-12.000 I1.500 J-0.000 F1200.000 
G1 X306.500 Y-78.000 Z-12.000 F1200.000 
G1 X306.939 Y-78.439 
G1 X306.500 Y-78.000 
G1 X306.500 Y-70.000 Z-12.000 F1200.000 
G1 X306.939 Y-69.561 
G1 X306.500 Y-70.000 
G1 X296.000 Y-70.000 Z-12.000 F1200.000 
G2 X294.500 Y-68.500 Z-12.000 I0.000 J1.500 F1200.000 
G1 X294.500 Y-57.500 Z-12.000 F1200.000 
G2 X294.517 Y-57.277 Z-12.000 I1.500 J-0.000 F1200.000 
G0 Z5.000 
G0 Z5.000 
G0 X294.517 Y-57.277 
G0 X295.945 Y-96.001 
G0 X295.945 Y-96.001 Z3.000 
G1 X295.945 Y-96.001 Z-3.000 F500.000 
G2 X296.000 Y-96.000 Z-3.000 I0.055 J-1.499 F1200.000 
G1 X320.000 Y-96.000 Z-3.000 F1200.000 
G2 X321.500 Y-97.500 Z-3.000 I-0.000 J-1.500 F1200.000 
G1 X321.500 Y-108.000 Z-3.000 F1200.000 
G1 X321.061 Y-108.439 
G1 X321.500 Y-108.000 
G1 X330.500 Y-108.000 Z-3.000 F1200.000 
G1 X330.939 Y-108.439 
G1 X330.500 Y-108.000 
G1 X330.500 Y-97.500 Z-3.000 F1200.000 
G2 X332.000 Y-96.000 Z-3.000 I1.500 J-0.000 F1200.000 
G1 X392.000 Y-96.000 Z-3.000 F1200.000 
G2 X393.500 Y-97.500 Z-3.000 I-0.000 J-1.500 F1200.000 
G1 X393.500 Y-108.000 Z-3.000 F1200.000 
G1 X393.061 Y-108.439 
G1 X393.500 Y-108.000 
G1 X402.500 Y-108.000 Z-3.000 F1200.000 
G1 X402.939 Y-108.439 
G1 X402.500 Y-108.000 
G1 X402.500 Y-97.500 Z-3.000 F1200.000 
G2 X404.000 Y-96.000 Z-3.000 I1.500 J-0.000 F1200.000 
G1 X428.000 Y-96.000 Z-3.000 F1200.000 
G2 X429.500 Y-97.500 Z-3.000 I-0.000 J-1.500 F1200.000 
G1 X429.500 Y-108.500 Z-3.000 F1200.000 
G2 X428.000 Y-110.000 Z-3.000 I-1.500 J0.000 F1200.000 
G1 X417.500 Y-110.000 Z-3.000 F1200.000 
G1 X417.061 Y-109.561 
G1 X417.500 Y-110.000 
G1 X417.500 Y-118.000 Z-3.000 F1200.000 
G1 X417.061 Y-118.439 
G1 X417.500 Y-118.000 
G1 X428.000 Y-118.000 Z-3.000 F1200.000 
G2 X429.500 Y-119.500 Z-3.000 I-0.000 J-1.500 F1200.000 
G1 X429.500 Y-130.500 Z-3.000 F1200.000 
G2 X428.000 Y-132.000 Z-3.000 I-1.500 J0.000 F1200.000 
G1 X296.000 Y-132.000 Z-3.000 F1200.000 
G2 X294.500 Y-130.500 Z-3.000 I0.000 J1.500 F1200.000 
G1 X294.500 Y-119.500 Z-3.000 F1200.000 
G2 X296.000 Y-118.000 Z-3.000 I1.500 J-0.000 F1200.000 
G1 X306.500 Y-118.000 Z-3.000 F1200.000 
G1 X306.939 Y-118.439 
G1 X306.500 Y-118.000 
G1 X306.500 Y-110.000 Z-3.000 F1200.000 
G1 X306.939 Y-109.561 
G1 X306.500 Y-110.000 
G1 X296.000 Y-110.000 Z-3.000 F1200.000 
G2 X294.500 Y-108.500 Z-3.000 I0.000 J1.500 F1200.000 
G1 X294.500 Y-97.500 Z-3.000 F1200.000 
G2 X295.945 Y-96.001 Z-3.000 I1.500 J-0.000 F1200.000 
G1 X295.945 Y-96.001 Z-6.000 F500.000 
G2 X296.000 Y-96.000 Z-6.000 I0.055 J-1.499 F1200.000 
G1 X320.000 Y-96.000 Z-6.000 F1200.000 
G2 X321.500 Y-97.500 Z-6.000 I-0.000 J-1.500 F1200.000 
G1 X321.500 Y-108.000 Z-6.000 F1200.000 
G1 X321.061 Y-108.439 
G1 X321.500 Y-108.000 
G1 X330.500 Y-108.000 Z-6.000 F1200.000 
G1 X330.939 Y-108.439 
G1 X330.500 Y-108.000 
G1 X330.500 Y-97.500 Z-6.000 F1200.000 
G2 X332.000 Y-96.000 Z-6.000 I1.500 J-0.000 F1200.000 
G1 X392.000 Y-96.000 Z-6.000 F1200.000 
G2 X393.500 Y-97.500 Z-6.000 I-0.000 J-1.500 F1200.000 
G1 X393.500 Y-108.000 Z-6.000 F1200.000 
G1 X393.061 Y-108.439 
G1 X393.500 Y-108.000 
G1 X402.500 Y-108.000 Z-6.000 F1200.000 
G1 X402.939 Y-108.439 
G1 X402.500 Y-108.000 
G1 X402.500 Y-97.500 Z-6.000 F1200.000 
G2 X404.000 Y-96.000 Z-6.000 I1.500 J-0.000 F1200.000 
G1 X428.000 Y-96.000 Z-6.000 F1200.000 
G2 X429.500 Y-97.500 Z-6.000 I-0.000 J-1.500 F1200.000 
G1 X429.500 Y-108.500 Z-6.000 F1200.000 
G2 X428.000 Y-110.000 Z-6.000 I-1.500 J0.000 F1200.000 
G1 X417.500 Y-110.000 Z-6.000 F1200.000 
G1 X417.061 Y-109.561 
G1 X417.500 Y-110.000 
G1 X417.500 Y-118.000 Z-6.000 F1200.000 
G1 X417.061 Y-118.439 
G1 X417.500 Y-118.000 
G1 X428.000 Y-118.000 Z-6.000 F1200.000 
G2 X429.500 Y-119.500 Z-6.000 I-0.000 J-1.500 F1200.000 
G1 X429.500 Y-130.500 Z-6.000 F1200.000 
G2 X428.000 Y-132.000 Z-6.000 I-1.500 J0.000 F1200.000 
G1 X296.000 Y-132.000 Z-6.000 F1200.000 
G2 X294.500 Y-130.500 Z-6.000 I0.000 J1.500 F1200.000 
G1 X294.500 Y-119.500 Z-6.000 F1200.000 
G2 X296.000 Y-118.000 Z-6.000 I1.500 J-0.000 F1200.000 
G1 X306.500 Y-118.000 Z-6.000 F1200.000 
G1 X306.939 Y-118.439 
G1 X306.500 Y-118.000 
G1 X306.500 Y-110.000 Z-6.000 F1200.000 
G1 X306.939 Y-109.561 
G1 X306.500 Y-110.000 
G1 X296.000 Y-110.000 Z-6.000 F1200.000 
G2 X294.500 Y-108.500 Z-6.000 I0.000 J1.500 F1200.000 
G1 X294.500 Y-97.500 Z-6.000 F1200.000 
G2 X295.945 Y-96.001 Z-6.000 I1.500 J-0.000 F1200.000 
G1 X295.945 Y-96.001 Z-9.000 F500.000 
G2 X296.000 Y-96.000 Z-9.000 I0.055 J-1.499 F1200.000 
G1 X320.000 Y-96.000 Z-9.000 F1200.000 
G2 X321.500 Y-97.500 Z-9.000 I-0.000 J-1.500 F1200.000 
G1 X321.500 Y-108.000 Z-9.000 F1200.000 
G1 X321.061 Y-108.439 
G1 X321.500 Y-108.000 
G1 X330.500 Y-108.000 Z-9.000 F1200.000 
G1 X330.939 Y-108.439 
G1 X330.500 Y-108.000 
G1 X330.500 Y-97.500 Z-9.000 F1200.000 
G2 X332.000 Y-96.000 Z-9.000 I1.500 J-0.000 F1200.000 
G1 X392.000 Y-96.000 Z-9.000 F1200.000 
G2 X393.500 Y-97.500 Z-9.000 I-0.000 J-1.500 F1200.000 
G1 X393.500 Y-108.000 Z-9.000 F1200.000 
G1 X393.061 Y-108.439 
G1 X393.500 Y-108.000 
G1 X402.500 Y-108.000 Z-9.000 F1200.000 
G1 X402.939 Y-108.439 
G1 X402.500 Y-108.000 
G1 X402.500 Y-97.500 Z-9.000 F1200.000 
G2 X404.000 Y-96.000 Z-9.000 I1.500 J-0.000 F1200.000 
G1 X428.000 Y-96.000 Z-9.000 F1200.000 
G2 X429.500 Y-97.500 Z-9.000 I-0.000 J-1.500 F1200.000 
G1 X429.500 Y-108.500 Z-9.000 F1200.000 
G2 X428.000 Y-110.000 Z-9.000 I-1.500 J0.000 F1200.000 
G1 X417.500 Y-110.000 Z-9.000 F1200.000 
G1 X417.061 Y-109.561 
G1 X417.500 Y-110.000 
G1 X417.500 Y-118.000 Z-9.000 F1200.000 
G1 X417.061 Y-118.439 
G1 X417.500 Y-118.000 
G1 X428.000 Y-118.000 Z-9.000 F1200.000 
G2 X429.500 Y-119.500 Z-9.000 I-0.000 J-1.500 F1200.000 
G1 X429.500 Y-130.500 Z-9.000 F1200.000 
G2 X428.000 Y-132.000 Z-9.000 I-1.500 J0.000 F1200.000 
G1 X296.000 Y-132.000 Z-9.000 F1200.000 
G2 X294.500 Y-130.500 Z-9.000 I0.000 J1.500 F1200.000 
G1 X294.500 Y-119.500 Z-9.000 F1200.000 
G2 X296.000 Y-118.000 Z-9.000 I1.500 J-0.000 F1200.000 
G1 X306.500 Y-118.000 Z-9.000 F1200.000 
G1 X306.939 Y-118.439 
G1 X306.500 Y-118.000 
G1 X306.500 Y-110.000 Z-9.000 F1200.000 
G1 X306.939 Y-109.561 
G1 X306.500 Y-110.000 
G1 X296.000 Y-110.000 Z-9.000 F1200.000 
G2 X294.500 Y-108.500 Z-9.000 I0.000 J1.500 F1200.000 
G1 X294.500 Y-97.500 Z-9.000 F1200.000 
G2 X295.945 Y-96.001 Z-9.000 I1.500 J-0.000 F1200.000 
G1 X295.945 Y-96.001 Z-12.000 F500.000 
G2 X296.000 Y-96.000 Z-12.000 I0.055 J-1.499 F1200.000 
G1 X320.000 Y-96.000 Z-12.000 F1200.000 
G2 X321.500 Y-97.500 Z-12.000 I-0.000 J-1.500 F1200.000 
G1 X321.500 Y-108.000 Z-12.000 F1200.000 
G1 X321.061 Y-108.439 
G1 X321.500 Y-108.000 
G1 X330.500 Y-108.000 Z-12.000 F1200.000 
G1 X330.939 Y-108.439 
G1 X330.500 Y-108.000 
G1 X330.500 Y-97.500 Z-12.000 F1200.000 
G2 X332.000 Y-96.000 Z-12.000 I1.500 J-0.000 F1200.000 
G1 X392.000 Y-96.000 Z-12.000 F1200.000 
G2 X393.500 Y-97.500 Z-12.000 I-0.000 J-1.500 F1200.000 
G1 X393.500 Y-108.000 Z-12.000 F1200.000 
G1 X393.061 Y-108.439 
G1 X393.500 Y-108.000 
G1 X402.500 Y-108.000 Z-12.000 F1200.000 
G1 X402.939 Y-108.439 
G1 X402.500 Y-108.000 
G1 X402.500 Y-97.500 Z-12.000 F1200.000 
G2 X404.000 Y-96.000 Z-12.000 I1.500 J-0.000 F1200.000 
G1 X428.000 Y-96.000 Z-12.000 F1200.000 
G2 X429.500 Y-97.500 Z-12.000 I-0.000 J-1.500 F1200.000 
G1 X429.500 Y-108.500 Z-12.000 F1200.000 
G2 X428.000 Y-110.000 Z-12.000 I-1.500 J0.000 F1200.000 
G1 X417.500 Y-110.000 Z-12.000 F1200.000 
G1 X417.061 Y-109.561 
G1 X417.500 Y-110.000 
G1 X417.500 Y-118.000 Z-12.000 F1200.000 
G1 X417.061 Y-118.439 
G1 X417.500 Y-118.000 
G1 X428.000 Y-118.000 Z-12.000 F1200.000 
G2 X429.500 Y-119.500 Z-12.000 I-0.000 J-1.500 F1200.000 
G1 X429.500 Y-130.500 Z-12.000 F1200.000 
G2 X428.000 Y-132.000 Z-12.000 I-1.500 J0.000 F1200.000 
G1 X296.000 Y-132.000 Z-12.000 F1200.000 
G2 X294.500 Y-130.500 Z-12.000 I0.000 J1.500 F1200.000 
G1 X294.500 Y-119.500 Z-12.000 F1200.000 
G2 X296.000 Y-118.000 Z-12.000 I1.500 J-0.000 F1200.000 
G1 X306.500 Y-118.000 Z-12.000 F1200.000 
G1 X306.939 Y-118.439 
G1 X306.500 Y-118.000 
G1 X306.500 Y-110.000 Z-12.000 F1200.000 
G1 X306.939 Y-109.561 
G1 X306.500 Y-110.000 
G1 X296.000 Y-110.000 Z-12.000 F1200.000 
G2 X294.500 Y-108.500 Z-12.000 I0.000 J1.500 F1200.000 
G1 X294.500 Y-97.500 Z-12.000 F1200.000 
G2 X295.945 Y-96.001 Z-12.000 I1.500 J-0.000 F1200.000 
G0 Z5.000 
G0 Z5.000 
G0 X295.945 Y-96.001 
G0 X305.794 Y-137.540 
G0 X305.794 Y-137.540 Z3.000 
G1 X305.794 Y-137.540 Z-3.000 F500.000 
G2 X306.140 Y-137.500 Z-3.000 I0.346 J-1.460 F1200.000 
G1 X348.210 Y-137.500 Z-3.000 F1200.000 
G2 X349.710 Y-139.000 Z-3.000 I-0.000 J-1.500 F1200.000 
G1 X349.710 Y-149.500 Z-3.000 F1200.000 
G1 X349.271 Y-149.939 
G1 X349.710 Y-149.500 
G1 X388.780 Y-149.500 Z-3.000 F1200.000 
G1 X389.219 Y-149.939 
G1 X388.780 Y-149.500 
G1 X388.780 Y-139.000 Z-3.000 F1200.000 
G2 X390.280 Y-137.500 Z-3.000 I1.500 J-0.000 F1200.000 
G1 X432.350 Y-137.500 Z-3.000 F1200.000 
G2 X433.850 Y-139.000 Z-3.000 I-0.000 J-1.500 F1200.000 
G1 X433.850 Y-157.333 Z-3.000 F1200.000 
G2 X432.350 Y-158.833 Z-3.000 I-1.500 J0.000 F1200.000 
G1 X421.850 Y-158.833 Z-3.000 F1200.000 
G1 X421.411 Y-158.394 
G1 X421.850 Y-158.833 
G1 X421.850 Y-174.167 Z-3.000 F1200.000 
G1 X421.411 Y-174.606 
G1 X421.850 Y-174.167 
G1 X432.350 Y-174.167 Z-3.000 F1200.000 
G2 X433.850 Y-175.667 Z-3.000 I-0.000 J-1.500 F1200.000 
G1 X433.850 Y-212.333 Z-3.000 F1200.000 
G2 X432.350 Y-213.833 Z-3.000 I-1.500 J0.000 F1200.000 
G1 X421.850 Y-213.833 Z-3.000 F1200.000 
G1 X421.411 Y-213.394 
G1 X421.850 Y-213.833 
G1 X421.850 Y-229.167 Z-3.000 F1200.000 
G1 X421.411 Y-229.606 
G1 X421.850 Y-229.167 
G1 X432.350 Y-229.167 Z-3.000 F1200.000 
G2 X433.850 Y-230.667 Z-3.000 I-0.000 J-1.500 F1200.000 
G1 X433.850 Y-249.000 Z-3.000 F1200.000 
G2 X432.350 Y-250.500 Z-3.000 I-1.500 J0.000 F1200.000 
G1 X11.650 Y-250.500 Z-3.000 F1200.000 
G2 X10.150 Y-249.000 Z-3.000 I0.000 J1.500 F1200.000 
G1 X10.150 Y-230.667 Z-3.000 F1200.000 
G2 X11.650 Y-229.167 Z-3.000 I1.500 J-0.000 F1200.000 
G1 X22.150 Y-229.167 Z-3.000 F1200.000 
G1 X22.589 Y-229.606 
G1 X22.150 Y-229.167 
G1 X22.150 Y-213.833 Z-3.000 F1200.000 
G1 X22.589 Y-213.394 
G1 X22.150 Y-213.833 
G1 X11.650 Y-213.833 Z-3.000 F1200.000 
G2 X10.150 Y-212.333 Z-3.000 I0.000 J1.500 F1200.000 
G1 X10.150 Y-175.667 Z-3.000 F1200.000 
G2 X11.650 Y-174.167 Z-3.000 I1.500 J-0.000 F1200.000 
G1 X22.150 Y-174.167 Z-3.000 F1200.000 
G1 X22.589 Y-174.606 
G1 X22.150 Y-174.167 
G1 X22.150 Y-158.833 Z-3.000 F1200.000 
G1 X22.589 Y-158.394 
G1 X22.150 Y-158.833 
G1 X11.650 Y-158.833 Z-3.000 F1200.000 
G2 X10.150 Y-157.333 Z-3.000 I0.000 J1.500 F1200.000 
G1 X10.150 Y-139.000 Z-3.000 F1200.000 
G2 X11.650 Y-137.500 Z-3.000 I1.500 J-0.000 F1200.000 
G1 X53.720 Y-137.500 Z-3.000 F1200.000 
G2 X55.220 Y-139.000 Z-3.000 I-0.000 J-1.500 F1200.000 
G1 X55.220 Y-149.500 Z-3.000 F1200.000 
G1 X54.781 Y-149.939 
G1 X55.220 Y-149.500 
G1 X94.290 Y-149.500 Z-3.000 F1200.000 
G1 X94.729 Y-149.939 
G1 X94.290 Y-149.500 
G1 X94.290 Y-139.000 Z-3.000 F1200.000 
G2 X95.790 Y-137.500 Z-3.000 I1.500 J-0.000 F1200.000 
G1 X137.860 Y-137.500 Z-3.000 F1200.000 
G2 X139.360 Y-139.000 Z-3.000 I-0.000 J-1.500 F1200.000 
G1 X139.360 Y-149.500 Z-3.000 F1200.000 
G1 X138.921 Y-149.939 
G1 X139.360 Y-149.500 
G1 X178.430 Y-149.500 Z-3.000 F1200.000 
G1 X178.869 Y-149.939 
G1 X178.430 Y-149.500 
G1 X178.430 Y-139.000 Z-3.000 F1200.000 
G2 X179.930 Y-137.500 Z-3.000 I1.500 J-0.000 F1200.000 
G1 X264.070 Y-137.500 Z-3.000 F1200.000 
G2 X265.570 Y-139.000 Z-3.000 I-0.000 J-1.500 F1200.000 
G1 X265.570 Y-149.500 Z-3.000 F1200.000 
G1 X265.131 Y-149.939 
G1 X265.570 Y-149.500 
G1 X304.640 Y-149.500 Z-3.000 F1200.000 
G1 X305.079 Y-149.939 
G1 X304.640 Y-149.500 
G1 X304.640 Y-139.000 Z-3.000 F1200.000 
G2 X305.794 Y-137.540 Z-3.000 I1.500 J-0.000 F1200.000 
G1 X305.794 Y-137.540 Z-6.000 F500.000 
G2 X306.140 Y-137.500 Z-6.000 I0.346 J-1.460 F1200.000 
G1 X348.210 Y-137.500 Z-6.000 F1200.000 
G2 X349.710 Y-139.000 Z-6.000 I-0.000 J-1.500 F1200.000 
G1 X349.710 Y-149.500 Z-6.000 F1200.000 
G1 X349.271 Y-149.939 
G1 X349.710 Y-149.500 
G1 X388.780 Y-149.500 Z-6.000 F1200.000 
G1 X389.219 Y-149.939 
G1 X388.780 Y-149.500 
G1 X388.780 Y-139.000 Z-6.000 F1200.000 
G2 X390.280 Y-137.500 Z-6.000 I1.500 J-0.000 F1200.000 
G1 X432.350 Y-137.500 Z-6.000 F1200.000 
G2 X433.850 Y-139.000 Z-6.000 I-0.000 J-1.500 F1200.000 
G1 X433.850 Y-157.333 Z-6.000 F1200.000 
G2 X432.350 Y-158.833 Z-6.000 I-1.500 J0.000 F1200.000 
G1 X421.850 Y-158.833 Z-6.000 F1200.000 
G1 X421.411 Y-158.394 
G1 X421.850 Y-158.833 
G1 X421.850 Y-174.167 Z-6.000 F1200.000 
G1 X421.411 Y-174.606 
G1 X421.850 Y-174.167 
G1 X432.350 Y-174.167 Z-6.000 F1200.000 
G2 X433.850 Y-175.667 Z-6.000 I-0.000 J-1.500 F1200.000 
G1 X433.850 Y-212.333 Z-6.000 F1200.000 
G2 X432.350 Y-213.833 Z-6.000 I-1.500 J0.000 F1200.000 
G1 X421.850 Y-213.833 Z-6.000 F1200.000 
G1 X421.411 Y-213.394 
G1 X421.850 Y-213.833 
G1 X421.850 Y-229.167 Z-6.000 F1200.000 
G1 X421.411 Y-229.606 
G1 X421.850 Y-229.167 
G1 X432.350 Y-229.167 Z-6.000 F1200.000 
G2 X433.850 Y-230.667 Z-6.000 I-0.000 J-1.500 F1200.000 
G1 X433.850 Y-249.000 Z-6.000 F1200.000 
G2 X432.350 Y-250.500 Z-6.000 I-1.500 J0.000 F1200.000 
G1 X11.650 Y-250.500 Z-6.000 F1200.000 
G2 X10.150 Y-249.000 Z-6.000 I0.000 J1.500 F1200.000 
G1 X10.150 Y-230.667 Z-6.000 F1200.000 
G2 X11.650 Y-229.167 Z-6.000 I1.500 J-0.000 F1200.000 
G1 X22.150 Y-229.167 Z-6.000 F1200.000 
G1 X22.589 Y-229.606 
G1 X22.150 Y-229.167 
G1 X22.150 Y-213.833 Z-6.000 F1200.000 
G1 X22.589 Y-213.394 
G1 X22.150 Y-213.833 
G1 X11.650 Y-213.833 Z-6.000 F1200.000 
G2 X10.150 Y-212.333 Z-6.000 I0.000 J1.500 F1200.000 
G1 X10.150 Y-175.667 Z-6.000 F1200.000 
G2 X11.650 Y-174.167 Z-6.000 I1.500 J-0.000 F1200.000 
G1 X22.150 Y-174.167 Z-6.000 F1200.000 
G1 X22.589 Y-174.606 
G1 X22.150 Y-174.167 
G1 X22.150 Y-158.833 Z-6.000 F1200.000 
G1 X22.589 Y-158.394 
G1 X22.150 Y-158.833 
G1 X11.650 Y-158.833 Z-6.000 F1200.000 
G2 X10.150 Y-157.333 Z-6.000 I0.000 J1.500 F1200.000 
G1 X10.150 Y-139.000 Z-6.000 F1200.000 
G2 X11.650 Y-137.500 Z-6.000 I1.500 J-0.000 F1200.000 
G1 X53.720 Y-137.500 Z-6.000 F1200.000 
G2 X55.220 Y-139.000 Z-6.000 I-0.000 J-1.500 F1200.000 
G1 X55.220 Y-149.500 Z-6.000 F1200.000 
G1 X54.781 Y-149.939 
G1 X55.220 Y-149.500 
G1 X94.290 Y-149.500 Z-6.000 F1200.000 
G1 X94.729 Y-149.939 
G1 X94.290 Y-149.500 
G1 X94.290 Y-139.000 Z-6.000 F1200.000 
G2 X95.790 Y-137.500 Z-6.000 I1.500 J-0.000 F1200.000 
G1 X137.860 Y-137.500 Z-6.000 F1200.000 
G2 X139.360 Y-139.000 Z-6.000 I-0.000 J-1.500 F1200.000 
G1 X139.360 Y-149.500 Z-6.000 F1200.000 
G1 X138.921 Y-149.939 
G1 X139.360 Y-149.500 
G1 X178.430 Y-149.500 Z-6.000 F1200.000 
G1 X178.869 Y-149.939 
G1 X178.430 Y-149.500 
G1 X178.430 Y-139.000 Z-6.000 F1200.000 
G2 X179.930 Y-137.500 Z-6.000 I1.500 J-0.000 F1200.000 
G1 X264.070 Y-137.500 Z-6.000 F1200.000 
G2 X265.570 Y-139.000 Z-6.000 I-0.000 J-1.500 F1200.000 
G1 X265.570 Y-149.500 Z-6.000 F1200.000 
G1 X265.131 Y-149.939 
G1 X265.570 Y-149.500 
G1 X304.640 Y-149.500 Z-6.000 F1200.000 
G1 X305.079 Y-149.939 
G1 X304.640 Y-149.500 
G1 X304.640 Y-139.000 Z-6.000 F1200.000 
G2 X305.794 Y-137.540 Z-6.000 I1.500 J-0.000 F1200.000 
G1 X305.794 Y-137.540 Z-9.000 F500.000 
G2 X306.140 Y-137.500 Z-9.000 I0.346 J-1.460 F1200.000 
G1 X348.210 Y-137.500 Z-9.000 F1200.000 
G2 X349.710 Y-139.000 Z-9.000 I-0.000 J-1.500 F1200.000 
G1 X349.710 Y-149.500 Z-9.000 F1200.000 
G1 X349.271 Y-149.939 
G1 X349.710 Y-149.500 
G1 X388.780 Y-149.500 Z-9.000 F1200.000 
G1 X389.219 Y-149.939 
G1 X388.780 Y-149.500 
G1 X388.780 Y-139.000 Z-9.000 F1200.000 
G2 X390.280 Y-137.500 Z-9.000 I1.500 J-0.000 F1200.000 
G1 X432.350 Y-137.500 Z-9.000 F1200.000 
G2 X433.850 Y-139.000 Z-9.000 I-0.000 J-1.500 F1200.000 
G1 X433.850 Y-157.333 Z-9.000 F1200.000 
G2 X432.350 Y-158.833 Z-9.000 I-1.500 J0.000 F1200.000 
G1 X421.850 Y-158.833 Z-9.000 F1200.000 
G1 X421.411 Y-158.394 
G1 X421.850 Y-158.833 
G1 X421.850 Y-174.167 Z-9.000 F1200.000 
G1 X421.411 Y-174.606 
G1 X421.850 Y-174.167 
G1 X432.350 Y-174.167 Z-9.000 F1200.000 
G2 X433.850 Y-175.667 Z-9.000 I-0.000 J-1.500 F1200.000 
G1 X433.850 Y-212.333 Z-9.000 F1200.000 
G2 X432.350 Y-213.833 Z-9.000 I-1.500 J0.000 F1200.000 
G1 X421.850 Y-213.833 Z-9.000 F1200.000 
G1 X421.411 Y-213.394 
G1 X421.850 Y-213.833 
G1 X421.850 Y-229.167 Z-9.000 F1200.000 
G1 X421.411 Y-229.606 
G1 X421.850 Y-229.167 
G1 X432.350 Y-229.167 Z-9.000 F1200.000 
G2 X433.850 Y-230.667 Z-9.000 I-0.000 J-1.500 F1200.000 
G1 X433.850 Y-249.000 Z-9.000 F1200.000 
G2 X432.350 Y-250.500 Z-9.000 I-1.500 J0.000 F1200.000 
G1 X11.650 Y-250.500 Z-9.000 F1200.000 
G2 X10.150 Y-249.000 Z-9.000 I0.000 J1.500 F1200.000 
G1 X10.150 Y-230.667 Z-9.000 F1200.000 
G2 X11.650 Y-229.167 Z-9.000 I1.500 J-0.000 F1200.000 
G1 X22.150 Y-229.167 Z-9.000 F1200.000 
G1 X22.589 Y-229.606 
G1 X22.150 Y-229.167 
G1 X22.150 Y-213.833 Z-9.000 F1200.000 
G1 X22.589 Y-213.394 
G1 X22.150 Y-213.833 
G1 X11.650 Y-213.833 Z-9.000 F1200.000 
G2 X10.150 Y-212.333 Z-9.000 I0.000 J1.500 F1200.000 
G1 X10.150 Y-175.667 Z-9.000 F1200.000 
G2 X11.650 Y-174.167 Z-9.000 I1.500 J-0.000 F1200.000 
G1 X22.150 Y-174.167 Z-9.000 F1200.000 
G1 X22.589 Y-174.606 
G1 X22.150 Y-174.167 
G1 X22.150 Y-158.833 Z-9.000 F1200.000 
G1 X22.589 Y-158.394 
G1 X22.150 Y-158.833 
G1 X11.650 Y-158.833 Z-9.000 F1200.000 
G2 X10.150 Y-157.333 Z-9.000 I0.000 J1.500 F1200.000 
G1 X10.150 Y-139.000 Z-9.000 F1200.000 
G2 X11.650 Y-137.500 Z-9.000 I1.500 J-0.000 F1200.000 
G1 X53.720 Y-137.500 Z-9.000 F1200.000 
G2 X55.220 Y-139.000 Z-9.000 I-0.000 J-1.500 F1200.000 
G1 X55.220 Y-149.500 Z-9.000 F1200.000 
G1 X54.781 Y-149.939 
G1 X55.220 Y-149.500 
G1 X94.290 Y-149.500 Z-9.000 F1200.000 
G1 X94.729 Y-149.939 
G1 X94.290 Y-149.500 
G1 X94.290 Y-139.000 Z-9.000 F1200.000 
G2 X95.790 Y-137.500 Z-9.000 I1.500 J-0.000 F1200.000 
G1 X137.860 Y-137.500 Z-9.000 F1200.000 
G2 X139.360 Y-139.000 Z-9.000 I-0.000 J-1.500 F1200.000 
G1 X139.360 Y-149.500 Z-9.000 F1200.000 
G1 X138.921 Y-149.939 
G1 X139.360 Y-149.500 
G1 X178.430 Y-149.500 Z-9.000 F1200.000 
G1 X178.869 Y-149.939 
G1 X178.430 Y-149.500 
G1 X178.430 Y-139.000 Z-9.000 F1200.000 
G2 X179.930 Y-137.500 Z-9.000 I1.500 J-0.000 F1200.000 
G1 X264.070 Y-137.500 Z-9.000 F1200.000 
G2 X265.570 Y-139.000 Z-9.000 I-0.000 J-1.500 F1200.000 
G1 X265.570 Y-149.500 Z-9.000 F1200.000 
G1 X265.131 Y-149.939 
G1 X265.570 Y-149.500 
G1 X304.640 Y-149.500 Z-9.000 F1200.000 
G1 X305.079 Y-149.939 
G1 X304.640 Y-149.500 
G1 X304.640 Y-139.000 Z-9.000 F1200.000 
G2 X305.794 Y-137.540 Z-9.000 I1.500 J-0.000 F1200.000 
G1 X305.794 Y-137.540 Z-12.000 F500.000 
G2 X306.140 Y-137.500 Z-12.000 I0.346 J-1.460 F1200.000 
G1 X348.210 Y-137.500 Z-12.000 F1200.000 
G2 X349.710 Y-139.000 Z-12.000 I-0.000 J-1.500 F1200.000 
G1 X349.710 Y-149.500 Z-12.000 F1200.000 
G1 X349.271 Y-149.939 
G1 X349.710 Y-149.500 
G1 X388.780 Y-149.500 Z-12.000 F1200.000 
G1 X389.219 Y-149.939 
G1 X388.780 Y-149.500 
G1 X388.780 Y-139.000 Z-12.000 F1200.000 
G2 X390.280 Y-137.500 Z-12.000 I1.500 J-0.000 F1200.000 
G1 X432.350 Y-137.500 Z-12.000 F1200.000 
G2 X433.850 Y-139.000 Z-12.000 I-0.000 J-1.500 F1200.000 
G1 X433.850 Y-157.333 Z-12.000 F1200.000 
G2 X432.350 Y-158.833 Z-12.000 I-1.500 J0.000 F1200.000 
G1 X421.850 Y-158.833 Z-12.000 F1200.000 
G1 X421.411 Y-158.394 
G1 X421.850 Y-158.833 
G1 X421.850 Y-174.167 Z-12.000 F1200.000 
G1 X421.411 Y-174.606 
G1 X421.850 Y-174.167 
G1 X432.350 Y-174.167 Z-12.000 F1200.000 
G2 X433.850 Y-175.667 Z-12.000 I-0.000 J-1.500 F1200.000 
G1 X433.850 Y-212.333 Z-12.000 F1200.000 
G2 X432.350 Y-213.833 Z-12.000 I-1.500 J0.000 F1200.000 
G1 X421.850 Y-213.833 Z-12.000 F1200.000 
G1 X421.411 Y-213.394 
G1 X421.850 Y-213.833 
G1 X421.850 Y-229.167 Z-12.000 F1200.000 
G1 X421.411 Y-229.606 
G1 X421.850 Y-229.167 
G1 X432.350 Y-229.167 Z-12.000 F1200.000 
G2 X433.850 Y-230.667 Z-12.000 I-0.000 J-1.500 F1200.000 
G1 X433.850 Y-249.000 Z-12.000 F1200.000 
G2 X432.350 Y-250.500 Z-12.000 I-1.500 J0.000 F1200.000 
G1 X11.650 Y-250.500 Z-12.000 F1200.000 
G2 X10.150 Y-249.000 Z-12.000 I0.000 J1.500 F1200.000 
G1 X10.150 Y-230.667 Z-12.000 F1200.000 
G2 X11.650 Y-229.167 Z-12.000 I1.500 J-0.000 F1200.000 
G1 X22.150 Y-229.167 Z-12.000 F1200.000 
G1 X22.589 Y-229.606 
G1 X22.150 Y-229.167 
G1 X22.150 Y-213.833 Z-12.000 F1200.000 
G1 X22.589 Y-213.394 
G1 X22.150 Y-213.833 
G1 X11.650 Y-213.833 Z-12.000 F1200.000 
G2 X10.150 Y-212.333 Z-12.000 I0.000 J1.500 F1200.000 
G1 X10.150 Y-175.667 Z-12.000 F1200.000 
G2 X11.650 Y-174.167 Z-12.000 I1.500 J-0.000 F1200.000 
G1 X22.150 Y-174.167 Z-12.000 F1200.000 
G1 X22.589 Y-174.606 
G1 X22.150 Y-174.167 
G1 X22.150 Y-158.833 Z-12.000 F1200.000 
G1 X22.589 Y-158.394 
G1 X22.150 Y-158.833 
G1 X11.650 Y-158.833 Z-12.000 F1200.000 
G2 X10.150 Y-157.333 Z-12.000 I0.000 J1.500 F1200.000 
G1 X10.150 Y-139.000 Z-12.000 F1200.000 
G2 X11.650 Y-137.500 Z-12.000 I1.500 J-0.000 F1200.000 
G1 X53.720 Y-137.500 Z-12.000 F1200.000 
G2 X55.220 Y-139.000 Z-12.000 I-0.000 J-1.500 F1200.000 
G1 X55.220 Y-149.500 Z-12.000 F1200.000 
G1 X54.781 Y-149.939 
G1 X55.220 Y-149.500 
G1 X94.290 Y-149.500 Z-12.000 F1200.000 
G1 X94.729 Y-149.939 
G1 X94.290 Y-149.500 
G1 X94.290 Y-139.000 Z-12.000 F1200.000 
G2 X95.790 Y-137.500 Z-12.000 I1.500 J-0.000 F1200.000 
G1 X137.860 Y-137.500 Z-12.000 F1200.000 
G2 X139.360 Y-139.000 Z-12.000 I-0.000 J-1.500 F1200.000 
G1 X139.360 Y-149.500 Z-12.000 F1200.000 
G1 X138.921 Y-149.939 
G1 X139.360 Y-149.500 
G1 X178.430 Y-149.500 Z-12.000 F1200.000 
G1 X178.869 Y-149.939 
G1 X178.430 Y-149.500 
G1 X178.430 Y-139.000 Z-12.000 F1200.000 
G2 X179.930 Y-137.500 Z-12.000 I1.500 J-0.000 F1200.000 
G1 X264.070 Y-137.500 Z-12.000 F1200.000 
G2 X265.570 Y-139.000 Z-12.000 I-0.000 J-1.500 F1200.000 
G1 X265.570 Y-149.500 Z-12.000 F1200.000 
G1 X265.131 Y-149.939 
G1 X265.570 Y-149.500 
G1 X304.640 Y-149.500 Z-12.000 F1200.000 
G1 X305.079 Y-149.939 
G1 X304.640 Y-149.500 
G1 X304.640 Y-139.000 Z-12.000 F1200.000 
G2 X305.794 Y-137.540 Z-12.000 I1.500 J-0.000 F1200.000 
G0 Z5.000 
G0 Z5.000 
G0 X305.794 Y-137.540 
G0 Y-256.500 
G0 Y-256.500 Z3.000 
G1 X305.794 Y-256.500 Z-3.000 F500.000 
G1 X306.140 Y-256.500 Z-3.000 F1200.000 
G2 X307.640 Y-258.000 Z-3.000 I-0.000 J-1.500 F1200.000 
G1 X307.640 Y-268.500 Z-3.000 F1200.000 
G1 X307.201 Y-268.939 
G1 X307.640 Y-268.500 
G1 X346.710 Y-268.500 Z-3.000 F1200.000 
G1 X347.149 Y-268.939 
G1 X346.710 Y-268.500 
G1 X346.710 Y-258.000 Z-3.000 F1200.000 
G2 X348.210 Y-256.500 Z-3.000 I1.500 J-0.000 F1200.000 
G1 X390.280 Y-256.500 Z-3.000 F1200.000 
G2 X391.780 Y-258.000 Z-3.000 I-0.000 J-1.500 F1200.000 
G1 X391.780 Y-268.500 Z-3.000 F1200.000 
G1 X391.341 Y-268.939 
G1 X391.780 Y-268.500 
G1 X420.350 Y-268.500 Z-3.000 F1200.000 
G2 X421.850 Y-270.000 Z-3.000 I-0.000 J-1.500 F1200.000 
G1 X421.850 Y-280.500 Z-3.000 F1200.000 
G1 X421.411 Y-280.939 
G1 X421.850 Y-280.500 
G1 X432.350 Y-280.500 Z-3.000 F1200.000 
G2 X433.850 Y-282.000 Z-3.000 I-0.000 J-1.500 F1200.000 
G1 X433.850 Y-294.000 Z-3.000 F1200.000 
G2 X432.350 Y-295.500 Z-3.000 I-1.500 J0.000 F1200.000 
G1 X421.850 Y-295.500 Z-3.000 F1200.000 
G1 X421.411 Y-295.061 
G1 X421.850 Y-295.500 
G1 X421.850 Y-352.500 Z-3.000 F1200.000 
G1 X421.411 Y-352.939 
G1 X421.850 Y-352.500 
G1 X432.350 Y-352.500 Z-3.000 F1200.000 
G2 X433.850 Y-354.000 Z-3.000 I-0.000 J-1.500 F1200.000 
G1 X433.850 Y-366.000 Z-3.000 F1200.000 
G2 X432.350 Y-367.500 Z-3.000 I-1.500 J0.000 F1200.000 
G1 X421.850 Y-367.500 Z-3.000 F1200.000 
G1 X421.411 Y-367.061 
G1 X421.850 Y-367.500 
G1 X421.850 Y-378.000 Z-3.000 F1200.000 
G2 X420.350 Y-379.500 Z-3.000 I-1.500 J0.000 F1200.000 
G1 X391.780 Y-379.500 Z-3.000 F1200.000 
G1 X391.341 Y-379.061 
G1 X391.780 Y-379.500 
G1 X391.780 Y-390.000 Z-3.000 F1200.000 
G2 X390.280 Y-391.500 Z-3.000 I-1.500 J0.000 F1200.000 
G1 X348.210 Y-391.500 Z-3.000 F1200.000 
G2 X346.710 Y-390.000 Z-3.000 I0.000 J1.500 F1200.000 
G1 X346.710 Y-379.500 Z-3.000 F1200.000 
G1 X347.149 Y-379.061 
G1 X346.710 Y-379.500 
G1 X307.640 Y-379.500 Z-3.000 F1200.000 
G1 X307.201 Y-379.061 
G1 X307.640 Y-379.500 
G1 X307.640 Y-390.000 Z-3.000 F1200.000 
G2 X306.140 Y-391.500 Z-3.000 I-1.500 J0.000 F1200.000 
G1 X264.070 Y-391.500 Z-3.000 F1200.000 
G2 X262.570 Y-390.000 Z-3.000 I0.000 J1.500 F1200.000 
G1 X262.570 Y-379.500 Z-3.000 F1200.000 
G1 X263.009 Y-379.061 
G1 X262.570 Y-379.500 
G1 X181.430 Y-379.500 Z-3.000 F1200.000 
G1 X180.991 Y-379.061 
G1 X181.430 Y-379.500 
G1 X181.430 Y-390.000 Z-3.000 F1200.000 
G2 X179.930 Y-391.500 Z-3.000 I-1.500 J0.000 F1200.000 
G1 X137.860 Y-391.500 Z-3.000 F1200.000 
G2 X136.360 Y-390.000 Z-3.000 I0.000 J1.500 F1200.000 
G1 X136.360 Y-379.500 Z-3.000 F1200.000 
G1 X136.799 Y-379.061 
G1 X136.360 Y-379.500 
G1 X97.290 Y-379.500 Z-3.000 F1200.000 
G1 X96.851 Y-379.061 
G1 X97.290 Y-379.500 
G1 X97.290 Y-390.000 Z-3.000 F1200.000 
G2 X95.790 Y-391.500 Z-3.000 I-1.500 J0.000 F1200.000 
G1 X53.720 Y-391.500 Z-3.000 F1200.000 
G2 X52.220 Y-390.000 Z-3.000 I0.000 J1.500 F1200.000 
G1 X52.220 Y-379.500 Z-3.000 F1200.000 
G1 X52.659 Y-379.061 
G1 X52.220 Y-379.500 
G1 X23.650 Y-379.500 Z-3.000 F1200.000 
G2 X22.150 Y-378.000 Z-3.000 I0.000 J1.500 F1200.000 
G1 X22.150 Y-367.500 Z-3.000 F1200.000 
G1 X22.589 Y-367.061 
G1 X22.150 Y-367.500 
G1 X11.650 Y-367.500 Z-3.000 F1200.000 
G2 X10.150 Y-366.000 Z-3.000 I0.000 J1.500 F1200.000 
G1 X10.150 Y-354.000 Z-3.000 F1200.000 
G2 X11.650 Y-352.500 Z-3.000 I1.500 J-0.000 F1200.000 
G1 X22.150 Y-352.500 Z-3.000 F1200.000 
G1 X22.589 Y-352.939 
G1 X22.150 Y-352.500 
G1 X22.150 Y-295.500 Z-3.000 F1200.000 
G1 X22.589 Y-295.061 
G1 X22.150 Y-295.500 
G1 X11.650 Y-295.500 Z-3.000 F1200.000 
G2 X10.150 Y-294.000 Z-3.000 I0.000 J1.500 F1200.000 
G1 X10.150 Y-282.000 Z-3.000 F1200.000 
G2 X11.650 Y-280.500 Z-3.000 I1.500 J-0.000 F1200.000 
G1 X22.150 Y-280.500 Z-3.000 F1200.000 
G1 X22.589 Y-280.939 
G1 X22.150 Y-280.500 
G1 X22.150 Y-270.000 Z-3.000 F1200.000 
G2 X23.650 Y-268.500 Z-3.000 I1.500 J-0.000 F1200.000 
G1 X52.220 Y-268.500 Z-3.000 F1200.000 
G1 X52.659 Y-268.939 
G1 X52.220 Y-268.500 
G1 X52.220 Y-258.000 Z-3.000 F1200.000 
G2 X53.720 Y-256.500 Z-3.000 I1.500 J-0.000 F1200.000 
G1 X95.790 Y-256.500 Z-3.000 F1200.000 
G2 X97.290 Y-258.000 Z-3.000 I-0.000 J-1.500 F1200.000 
G1 X97.290 Y-268.500 Z-3.000 F1200.000 
G1 X96.851 Y-268.939 
G1 X97.290 Y-268.500 
G1 X136.360 Y-268.500 Z-3.000 F1200.000 
G1 X136.799 Y-268.939 
G1 X136.360 Y-268.500 
G1 X136.360 Y-258.000 Z-3.000 F1200.000 
G2 X137.860 Y-256.500 Z-3.000 I1.500 J-0.000 F1200.000 
G1 X179.930 Y-256.500 Z-3.000 F1200.000 
G2 X181.430 Y-258.000 Z-3.000 I-0.000 J-1.500 F1200.000 
G1 X181.430 Y-268.500 Z-3.000 F1200.000 
G1 X180.991 Y-268.939 
G1 X181.430 Y-268.500 
G1 X262.570 Y-268.500 Z-3.000 F1200.000 
G1 X263.009 Y-268.939 
G1 X262.570 Y-268.500 
G1 X262.570 Y-258.000 Z-3.000 F1200.000 
G2 X264.070 Y-256.500 Z-3.000 I1.500 J-0.000 F1200.000 
G1 X305.794 Y-256.500 Z-3.000 F1200.000 
G1 X305.794 Y-256.500 Z-6.000 F500.000 
G1 X306.140 Y-256.500 Z-6.000 F1200.000 
G2 X307.640 Y-258.000 Z-6.000 I-0.000 J-1.500 F1200.000 
G1 X307.640 Y-268.500 Z-6.000 F1200.000 
G1 X307.201 Y-268.939 
G1 X307.640 Y-268.500 
G1 X346.710 Y-268.500 Z-6.000 F1200.000 
G1 X347.149 Y-268.939 
G1 X346.710 Y-268.500 
G1 X346.710 Y-258.000 Z-6.000 F1200.000 
G2 X348.210 Y-256.500 Z-6.000 I1.500 J-0.000 F1200.000 
G1 X390.280 Y-256.500 Z-6.000 F1200.000 
G2 X391.780 Y-258.000 Z-6.000 I-0.000 J-1.500 F1200.000 
G1 X391.780 Y-268.500 Z-6.000 F1200.000 
G1 X391.341 Y-268.939 
G1 X391.780 Y-268.500 
G1 X420.350 Y-268.500 Z-6.000 F1200.000 
G2 X421.850 Y-270.000 Z-6.000 I-0.000 J-1.500 F1200.000 
G1 X421.850 Y-280.500 Z-6.000 F1200.000 
G1 X421.411 Y-280.939 
G1 X421.850 Y-280.500 
G1 X432.350 Y-280.500 Z-6.000 F1200.000 
G2 X433.850 Y-282.000 Z-6.000 I-0.000 J-1.500 F1200.000 
G1 X433.850 Y-294.000 Z-6.000 F1200.000 
G2 X432.350 Y-295.500 Z-6.000 I-1.500 J0.000 F1200.000 
G1 X421.850 Y-295.500 Z-6.000 F1200.000 
G1 X421.411 Y-295.061 
G1 X421.850 Y-295.500 
G1 X421.850 Y-352.500 Z-6.000 F1200.000 
G1 X421.411 Y-352.939 
G1 X421.850 Y-352.500 
G1 X432.350 Y-352.500 Z-6.000 F1200.000 
G2 X433.850 Y-354.000 Z-6.000 I-0.000 J-1.500 F1200.000 
G1 X433.850 Y-366.000 Z-6.000 F1200.000 
G2 X432.350 Y-367.500 Z-6.000 I-1.500 J0.000 F1200.000 
G1 X421.850 Y-367.500 Z-6.000 F1200.000 
G1 X421.411 Y-367.061 
G1 X421.850 Y-367.500 
G1 X421.850 Y-378.000 Z-6.000 F1200.000 
G2 X420.350 Y-379.500 Z-6.000 I-1.500 J0.000 F1200.000 
G1 X391.780 Y-379.500 Z-6.000 F1200.000 
G1 X391.341 Y-379.061 
G1 X391.780 Y-379.500 
G1 X391.780 Y-390.000 Z-6.000 F1200.000 
G2 X390.280 Y-391.500 Z-6.000 I-1.500 J0.000 F1200.000 
G1 X348.210 Y-391.500 Z-6.000 F1200.000 
G2 X346.710 Y-390.000 Z-6.000 I0.000 J1.500 F1200.000 
G1 X346.710 Y-379.500 Z-6.000 F1200.000 
G1 X347.149 Y-379.061 
G1 X346.710 Y-379.500 
G1 X307.640 Y-379.500 Z-6.000 F1200.000 
G1 X307.201 Y-379.061 
G1 X307.640 Y-379.500 
G1 X307.640 Y-390.000 Z-6.000 F1200.000 
G2 X306.140 Y-391.500 Z-6.000 I-1.500 J0.000 F1200.000 
G1 X264.070 Y-391.500 Z-6.000 F1200.000 
G2 X262.570 Y-390.000 Z-6.000 I0.000 J1.500 F1200.000 
G1 X262.570 Y-379.500 Z-6.000 F1200.000 
G1 X263.009 Y-379.061 
G1 X262.570 Y-379.500 
G1 X181.430 Y-379.500 Z-6.000 F1200.000 
G1 X180.991 Y-379.061 
G1 X181.430 Y-379.500 
G1 X181.430 Y-390.000 Z-6.000 F1200.000 
G2 X179.930 Y-391.500 Z-6.000 I-1.500 J0.000 F1200.000 
G1 X137.860 Y-391.500 Z-6.000 F1200.000 
G2 X136.360 Y-390.000 Z-6.000 I0.000 J1.500 F1200.000 
G1 X136.360 Y-379.500 Z-6.000 F1200.000 
G1 X136.799 Y-379.061 
G1 X136.360 Y-379.500 
G1 X97.290 Y-379.500 Z-6.000 F1200.000 
G1 X96.851 Y-379.061 
G1 X97.290 Y-379.500 
G1 X97.290 Y-390.000 Z-6.000 F1200.000 
G2 X95.790 Y-391.500 Z-6.000 I-1.500 J0.000 F1200.000 
G1 X53.720 Y-391.500 Z-6.000 F1200.000 
G2 X52.220 Y-390.000 Z-6.000 I0.000 J1.500 F1200.000 
G1 X52.220 Y-379.500 Z-6.000 F1200.000 
G1 X52.659 Y-379.061 
G1 X52.220 Y-379.500 
G1 X23.650 Y-379.500 Z-6.000 F1200.000 
G2 X22.150 Y-378.000 Z-6.000 I0.000 J1.500 F1200.000 
G1 X22.150 Y-367.500 Z-6.000 F1200.000 
G1 X22.589 Y-367.061 
G1 X22.150 Y-367.500 
G1 X11.650 Y-367.500 Z-6.000 F1200.000 
G2 X10.150 Y-366.000 Z-6.000 I0.000 J1.500 F1200.000 
G1 X10.150 Y-354.000 Z-6.000 F1200.000 
G2 X11.650 Y-352.500 Z-6.000 I1.500 J-0.000 F1200.000 
G1 X22.150 Y-352.500 Z-6.000 F1200.000 
G1 X22.589 Y-352.939 
G1 X22.150 Y-352.500 
G1 X22.150 Y-295.500 Z-6.000 F1200.000 
G1 X22.589 Y-295.061 
G1 X22.150 Y-295.500 
G1 X11.650 Y-295.500 Z-6.000 F1200.000 
G2 X10.150 Y-294.000 Z-6.000 I0.000 J1.500 F1200.000 
G1 X10.150 Y-282.000 Z-6.000 F1200.000 
G2 X11.650 Y-280.500 Z-6.000 I1.500 J-0.000 F1200.000 
G1 X22.150 Y-280.500 Z-6.000 F1200.000 
G1 X22.589 Y-280.939 
G1 X22.150 Y-280.500 
G1 X22.150 Y-270.000 Z-6.000 F1200.000 
G2 X23.650 Y-268.500 Z-6.000 I1.500 J-0.000 F1200.000 
G1 X52.220 Y-268.500 Z-6.000 F1200.000 
G1 X52.659 Y-268.939 
G1 X52.220 Y-268.500 
G1 X52.220 Y-258.000 Z-6.000 F1200.000 
G2 X53.720 Y-256.500 Z-6.000 I1.500 J-0.000 F1200.000 
G1 X95.790 Y-256.500 Z-6.000 F1200.000 
G2 X97.290 Y-258.000 Z-6.000 I-0.000 J-1.500 F1200.000 
G1 X97.290 Y-268.500 Z-6.000 F1200.000 
G1 X96.851 Y-268.939 
G1 X97.290 Y-268.500 
G1 X136.360 Y-268.500 Z-6.000 F1200.000 
G1 X136.799 Y-268.939 
G1 X136.360 Y-268.500 
G1 X136.360 Y-258.000 Z-6.000 F1200.000 
G2 X137.860 Y-256.500 Z-6.000 I1.500 J-0.000 F1200.000 
G1 X179.930 Y-256.500 Z-6.000 F1200.000 
G2 X181.430 Y-258.000 Z-6.000 I-0.000 J-1.500 F1200.000 
G1 X181.430 Y-268.500 Z-6.000 F1200.000 
G1 X180.991 Y-268.939 
G1 X181.430 Y-268.500 
G1 X262.570 Y-268.500 Z-6.000 F1200.000 
G1 X263.009 Y-268.939 
G1 X262.570 Y-268.500 
G1 X262.570 Y-258.000 Z-6.000 F1200.000 
G2 X264.070 Y-256.500 Z-6.000 I1.500 J-0.000 F1200.000 
G1 X305.794 Y-256.500 Z-6.000 F1200.000 
G1 X305.794 Y-256.500 Z-9.000 F500.000 
G1 X306.140 Y-256.500 Z-9.000 F1200.000 
G2 X307.640 Y-258.000 Z-9.000 I-0.000 J-1.500 F1200.000 
G1 X307.640 Y-268.500 Z-9.000 F1200.000 
G1 X307.201 Y-268.939 
G1 X307.640 Y-268.500 
G1 X346.710 Y-268.500 Z-9.000 F1200.000 
G1 X347.149 Y-268.939 
G1 X346.710 Y-268.500 
G1 X346.710 Y-258.000 Z-9.000 F1200.000 
G2 X348.210 Y-256.500 Z-9.000 I1.500 J-0.000 F1200.000 
G1 X390.280 Y-256.500 Z-9.000 F1200.000 
G2 X391.780 Y-258.000 Z-9.000 I-0.000 J-1.500 F1200.000 
G1 X391.780 Y-268.500 Z-9.000 F1200.000 
G1 X391.341 Y-268.939 
G1 X391.780 Y-268.500 
G1 X420.350 Y-268.500 Z-9.000 F1200.000 
G2 X421.850 Y-270.000 Z-9.000 I-0.000 J-1.500 F1200.000 
G1 X421.850 Y-280.500 Z-9.000 F1200.000 
G1 X421.411 Y-280.939 
G1 X421.850 Y-280.500 
G1 X432.350 Y-280.500 Z-9.000 F1200.000 
G2 X433.850 Y-282.000 Z-9.000 I-0.000 J-1.500 F1200.000 
G1 X433.850 Y-294.000 Z-9.000 F1200.000 
G2 X432.350 Y-295.500 Z-9.000 I-1.500 J0.000 F1200.000 
G1 X421.850 Y-295.500 Z-9.000 F1200.000 
G1 X421.411 Y-295.061 
G1 X421.850 Y-295.500 
G1 X421.850 Y-352.500 Z-9.000 F1200.000 
G1 X421.411 Y-352.939 
G1 X421.850 Y-352.500 
G1 X432.350 Y-352.500 Z-9.000 F1200.000 
G2 X433.850 Y-354.000 Z-9.000 I-0.000 J-1.500 F1200.000 
G1 X433.850 Y-366.000 Z-9.000 F1200.000 
G2 X432.350 Y-367.500 Z-9.000 I-1.500 J0.000 F1200.000 
G1 X421.850 Y-367.500 Z-9.000 F1200.000 
G1 X421.411 Y-367.061 
G1 X421.850 Y-367.500 
G1 X421.850 Y-378.000 Z-9.000 F1200.000 
G2 X420.350 Y-379.500 Z-9.000 I-1.500 J0.000 F1200.000 
G1 X391.780 Y-379.500 Z-9.000 F1200.000 
G1 X391.341 Y-379.061 
G1 X391.780 Y-379.500 
G1 X391.780 Y-390.000 Z-9.000 F1200.000 
G2 X390.280 Y-391.500 Z-9.000 I-1.500 J0.000 F1200.000 
G1 X348.210 Y-391.500 Z-9.000 F1200.000 
G2 X346.710 Y-390.000 Z-9.000 I0.000 J1.500 F1200.000 
G1 X346.710 Y-379.500 Z-9.000 F1200.000 
G1 X347.149 Y-379.061 
G1 X346.710 Y-379.500 
G1 X307.640 Y-379.500 Z-9.000 F1200.000 
G1 X307.201 Y-379.061 
G1 X307.640 Y-379.500 
G1 X307.640 Y-390.000 Z-9.000 F1200.000 
G2 X306.140 Y-391.500 Z-9.000 I-1.500 J0.000 F1200.000 
G1 X264.070 Y-391.500 Z-9.000 F1200.000 
G2 X262.570 Y-390.000 Z-9.000 I0.000 J1.500 F1200.000 
G1 X262.570 Y-379.500 Z-9.000 F1200.000 
G1 X263.009 Y-379.061 
G1 X262.570 Y-379.500 
G1 X181.430 Y-379.500 Z-9.000 F1200.000 
G1 X180.991 Y-379.061 
G1 X181.430 Y-379.500 
G1 X181.430 Y-390.000 Z-9.000 F1200.000 
G2 X179.930 Y-391.500 Z-9.000 I-1.500 J0.000 F1200.000 
G1 X137.860 Y-391.500 Z-9.000 F1200.000 
G2 X136.360 Y-390.000 Z-9.000 I0.000 J1.500 F1200.000 
G1 X136.360 Y-379.500 Z-9.000 F1200.000 
G1 X136.799 Y-379.061 
G1 X136.360 Y-379.500 
G1 X97.290 Y-379.500 Z-9.000 F1200.000 
G1 X96.851 Y-379.061 
G1 X97.290 Y-379.500 
G1 X97.290 Y-390.000 Z-9.000 F1200.000 
G2 X95.790 Y-391.500 Z-9.000 I-1.500 J0.000 F1200.000 
G1 X53.720 Y-391.500 Z-9.000 F1200.000 
G2 X52.220 Y-390.000 Z-9.000 I0.000 J1.500 F1200.000 
G1 X52.220 Y-379.500 Z-9.000 F1200.000 
G1 X52.659 Y-379.061 
G1 X52.220 Y-379.500 
G1 X23.650 Y-379.500 Z-9.000 F1200.000 
G2 X22.150 Y-378.000 Z-9.000 I0.000 J1.500 F1200.000 
G1 X22.150 Y-367.500 Z-9.000 F1200.000 
G1 X22.589 Y-367.061 
G1 X22.150 Y-367.500 
G1 X11.650 Y-367.500 Z-9.000 F1200.000 
G2 X10.150 Y-366.000 Z-9.000 I0.000 J1.500 F1200.000 
G1 X10.150 Y-354.000 Z-9.000 F1200.000 
G2 X11.650 Y-352.500 Z-9.000 I1.500 J-0.000 F1200.000 
G1 X22.150 Y-352.500 Z-9.000 F1200.000 
G1 X22.589 Y-352.939 
G1 X22.150 Y-352.500 
G1 X22.150 Y-295.500 Z-9.000 F1200.000 
G1 X22.589 Y-295.061 
G1 X22.150 Y-295.500 
G1 X11.650 Y-295.500 Z-9.000 F1200.000 
G2 X10.150 Y-294.000 Z-9.000 I0.000 J1.500 F1200.000 
G1 X10.150 Y-282.000 Z-9.000 F1200.000 
G2 X11.650 Y-280.500 Z-9.000 I1.500 J-0.000 F1200.000 
G1 X22.150 Y-280.500 Z-9.000 F1200.000 
G1 X22.589 Y-280.939 
G1 X22.150 Y-280.500 
G1 X22.150 Y-270.000 Z-9.000 F1200.000 
G2 X23.650 Y-268.500 Z-9.000 I1.500 J-0.000 F1200.000 
G1 X52.220 Y-268.500 Z-9.000 F1200.000 
G1 X52.659 Y-268.939 
G1 X52.220 Y-268.500 
G1 X52.220 Y-258.000 Z-9.000 F1200.000 
G2 X53.720 Y-256.500 Z-9.000 I1.500 J-0.000 F1200.000 
G1 X95.790 Y-256.500 Z-9.000 F1200.000 
G2 X97.290 Y-258.000 Z-9.000 I-0.000 J-1.500 F1200.000 
G1 X97.290 Y-268.500 Z-9.000 F1200.000 
G1 X96.851 Y-268.939 
G1 X97.290 Y-268.500 
G1 X136.360 Y-268.500 Z-9.000 F1200.000 
G1 X136.799 Y-268.939 
G1 X136.360 Y-268.500 
G1 X136.360 Y-258.000 Z-9.000 F1200.000 
G2 X137.860 Y-256.500 Z-9.000 I1.500 J-0.000 F1200.000 
G1 X179.930 Y-256.500 Z-9.000 F1200.000 
G2 X181.430 Y-258.000 Z-9.000 I-0.000 J-1.500 F1200.000 
G1 X181.430 Y-268.500 Z-9.000 F1200.000 
G1 X180.991 Y-268.939 
G1 X181.430 Y-268.500 
G1 X262.570 Y-268.500 Z-9.000 F1200.000 
G1 X263.009 Y-268.939 
G1 X262.570 Y-268.500 
G1 X262.570 Y-258.000 Z-9.000 F1200.000 
G2 X264.070 Y-256.500 Z-9.000 I1.500 J-0.000 F1200.000 
G1 X305.794 Y-256.500 Z-9.000 F1200.000 
G1 X305.794 Y-256.500 Z-12.000 F500.000 
G1 X306.140 Y-256.500 Z-12.000 F1200.000 
G2 X307.640 Y-258.000 Z-12.000 I-0.000 J-1.500 F1200.000 
G1 X307.640 Y-268.500 Z-12.000 F1200.000 
G1 X307.201 Y-268.939 
G1 X307.640 Y-268.500 
G1 X346.710 Y-268.500 Z-12.000 F1200.000 
G1 X347.149 Y-268.939 
G1 X346.710 Y-268.500 
G1 X346.710 Y-258.000 Z-12.000 F1200.000 
G2 X348.210 Y-256.500 Z-12.000 I1.500 J-0.000 F1200.000 
G1 X390.280 Y-256.500 Z-12.000 F1200.000 
G2 X391.780 Y-258.000 Z-12.000 I-0.000 J-1.500 F1200.000 
G1 X391.780 Y-268.500 Z-12.000 F1200.000 
G1 X391.341 Y-268.939 
G1 X391.780 Y-268.500 
G1 X420.350 Y-268.500 Z-12.000 F1200.000 
G2 X421.850 Y-270.000 Z-12.000 I-0.000 J-1.500 F1200.000 
G1 X421.850 Y-280.500 Z-12.000 F1200.000 
G1 X421.411 Y-280.939 
G1 X421.850 Y-280.500 
G1 X432.350 Y-280.500 Z-12.000 F1200.000 
G2 X433.850 Y-282.000 Z-12.000 I-0.000 J-1.500 F1200.000 
G1 X433.850 Y-294.000 Z-12.000 F1200.000 
G2 X432.350 Y-295.500 Z-12.000 I-1.500 J0.000 F1200.000 
G1 X421.850 Y-295.500 Z-12.000 F1200.000 
G1 X421.411 Y-295.061 
G1 X421.850 Y-295.500 
G1 X421.850 Y-352.500 Z-12.000 F1200.000 
G1 X421.411 Y-352.939 
G1 X421.850 Y-352.500 
G1 X432.350 Y-352.500 Z-12.000 F1200.000 
G2 X433.850 Y-354.000 Z-12.000 I-0.000 J-1.500 F1200.000 
G1 X433.850 Y-366.000 Z-12.000 F1200.000 
G2 X432.350 Y-367.500 Z-12.000 I-1.500 J0.000 F1200.000 
G1 X421.850 Y-367.500 Z-12.000 F1200.000 
G1 X421.411 Y-367.061 
G1 X421.850 Y-367.500 
G1 X421.850 Y-378.000 Z-12.000 F1200.000 
G2 X420.350 Y-379.500 Z-12.000 I-1.500 J0.000 F1200.000 
G1 X391.780 Y-379.500 Z-12.000 F1200.000 
G1 X391.341 Y-379.061 
G1 X391.780 Y-379.500 
G1 X391.780 Y-390.000 Z-12.000 F1200.000 
G2 X390.280 Y-391.500 Z-12.000 I-1.500 J0.000 F1200.000 
G1 X348.210 Y-391.500 Z-12.000 F1200.000 
G2 X346.710 Y-390.000 Z-12.000 I0.000 J1.500 F1200.000 
G1 X346.710 Y-379.500 Z-12.000 F1200.000 
G1 X347.149 Y-379.061 
G1 X346.710 Y-379.500 
G1 X307.640 Y-379.500 Z-12.000 F1200.000 
G1 X307.201 Y-379.061 
G1 X307.640 Y-379.500 
G1 X307.640 Y-390.000 Z-12.000 F1200.000 
G2 X306.140 Y-391.500 Z-12.000 I-1.500 J0.000 F1200.000 
G1 X264.070 Y-391.500 Z-12.000 F1200.000 
G2 X262.570 Y-390.000 Z-12.000 I0.000 J1.500 F1200.000 
G1 X262.570 Y-379.500 Z-12.000 F1200.000 
G1 X263.009 Y-379.061 
G1 X262.570 Y-379.500 
G1 X181.430 Y-379.500 Z-12.000 F1200.000 
G1 X180.991 Y-379.061 
G1 X181.430 Y-379.500 
G1 X181.430 Y-390.000 Z-12.000 F1200.000 
G2 X179.930 Y-391.500 Z-12.000 I-1.500 J0.000 F1200.000 
G1 X137.860 Y-391.500 Z-12.000 F1200.000 
G2 X136.360 Y-390.000 Z-12.000 I0.000 J1.500 F1200.000 
G1 X136.360 Y-379.500 Z-12.000 F1200.000 
G1 X136.799 Y-379.061 
G1 X136.360 Y-379.500 
G1 X97.290 Y-379.500 Z-12.000 F1200.000 
G1 X96.851 Y-379.061 
G1 X97.290 Y-379.500 
G1 X97.290 Y-390.000 Z-12.000 F1200.000 
G2 X95.790 Y-391.500 Z-12.000 I-1.500 J0.000 F1200.000 
G1 X53.720 Y-391.500 Z-12.000 F1200.000 
G2 X52.220 Y-390.000 Z-12.000 I0.000 J1.500 F1200.000 
G1 X52.220 Y-379.500 Z-12.000 F1200.000 
G1 X52.659 Y-379.061 
G1 X52.220 Y-379.500 
G1 X23.650 Y-379.500 Z-12.000 F1200.000 
G2 X22.150 Y-378.000 Z-12.000 I0.000 J1.500 F1200.000 
G1 X22.150 Y-367.500 Z-12.000 F1200.000 
G1 X22.589 Y-367.061 
G1 X22.150 Y-367.500 
G1 X11.650 Y-367.500 Z-12.000 F1200.000 
G2 X10.150 Y-366.000 Z-12.000 I0.000 J1.500 F1200.000 
G1 X10.150 Y-354.000 Z-12.000 F1200.000 
G2 X11.650 Y-352.500 Z-12.000 I1.500 J-0.000 F1200.000 
G1 X22.150 Y-352.500 Z-12.000 F1200.000 
G1 X22.589 Y-352.939 
G1 X22.150 Y-352.500 
G1 X22.150 Y-295.500 Z-12.000 F1200.000 
G1 X22.589 Y-295.061 
G1 X22.150 Y-295.500 
G1 X11.650 Y-295.500 Z-12.000 F1200.000 
G2 X10.150 Y-294.000 Z-12.000 I0.000 J1.500 F1200.000 
G1 X10.150 Y-282.000 Z-12.000 F1200.000 
G2 X11.650 Y-280.500 Z-12.000 I1.500 J-0.000 F1200.000 
G1 X22.150 Y-280.500 Z-12.000 F1200.000 
G1 X22.589 Y-280.939 
G1 X22.150 Y-280.500 
G1 X22.150 Y-270.000 Z-12.000 F1200.000 
G2 X23.650 Y-268.500 Z-12.000 I1.500 J-0.000 F1200.000 
G1 X52.220 Y-268.500 Z-12.000 F1200.000 
G1 X52.659 Y-268.939 
G1 X52.220 Y-268.500 
G1 X52.220 Y-258.000 Z-12.000 F1200.000 
G2 X53.720 Y-256.500 Z-12.000 I1.500 J-0.000 F1200.000 
G1 X95.790 Y-256.500 Z-12.000 F1200.000 
G2 X97.290 Y-258.000 Z-12.000 I-0.000 J-1.500 F1200.000 
G1 X97.290 Y-268.500 Z-12.000 F1200.000 
G1 X96.851 Y-268.939 
G1 X97.290 Y-268.500 
G1 X136.360 Y-268.500 Z-12.000 F1200.000 
G1 X136.799 Y-268.939 
G1 X136.360 Y-268.500 
G1 X136.360 Y-258.000 Z-12.000 F1200.000 
G2 X137.860 Y-256.500 Z-12.000 I1.500 J-0.000 F1200.000 
G1 X179.930 Y-256.500 Z-12.000 F1200.000 
G2 X181.430 Y-258.000 Z-12.000 I-0.000 J-1.500 F1200.000 
G1 X181.430 Y-268.500 Z-12.000 F1200.000 
G1 X180.991 Y-268.939 
G1 X181.430 Y-268.500 
G1 X262.570 Y-268.500 Z-12.000 F1200.000 
G1 X263.009 Y-268.939 
G1 X262.570 Y-268.500 
G1 X262.570 Y-258.000 Z-12.000 F1200.000 
G2 X264.070 Y-256.500 Z-12.000 I1.500 J-0.000 F1200.000 
G1 X305.794 Y-256.500 Z-12.000 F1200.000 
G0 Z5.000 
G0 Z5.000 
G0 X305.794 Y-256.500 
G0 X440.176 Y-281.723 
G0 X440.176 Y-281.723 Z3.000 
G1 X440.176 Y-281.723 Z-3.000 F500.000 
G2 X441.650 Y-280.500 Z-3.000 I1.474 J-0.277 F1200.000 
G1 X452.150 Y-280.500 Z-3.000 F1200.000 
G1 X452.589 Y-280.939 
G1 X452.150 Y-280.500 
G1 X452.150 Y-270.000 Z-3.000 F1200.000 
G2 X453.650 Y-268.500 Z-3.000 I1.500 J-0.000 F1200.000 
G1 X482.220 Y-268.500 Z-3.000 F1200.000 
G1 X482.659 Y-268.939 
G1 X482.220 Y-268.500 
G1 X482.220 Y-258.000 Z-3.000 F1200.000 
G2 X483.720 Y-256.500 Z-3.000 I1.500 J-0.000 F1200.000 
G1 X525.790 Y-256.500 Z-3.000 F1200.000 
G2 X527.290 Y-258.000 Z-3.000 I-0.000 J-1.500 F1200.000 
G1 X527.290 Y-268.500 Z-3.000 F1200.000 
G1 X526.851 Y-268.939 
G1 X527.290 Y-268.500 
G1 X566.360 Y-268.500 Z-3.000 F1200.000 
G1 X566.799 Y-268.939 
G1 X566.360 Y-268.500 
G1 X566.360 Y-258.000 Z-3.000 F1200.000 
G2 X567.860 Y-256.500 Z-3.000 I1.500 J-0.000 F1200.000 
G1 X609.930 Y-256.500 Z-3.000 F1200.000 
G2 X611.430 Y-258.000 Z-3.000 I-0.000 J-1.500 F1200.000 
G1 X611.430 Y-268.500 Z-3.000 F1200.000 
G1 X610.991 Y-268.939 
G1 X611.430 Y-268.500 
G1 X692.570 Y-268.500 Z-3.000 F1200.000 
G1 X693.009 Y-268.939 
G1 X692.570 Y-268.500 
G1 X692.570 Y-258.000 Z-3.000 F1200.000 
G2 X694.070 Y-256.500 Z-3.000 I1.500 J-0.000 F1200.000 
G1 X736.140 Y-256.500 Z-3.000 F1200.000 
G2 X737.640 Y-258.000 Z-3.000 I-0.000 J-1.500 F1200.000 
G1 X737.640 Y-268.500 Z-3.000 F1200.000 
G1 X737.201 Y-268.939 
G1 X737.640 Y-268.500 
G1 X776.710 Y-268.500 Z-3.000 F1200.000 
G1 X777.149 Y-268.939 
G1 X776.710 Y-268.500 
G1 X776.710 Y-258.000 Z-3.000 F1200.000 
G2 X778.210 Y-256.500 Z-3.000 I1.500 J-0.000 F1200.000 
G1 X820.280 Y-256.500 Z-3.000 F1200.000 
G2 X821.780 Y-258.000 Z-3.000 I-0.000 J-1.500 F1200.000 
G1 X821.780 Y-268.500 Z-3.000 F1200.000 
G1 X821.341 Y-268.939 
G1 X821.780 Y-268.500 
G1 X850.350 Y-268.500 Z-3.000 F1200.000 
G2 X851.850 Y-270.000 Z-3.000 I-0.000 J-1.500 F1200.000 
G1 X851.850 Y-280.500 Z-3.000 F1200.000 
G1 X851.411 Y-280.939 
G1 X851.850 Y-280.500 
G1 X862.350 Y-280.500 Z-3.000 F1200.000 
G2 X863.850 Y-282.000 Z-3.000 I-0.000 J-1.500 F1200.000 
G1 X863.850 Y-294.000 Z-3.000 F1200.000 
G2 X862.350 Y-295.500 Z-3.000 I-1.500 J0.000 F1200.000 
G1 X851.850 Y-295.500 Z-3.000 F1200.000 
G1 X851.411 Y-295.061 
G1 X851.850 Y-295.500 
G1 X851.850 Y-352.500 Z-3.000 F1200.000 
G1 X851.411 Y-352.939 
G1 X851.850 Y-352.500 
G1 X862.350 Y-352.500 Z-3.000 F1200.000 
G2 X863.850 Y-354.000 Z-3.000 I-0.000 J-1.500 F1200.000 
G1 X863.850 Y-366.000 Z-3.000 F1200.000 
G2 X862.350 Y-367.500 Z-3.000 I-1.500 J0.000 F1200.000 
G1 X851.850 Y-367.500 Z-3.000 F1200.000 
G1 X851.411 Y-367.061 
G1 X851.850 Y-367.500 
G1 X851.850 Y-378.000 Z-3.000 F1200.000 
G2 X850.350 Y-379.500 Z-3.000 I-1.500 J0.000 F1200.000 
G1 X821.780 Y-379.500 Z-3.000 F1200.000 
G1 X821.341 Y-379.061 
G1 X821.780 Y-379.500 
G1 X821.780 Y-390.000 Z-3.000 F1200.000 
G2 X820.280 Y-391.500 Z-3.000 I-1.500 J0.000 F1200.000 
G1 X778.210 Y-391.500 Z-3.000 F1200.000 
G2 X776.710 Y-390.000 Z-3.000 I0.000 J1.500 F1200.000 
G1 X776.710 Y-379.500 Z-3.000 F1200.000 
G1 X777.149 Y-379.061 
G1 X776.710 Y-379.500 
G1 X737.640 Y-379.500 Z-3.000 F1200.000 
G1 X737.201 Y-379.061 
G1 X737.640 Y-379.500 
G1 X737.640 Y-390.000 Z-3.000 F1200.000 
G2 X736.140 Y-391.500 Z-3.000 I-1.500 J0.000 F1200.000 
G1 X694.070 Y-391.500 Z-3.000 F1200.000 
G2 X692.570 Y-390.000 Z-3.000 I0.000 J1.500 F1200.000 
G1 X692.570 Y-379.500 Z-3.000 F1200.000 
G1 X693.009 Y-379.061 
G1 X692.570 Y-379.500 
G1 X611.430 Y-379.500 Z-3.000 F1200.000 
G1 X610.991 Y-379.061 
G1 X611.430 Y-379.500 
G1 X611.430 Y-390.000 Z-3.000 F1200.000 
G2 X609.930 Y-391.500 Z-3.000 I-1.500 J0.000 F1200.000 
G1 X567.860 Y-391.500 Z-3.000 F1200.000 
G2 X566.360 Y-390.000 Z-3.000 I0.000 J1.500 F1200.000 
G1 X566.360 Y-379.500 Z-3.000 F1200.000 
G1 X566.799 Y-379.061 
G1 X566.360 Y-379.500 
G1 X527.290 Y-379.500 Z-3.000 F1200.000 
G1 X526.851 Y-379.061 
G1 X527.290 Y-379.500 
G1 X527.290 Y-390.000 Z-3.000 F1200.000 
G2 X525.790 Y-391.500 Z-3.000 I-1.500 J0.000 F1200.000 
G1 X483.720 Y-391.500 Z-3.000 F1200.000 
G2 X482.220 Y-390.000 Z-3.000 I0.000 J1.500 F1200.000 
G1 X482.220 Y-379.500 Z-3.000 F1200.000 
G1 X482.659 Y-379.061 
G1 X482.220 Y-379.500 
G1 X453.650 Y-379.500 Z-3.000 F1200.000 
G2 X452.150 Y-378.000 Z-3.000 I0.000 J1.500 F1200.000 
G1 X452.150 Y-367.500 Z-3.000 F1200.000 
G1 X452.589 Y-367.061 
G1 X452.150 Y-367.500 
G1 X441.650 Y-367.500 Z-3.000 F1200.000 
G2 X440.150 Y-366.000 Z-3.000 I0.000 J1.500 F1200.000 
G1 X440.150 Y-354.000 Z-3.000 F1200.000 
G2 X441.650 Y-352.500 Z-3.000 I1.500 J-0.000 F1200.000 
G1 X452.150 Y-352.500 Z-3.000 F1200.000 
G1 X452.589 Y-352.939 
G1 X452.150 Y-352.500 
G1 X452.150 Y-295.500 Z-3.000 F1200.000 
G1 X452.589 Y-295.061 
G1 X452.150 Y-295.500 
G1 X441.650 Y-295.500 Z-3.000 F1200.000 
G2 X440.150 Y-294.000 Z-3.000 I0.000 J1.500 F1200.000 
G1 X440.150 Y-282.000 Z-3.000 F1200.000 
G2 X440.176 Y-281.723 Z-3.000 I1.500 J-0.000 F1200.000 
G1 X440.176 Y-281.723 Z-6.000 F500.000 
G2 X441.650 Y-280.500 Z-6.000 I1.474 J-0.277 F1200.000 
G1 X452.150 Y-280.500 Z-6.000 F1200.000 
G1 X452.589 Y-280.939 
G1 X452.150 Y-280.500 
G1 X452.150 Y-270.000 Z-6.000 F1200.000 
G2 X453.650 Y-268.500 Z-6.000 I1.500 J-0.000 F1200.000 
G1 X482.220 Y-268.500 Z-6.000 F1200.000 
G1 X482.659 Y-268.939 
G1 X482.220 Y-268.500 
G1 X482.220 Y-258.000 Z-6.000 F1200.000 
G2 X483.720 Y-256.500 Z-6.000 I1.500 J-0.000 F1200.000 
G1 X525.790 Y-256.500 Z-6.000 F1200.000 
G2 X527.290 Y-258.000 Z-6.000 I-0.000 J-1.500 F1200.000 
G1 X527.290 Y-268.500 Z-6.000 F1200.000 
G1 X526.851 Y-268.939 
G1 X527.290 Y-268.500 
G1 X566.360 Y-268.500 Z-6.000 F1200.000 
G1 X566.799 Y-268.939 
G1 X566.360 Y-268.500 
G1 X566.360 Y-258.000 Z-6.000 F1200.000 
G2 X567.860 Y-256.500 Z-6.000 I1.500 J-0.000 F1200.000 
G1 X609.930 Y-256.500 Z-6.000 F1200.000 
G2 X611.430 Y-258.000 Z-6.000 I-0.000 J-1.500 F1200.000 
G1 X611.430 Y-268.500 Z-6.000 F1200.000 
G1 X610.991 Y-268.939 
G1 X611.430 Y-268.500 
G1 X692.570 Y-268.500 Z-6.000 F1200.000 
G1 X693.009 Y-268.939 
G1 X692.570 Y-268.500 
G1 X692.570 Y-258.000 Z-6.000 F1200.000 
G2 X694.070 Y-256.500 Z-6.000 I1.500 J-0.000 F1200.000 
G1 X736.140 Y-256.500 Z-6.000 F1200.000 
G2 X737.640 Y-258.000 Z-6.000 I-0.000 J-1.500 F1200.000 
G1 X737.640 Y-268.500 Z-6.000 F1200.000 
G1 X737.201 Y-268.939 
G1 X737.640 Y-268.500 
G1 X776.710 Y-268.500 Z-6.000 F1200.000 
G1 X777.149 Y-268.939 
G1 X776.710 Y-268.500 
G1 X776.710 Y-258.000 Z-6.000 F1200.000 
G2 X778.210 Y-256.500 Z-6.000 I1.500 J-0.000 F1200.000 
G1 X820.280 Y-256.500 Z-6.000 F1200.000 
G2 X821.780 Y-258.000 Z-6.000 I-0.000 J-1.500 F1200.000 
G1 X821.780 Y-268.500 Z-6.000 F1200.000 
G1 X821.341 Y-268.939 
G1 X821.780 Y-268.500 
G1 X850.350 Y-268.500 Z-6.000 F1200.000 
G2 X851.850 Y-270.000 Z-6.000 I-0.000 J-1.500 F1200.000 
G1 X851.850 Y-280.500 Z-6.000 F1200.000 
G1 X851.411 Y-280.939 
G1 X851.850 Y-280.500 
G1 X862.350 Y-280.500 Z-6.000 F1200.000 
G2 X863.850 Y-282.000 Z-6.000 I-0.000 J-1.500 F1200.000 
G1 X863.850 Y-294.000 Z-6.000 F1200.000 
