(Exported by FreeCAD)
(Post Processor: linuxcnc_post)
(Output Time:2025-08-01 14:25:23.202754)
(begin preamble)
G17 G54 G40 G49 G80 G90
G21
(begin operation: Fixture)
(machine units: mm/min)
G54 
(finish operation: Fixture)
(begin operation: 3mm_Endmill_doubleFlute003)
(machine units: mm/min)
(3mm_Endmill_doubleFlute003) 
M5
M6 T1 
G43 H1 
M3 S24000 
(finish operation: 3mm_Endmill_doubleFlute003)
(begin operation: Pocket_Shape)
(machine units: mm/min)
(Pocket_Shape) 
G0 Z5.000 
G0 
G0 X90.450 Y-47.000 
G0 X90.450 Y-47.000 Z3.000 
G1 X90.450 Y-47.000 Z-3.000 F500.000 
G1 X90.450 Y-46.000 Z-3.000 F1200.000 
G1 X73.550 Y-46.000 Z-3.000 F1200.000 
G1 X73.550 Y-47.000 Z-3.000 F1200.000 
G1 X90.450 Y-47.000 Z-3.000 F1200.000 
G0 Z5.000 
G0 X91.200 Y-47.750 Z5.000 
G0 X91.200 Y-47.750 Z3.000 
G1 X91.200 Y-47.750 Z-3.000 F500.000 
G1 X91.200 Y-45.250 Z-3.000 F1200.000 
G1 X72.800 Y-45.250 Z-3.000 F1200.000 
G1 X72.800 Y-47.750 Z-3.000 F1200.000 
G1 X91.200 Y-47.750 Z-3.000 F1200.000 
G0 Z5.000 
G0 X91.950 Y-48.500 Z5.000 
G0 X91.950 Y-48.500 Z3.000 
G1 X91.950 Y-48.500 Z-3.000 F500.000 
G1 X91.950 Y-44.500 Z-3.000 F1200.000 
G1 X72.050 Y-44.500 Z-3.000 F1200.000 
G1 X72.050 Y-48.500 Z-3.000 F1200.000 
G1 X91.950 Y-48.500 Z-3.000 F1200.000 
G0 Z5.000 
G0 X94.950 Y-51.500 Z5.000 
G0 X94.950 Y-51.500 Z3.000 
G1 X94.950 Y-51.500 Z-3.000 F500.000 
G1 X94.950 Y-41.500 Z-3.000 F1200.000 
G1 X69.050 Y-41.500 Z-3.000 F1200.000 
G1 X69.050 Y-51.500 Z-3.000 F1200.000 
G1 X94.950 Y-51.500 Z-3.000 F1200.000 
G0 Z5.000 
G0 X97.950 Y-54.500 Z5.000 
G0 X97.950 Y-54.500 Z3.000 
G1 X97.950 Y-54.500 Z-3.000 F500.000 
G1 X97.950 Y-38.500 Z-3.000 F1200.000 
G1 X66.050 Y-38.500 Z-3.000 F1200.000 
G1 X66.050 Y-54.500 Z-3.000 F1200.000 
G1 X97.950 Y-54.500 Z-3.000 F1200.000 
G0 Z5.000 
G0 X100.950 Y-57.500 Z5.000 
G0 X100.950 Y-57.500 Z3.000 
G1 X100.950 Y-57.500 Z-3.000 F500.000 
G1 X100.950 Y-35.500 Z-3.000 F1200.000 
G1 X63.050 Y-35.500 Z-3.000 F1200.000 
G1 X63.050 Y-57.500 Z-3.000 F1200.000 
G1 X100.950 Y-57.500 Z-3.000 F1200.000 
G0 Z5.000 
G0 X103.950 Y-60.500 Z5.000 
G0 X103.950 Y-60.500 Z3.000 
G1 X103.950 Y-60.500 Z-3.000 F500.000 
G1 X103.950 Y-32.500 Z-3.000 F1200.000 
G1 X60.050 Y-32.500 Z-3.000 F1200.000 
G1 X60.050 Y-60.500 Z-3.000 F1200.000 
G1 X103.950 Y-60.500 Z-3.000 F1200.000 
G0 Z5.000 
G0 X90.450 Y-47.000 Z5.000 
G0 X90.450 Y-47.000 Z3.000 
G1 X90.450 Y-47.000 Z-6.000 F500.000 
G1 X90.450 Y-46.000 Z-6.000 F1200.000 
G1 X73.550 Y-46.000 Z-6.000 F1200.000 
G1 X73.550 Y-47.000 Z-6.000 F1200.000 
G1 X90.450 Y-47.000 Z-6.000 F1200.000 
G0 Z5.000 
G0 X91.200 Y-47.750 Z5.000 
G0 X91.200 Y-47.750 Z3.000 
G1 X91.200 Y-47.750 Z-6.000 F500.000 
G1 X91.200 Y-45.250 Z-6.000 F1200.000 
G1 X72.800 Y-45.250 Z-6.000 F1200.000 
G1 X72.800 Y-47.750 Z-6.000 F1200.000 
G1 X91.200 Y-47.750 Z-6.000 F1200.000 
G0 Z5.000 
G0 X91.950 Y-48.500 Z5.000 
G0 X91.950 Y-48.500 Z3.000 
G1 X91.950 Y-48.500 Z-6.000 F500.000 
G1 X91.950 Y-44.500 Z-6.000 F1200.000 
G1 X72.050 Y-44.500 Z-6.000 F1200.000 
G1 X72.050 Y-48.500 Z-6.000 F1200.000 
G1 X91.950 Y-48.500 Z-6.000 F1200.000 
G0 Z5.000 
G0 X94.950 Y-51.500 Z5.000 
G0 X94.950 Y-51.500 Z3.000 
G1 X94.950 Y-51.500 Z-6.000 F500.000 
G1 X94.950 Y-41.500 Z-6.000 F1200.000 
G1 X69.050 Y-41.500 Z-6.000 F1200.000 
G1 X69.050 Y-51.500 Z-6.000 F1200.000 
G1 X94.950 Y-51.500 Z-6.000 F1200.000 
G0 Z5.000 
G0 X97.950 Y-54.500 Z5.000 
G0 X97.950 Y-54.500 Z3.000 
G1 X97.950 Y-54.500 Z-6.000 F500.000 
G1 X97.950 Y-38.500 Z-6.000 F1200.000 
G1 X66.050 Y-38.500 Z-6.000 F1200.000 
G1 X66.050 Y-54.500 Z-6.000 F1200.000 
G1 X97.950 Y-54.500 Z-6.000 F1200.000 
G0 Z5.000 
G0 X100.950 Y-57.500 Z5.000 
G0 X100.950 Y-57.500 Z3.000 
G1 X100.950 Y-57.500 Z-6.000 F500.000 
G1 X100.950 Y-35.500 Z-6.000 F1200.000 
G1 X63.050 Y-35.500 Z-6.000 F1200.000 
G1 X63.050 Y-57.500 Z-6.000 F1200.000 
G1 X100.950 Y-57.500 Z-6.000 F1200.000 
G0 Z5.000 
G0 X103.950 Y-60.500 Z5.000 
G0 X103.950 Y-60.500 Z3.000 
G1 X103.950 Y-60.500 Z-6.000 F500.000 
G1 X103.950 Y-32.500 Z-6.000 F1200.000 
G1 X60.050 Y-32.500 Z-6.000 F1200.000 
G1 X60.050 Y-60.500 Z-6.000 F1200.000 
G1 X103.950 Y-60.500 Z-6.000 F1200.000 
G0 Z5.000 
G0 X90.450 Y-47.000 Z5.000 
G0 X90.450 Y-47.000 Z3.000 
G1 X90.450 Y-47.000 Z-9.000 F500.000 
G1 X90.450 Y-46.000 Z-9.000 F1200.000 
G1 X73.550 Y-46.000 Z-9.000 F1200.000 
G1 X73.550 Y-47.000 Z-9.000 F1200.000 
G1 X90.450 Y-47.000 Z-9.000 F1200.000 
G0 Z5.000 
G0 X91.200 Y-47.750 Z5.000 
G0 X91.200 Y-47.750 Z3.000 
G1 X91.200 Y-47.750 Z-9.000 F500.000 
G1 X91.200 Y-45.250 Z-9.000 F1200.000 
G1 X72.800 Y-45.250 Z-9.000 F1200.000 
G1 X72.800 Y-47.750 Z-9.000 F1200.000 
G1 X91.200 Y-47.750 Z-9.000 F1200.000 
G0 Z5.000 
G0 X91.950 Y-48.500 Z5.000 
G0 X91.950 Y-48.500 Z3.000 
G1 X91.950 Y-48.500 Z-9.000 F500.000 
G1 X91.950 Y-44.500 Z-9.000 F1200.000 
G1 X72.050 Y-44.500 Z-9.000 F1200.000 
G1 X72.050 Y-48.500 Z-9.000 F1200.000 
G1 X91.950 Y-48.500 Z-9.000 F1200.000 
G0 Z5.000 
G0 X94.950 Y-51.500 Z5.000 
G0 X94.950 Y-51.500 Z3.000 
G1 X94.950 Y-51.500 Z-9.000 F500.000 
G1 X94.950 Y-41.500 Z-9.000 F1200.000 
G1 X69.050 Y-41.500 Z-9.000 F1200.000 
G1 X69.050 Y-51.500 Z-9.000 F1200.000 
G1 X94.950 Y-51.500 Z-9.000 F1200.000 
G0 Z5.000 
G0 X97.950 Y-54.500 Z5.000 
G0 X97.950 Y-54.500 Z3.000 
G1 X97.950 Y-54.500 Z-9.000 F500.000 
G1 X97.950 Y-38.500 Z-9.000 F1200.000 
G1 X66.050 Y-38.500 Z-9.000 F1200.000 
G1 X66.050 Y-54.500 Z-9.000 F1200.000 
G1 X97.950 Y-54.500 Z-9.000 F1200.000 
G0 Z5.000 
G0 X100.950 Y-57.500 Z5.000 
G0 X100.950 Y-57.500 Z3.000 
G1 X100.950 Y-57.500 Z-9.000 F500.000 
G1 X100.950 Y-35.500 Z-9.000 F1200.000 
G1 X63.050 Y-35.500 Z-9.000 F1200.000 
G1 X63.050 Y-57.500 Z-9.000 F1200.000 
G1 X100.950 Y-57.500 Z-9.000 F1200.000 
G0 Z5.000 
G0 X103.950 Y-60.500 Z5.000 
G0 X103.950 Y-60.500 Z3.000 
G1 X103.950 Y-60.500 Z-9.000 F500.000 
G1 X103.950 Y-32.500 Z-9.000 F1200.000 
G1 X60.050 Y-32.500 Z-9.000 F1200.000 
G1 X60.050 Y-60.500 Z-9.000 F1200.000 
G1 X103.950 Y-60.500 Z-9.000 F1200.000 
G0 Z5.000 
G0 X90.450 Y-47.000 Z5.000 
G0 X90.450 Y-47.000 Z3.000 
G1 X90.450 Y-47.000 Z-12.000 F500.000 
G1 X90.450 Y-46.000 Z-12.000 F1200.000 
G1 X73.550 Y-46.000 Z-12.000 F1200.000 
G1 X73.550 Y-47.000 Z-12.000 F1200.000 
G1 X90.450 Y-47.000 Z-12.000 F1200.000 
G0 Z5.000 
G0 X91.200 Y-47.750 Z5.000 
G0 X91.200 Y-47.750 Z3.000 
G1 X91.200 Y-47.750 Z-12.000 F500.000 
G1 X91.200 Y-45.250 Z-12.000 F1200.000 
G1 X72.800 Y-45.250 Z-12.000 F1200.000 
G1 X72.800 Y-47.750 Z-12.000 F1200.000 
G1 X91.200 Y-47.750 Z-12.000 F1200.000 
G0 Z5.000 
G0 X91.950 Y-48.500 Z5.000 
G0 X91.950 Y-48.500 Z3.000 
G1 X91.950 Y-48.500 Z-12.000 F500.000 
G1 X91.950 Y-44.500 Z-12.000 F1200.000 
G1 X72.050 Y-44.500 Z-12.000 F1200.000 
G1 X72.050 Y-48.500 Z-12.000 F1200.000 
G1 X91.950 Y-48.500 Z-12.000 F1200.000 
G0 Z5.000 
G0 X94.950 Y-51.500 Z5.000 
G0 X94.950 Y-51.500 Z3.000 
G1 X94.950 Y-51.500 Z-12.000 F500.000 
G1 X94.950 Y-41.500 Z-12.000 F1200.000 
G1 X69.050 Y-41.500 Z-12.000 F1200.000 
G1 X69.050 Y-51.500 Z-12.000 F1200.000 
G1 X94.950 Y-51.500 Z-12.000 F1200.000 
G0 Z5.000 
G0 X97.950 Y-54.500 Z5.000 
G0 X97.950 Y-54.500 Z3.000 
G1 X97.950 Y-54.500 Z-12.000 F500.000 
G1 X97.950 Y-38.500 Z-12.000 F1200.000 
G1 X66.050 Y-38.500 Z-12.000 F1200.000 
G1 X66.050 Y-54.500 Z-12.000 F1200.000 
G1 X97.950 Y-54.500 Z-12.000 F1200.000 
G0 Z5.000 
G0 X100.950 Y-57.500 Z5.000 
G0 X100.950 Y-57.500 Z3.000 
G1 X100.950 Y-57.500 Z-12.000 F500.000 
G1 X100.950 Y-35.500 Z-12.000 F1200.000 
G1 X63.050 Y-35.500 Z-12.000 F1200.000 
G1 X63.050 Y-57.500 Z-12.000 F1200.000 
G1 X100.950 Y-57.500 Z-12.000 F1200.000 
G0 Z5.000 
G0 X103.950 Y-60.500 Z5.000 
G0 X103.950 Y-60.500 Z3.000 
G1 X103.950 Y-60.500 Z-12.000 F500.000 
G1 X103.950 Y-32.500 Z-12.000 F1200.000 
G1 X60.050 Y-32.500 Z-12.000 F1200.000 
G1 X60.050 Y-60.500 Z-12.000 F1200.000 
G1 X103.950 Y-60.500 Z-12.000 F1200.000 
G0 Z5.000 
G0 Z5.000 
(finish operation: Pocket_Shape)
(begin operation: Pocket_Shape001)
(machine units: mm/min)
(Pocket_Shape001) 
G0 Z5.000 
G0 X48.699 Y-72.385 
G0 Z3.000 
G1 X48.699 Y-72.385 Z-3.000 F500.000 
G3 X47.385 Y-73.699 Z-3.000 I0.289 J-1.603 F1200.000 
G1 X48.699 Y-72.385 Z-3.000 F1200.000 
G2 X50.163 Y-75.163 Z-3.000 I0.304 J-1.615 F1200.000 
G1 X50.163 Y-75.163 Z-6.000 F500.000 
G3 X48.699 Y-72.385 Z-6.000 I-1.161 J1.163 F1200.000 
G1 X47.385 Y-73.699 Z-6.000 F1200.000 
G2 X48.699 Y-72.385 Z-6.000 I1.603 J-0.289 F1200.000 
G1 X48.699 Y-72.385 Z-9.000 F500.000 
G3 X47.385 Y-73.699 Z-9.000 I0.289 J-1.603 F1200.000 
G1 X48.699 Y-72.385 Z-9.000 F1200.000 
G2 X50.163 Y-75.163 Z-9.000 I0.304 J-1.615 F1200.000 
G1 X50.163 Y-75.163 Z-12.000 F500.000 
G3 X48.699 Y-72.385 Z-12.000 I-1.161 J1.163 F1200.000 
G1 X47.385 Y-73.699 Z-12.000 F1200.000 
G2 X48.699 Y-72.385 Z-12.000 I1.603 J-0.289 F1200.000 
G0 Z5.000 
G0 Z5.000 
G0 X48.699 Y-72.385 
G0 X114.699 
G0 X114.699 Z3.000 
G1 X114.699 Y-72.385 Z-3.000 F500.000 
G3 X113.385 Y-73.699 Z-3.000 I0.289 J-1.603 F1200.000 
G1 X114.699 Y-72.385 Z-3.000 F1200.000 
G2 X116.163 Y-75.163 Z-3.000 I0.304 J-1.615 F1200.000 
G1 X116.163 Y-75.163 Z-6.000 F500.000 
G3 X114.699 Y-72.385 Z-6.000 I-1.161 J1.163 F1200.000 
G1 X113.385 Y-73.699 Z-6.000 F1200.000 
G2 X114.699 Y-72.385 Z-6.000 I1.603 J-0.289 F1200.000 
G1 X114.699 Y-72.385 Z-9.000 F500.000 
G3 X113.385 Y-73.699 Z-9.000 I0.289 J-1.603 F1200.000 
G1 X114.699 Y-72.385 Z-9.000 F1200.000 
G2 X116.163 Y-75.163 Z-9.000 I0.304 J-1.615 F1200.000 
G1 X116.163 Y-75.163 Z-12.000 F500.000 
G3 X114.699 Y-72.385 Z-12.000 I-1.161 J1.163 F1200.000 
G1 X113.385 Y-73.699 Z-12.000 F1200.000 
G2 X114.699 Y-72.385 Z-12.000 I1.603 J-0.289 F1200.000 
G0 Z5.000 
G0 Z5.000 
(finish operation: Pocket_Shape001)
(begin operation: MillFace)
(machine units: mm/min)
(MillFace) 
G0 Z5.000 
G0 
G0 X127.750 Y-120.750 
G0 X127.750 Y-120.750 Z3.000 
G1 X127.750 Y-120.750 Z-3.000 F500.000 
G1 X127.750 Y-120.250 Z-3.000 F1200.000 
G1 X36.250 Y-120.250 Z-3.000 F1200.000 
G1 X36.250 Y-120.750 Z-3.000 F1200.000 
G1 X127.750 Y-120.750 Z-3.000 F1200.000 
G0 Z5.000 
G0 X128.500 Y-121.500 Z5.000 
G0 X128.500 Y-121.500 Z3.000 
G1 X128.500 Y-121.500 Z-3.000 F500.000 
G1 X128.500 Y-119.500 Z-3.000 F1200.000 
G1 X35.500 Y-119.500 Z-3.000 F1200.000 
G1 X35.500 Y-121.500 Z-3.000 F1200.000 
G1 X128.500 Y-121.500 Z-3.000 F1200.000 
G0 Z5.000 
G0 X130.000 Y-123.000 Z5.000 
G0 X130.000 Y-123.000 Z3.000 
G1 X130.000 Y-123.000 Z-3.000 F500.000 
G1 X130.000 Y-118.000 Z-3.000 F1200.000 
G1 X34.000 Y-118.000 Z-3.000 F1200.000 
G1 X34.000 Y-123.000 Z-3.000 F1200.000 
G1 X130.000 Y-123.000 Z-3.000 F1200.000 
G0 Z5.000 
G0 X131.500 Y-124.500 Z5.000 
G0 X131.500 Y-124.500 Z3.000 
G1 X131.500 Y-124.500 Z-3.000 F500.000 
G1 X131.500 Y-116.500 Z-3.000 F1200.000 
G1 X32.500 Y-116.500 Z-3.000 F1200.000 
G1 X32.500 Y-124.500 Z-3.000 F1200.000 
G1 X131.500 Y-124.500 Z-3.000 F1200.000 
G0 Z5.000 
G0 X133.000 Y-126.000 Z5.000 
G0 X133.000 Y-126.000 Z3.000 
G1 X133.000 Y-126.000 Z-3.000 F500.000 
G1 X133.000 Y-115.000 Z-3.000 F1200.000 
G1 X31.000 Y-115.000 Z-3.000 F1200.000 
G1 X31.000 Y-126.000 Z-3.000 F1200.000 
G1 X133.000 Y-126.000 Z-3.000 F1200.000 
G0 Z5.000 
G0 X134.500 Y-127.500 Z5.000 
G0 X134.500 Y-127.500 Z3.000 
G1 X134.500 Y-127.500 Z-3.000 F500.000 
G1 X134.500 Y-113.500 Z-3.000 F1200.000 
G1 X29.500 Y-113.500 Z-3.000 F1200.000 
G1 X29.500 Y-127.500 Z-3.000 F1200.000 
G1 X134.500 Y-127.500 Z-3.000 F1200.000 
G0 Z5.000 
G0 Z5.000 
(finish operation: MillFace)
(begin operation: DressupDogbone)
(machine units: mm/min)
(Profile) 
(Compensated Tool Path. Diameter: 3.0) 
G0 Z5.000 
G0 X137.491 Y-18.834 
G0 Z3.000 
G1 X137.491 Y-18.834 Z-3.000 F500.000 
G2 X137.500 Y-19.000 Z-3.000 I-1.491 J-0.166 F1200.000 
G1 X137.500 Y-35.833 Z-3.000 F1200.000 
G1 X137.061 Y-36.273 
G1 X137.500 Y-35.833 
G1 X148.000 Y-35.833 Z-3.000 F1200.000 
G2 X149.500 Y-37.333 Z-3.000 I-0.000 J-1.500 F1200.000 
G1 X149.500 Y-55.667 Z-3.000 F1200.000 
G2 X148.000 Y-57.167 Z-3.000 I-1.500 J0.000 F1200.000 
G1 X137.500 Y-57.167 Z-3.000 F1200.000 
G1 X137.061 Y-56.727 
G1 X137.500 Y-57.167 
G1 X137.500 Y-90.833 Z-3.000 F1200.000 
G1 X137.061 Y-91.273 
G1 X137.500 Y-90.833 
G1 X148.000 Y-90.833 Z-3.000 F1200.000 
G2 X149.500 Y-92.333 Z-3.000 I-0.000 J-1.500 F1200.000 
G1 X149.500 Y-110.667 Z-3.000 F1200.000 
G2 X148.000 Y-112.167 Z-3.000 I-1.500 J0.000 F1200.000 
G1 X137.500 Y-112.167 Z-3.000 F1200.000 
G1 X137.061 Y-111.727 
G1 X137.500 Y-112.167 
G1 X137.500 Y-129.000 Z-3.000 F1200.000 
G2 X136.000 Y-130.500 Z-3.000 I-1.500 J0.000 F1200.000 
G1 X28.000 Y-130.500 Z-3.000 F1200.000 
G2 X26.500 Y-129.000 Z-3.000 I0.000 J1.500 F1200.000 
G1 X26.500 Y-112.167 Z-3.000 F1200.000 
G1 X26.939 Y-111.727 
G1 X26.500 Y-112.167 
G1 X16.000 Y-112.167 Z-3.000 F1200.000 
G2 X14.500 Y-110.667 Z-3.000 I0.000 J1.500 F1200.000 
G1 X14.500 Y-92.333 Z-3.000 F1200.000 
G2 X16.000 Y-90.833 Z-3.000 I1.500 J-0.000 F1200.000 
G1 X26.500 Y-90.833 Z-3.000 F1200.000 
G1 X26.939 Y-91.273 
G1 X26.500 Y-90.833 
G1 X26.500 Y-57.167 Z-3.000 F1200.000 
G1 X26.939 Y-56.727 
G1 X26.500 Y-57.167 
G1 X16.000 Y-57.167 Z-3.000 F1200.000 
G2 X14.500 Y-55.667 Z-3.000 I0.000 J1.500 F1200.000 
G1 X14.500 Y-37.333 Z-3.000 F1200.000 
G2 X16.000 Y-35.833 Z-3.000 I1.500 J-0.000 F1200.000 
G1 X26.500 Y-35.833 Z-3.000 F1200.000 
G1 X26.939 Y-36.273 
G1 X26.500 Y-35.833 
G1 X26.500 Y-19.000 Z-3.000 F1200.000 
G2 X28.000 Y-17.500 Z-3.000 I1.500 J-0.000 F1200.000 
G1 X40.000 Y-17.500 Z-3.000 F1200.000 
G2 X41.500 Y-19.000 Z-3.000 I-0.000 J-1.500 F1200.000 
G1 X41.500 Y-29.500 Z-3.000 F1200.000 
G1 X41.061 Y-29.939 
G1 X41.500 Y-29.500 
G1 X50.500 Y-29.500 Z-3.000 F1200.000 
G1 X50.939 Y-29.939 
G1 X50.500 Y-29.500 
G1 X50.500 Y-19.000 Z-3.000 F1200.000 
G2 X52.000 Y-17.500 Z-3.000 I1.500 J-0.000 F1200.000 
G1 X112.000 Y-17.500 Z-3.000 F1200.000 
G2 X113.500 Y-19.000 Z-3.000 I-0.000 J-1.500 F1200.000 
G1 X113.500 Y-29.500 Z-3.000 F1200.000 
G1 X113.061 Y-29.939 
G1 X113.500 Y-29.500 
G1 X122.500 Y-29.500 Z-3.000 F1200.000 
G1 X122.939 Y-29.939 
G1 X122.500 Y-29.500 
G1 X122.500 Y-19.000 Z-3.000 F1200.000 
G2 X124.000 Y-17.500 Z-3.000 I1.500 J-0.000 F1200.000 
G1 X136.000 Y-17.500 Z-3.000 F1200.000 
G2 X137.491 Y-18.834 Z-3.000 I-0.000 J-1.500 F1200.000 
G1 X137.491 Y-18.834 Z-6.000 F500.000 
G2 X137.500 Y-19.000 Z-6.000 I-1.491 J-0.166 F1200.000 
G1 X137.500 Y-35.833 Z-6.000 F1200.000 
G1 X137.061 Y-36.273 
G1 X137.500 Y-35.833 
G1 X148.000 Y-35.833 Z-6.000 F1200.000 
G2 X149.500 Y-37.333 Z-6.000 I-0.000 J-1.500 F1200.000 
G1 X149.500 Y-55.667 Z-6.000 F1200.000 
G2 X148.000 Y-57.167 Z-6.000 I-1.500 J0.000 F1200.000 
G1 X137.500 Y-57.167 Z-6.000 F1200.000 
G1 X137.061 Y-56.727 
G1 X137.500 Y-57.167 
G1 X137.500 Y-90.833 Z-6.000 F1200.000 
G1 X137.061 Y-91.273 
G1 X137.500 Y-90.833 
G1 X148.000 Y-90.833 Z-6.000 F1200.000 
G2 X149.500 Y-92.333 Z-6.000 I-0.000 J-1.500 F1200.000 
G1 X149.500 Y-110.667 Z-6.000 F1200.000 
G2 X148.000 Y-112.167 Z-6.000 I-1.500 J0.000 F1200.000 
G1 X137.500 Y-112.167 Z-6.000 F1200.000 
G1 X137.061 Y-111.727 
G1 X137.500 Y-112.167 
G1 X137.500 Y-129.000 Z-6.000 F1200.000 
G2 X136.000 Y-130.500 Z-6.000 I-1.500 J0.000 F1200.000 
G1 X28.000 Y-130.500 Z-6.000 F1200.000 
G2 X26.500 Y-129.000 Z-6.000 I0.000 J1.500 F1200.000 
G1 X26.500 Y-112.167 Z-6.000 F1200.000 
G1 X26.939 Y-111.727 
G1 X26.500 Y-112.167 
G1 X16.000 Y-112.167 Z-6.000 F1200.000 
G2 X14.500 Y-110.667 Z-6.000 I0.000 J1.500 F1200.000 
G1 X14.500 Y-92.333 Z-6.000 F1200.000 
G2 X16.000 Y-90.833 Z-6.000 I1.500 J-0.000 F1200.000 
G1 X26.500 Y-90.833 Z-6.000 F1200.000 
G1 X26.939 Y-91.273 
G1 X26.500 Y-90.833 
G1 X26.500 Y-57.167 Z-6.000 F1200.000 
G1 X26.939 Y-56.727 
G1 X26.500 Y-57.167 
G1 X16.000 Y-57.167 Z-6.000 F1200.000 
G2 X14.500 Y-55.667 Z-6.000 I0.000 J1.500 F1200.000 
G1 X14.500 Y-37.333 Z-6.000 F1200.000 
G2 X16.000 Y-35.833 Z-6.000 I1.500 J-0.000 F1200.000 
G1 X26.500 Y-35.833 Z-6.000 F1200.000 
G1 X26.939 Y-36.273 
G1 X26.500 Y-35.833 
G1 X26.500 Y-19.000 Z-6.000 F1200.000 
G2 X28.000 Y-17.500 Z-6.000 I1.500 J-0.000 F1200.000 
G1 X40.000 Y-17.500 Z-6.000 F1200.000 
G2 X41.500 Y-19.000 Z-6.000 I-0.000 J-1.500 F1200.000 
G1 X41.500 Y-29.500 Z-6.000 F1200.000 
G1 X41.061 Y-29.939 
G1 X41.500 Y-29.500 
G1 X50.500 Y-29.500 Z-6.000 F1200.000 
G1 X50.939 Y-29.939 
G1 X50.500 Y-29.500 
G1 X50.500 Y-19.000 Z-6.000 F1200.000 
G2 X52.000 Y-17.500 Z-6.000 I1.500 J-0.000 F1200.000 
G1 X112.000 Y-17.500 Z-6.000 F1200.000 
G2 X113.500 Y-19.000 Z-6.000 I-0.000 J-1.500 F1200.000 
G1 X113.500 Y-29.500 Z-6.000 F1200.000 
G1 X113.061 Y-29.939 
G1 X113.500 Y-29.500 
G1 X122.500 Y-29.500 Z-6.000 F1200.000 
G1 X122.939 Y-29.939 
G1 X122.500 Y-29.500 
G1 X122.500 Y-19.000 Z-6.000 F1200.000 
G2 X124.000 Y-17.500 Z-6.000 I1.500 J-0.000 F1200.000 
G1 X136.000 Y-17.500 Z-6.000 F1200.000 
G2 X137.491 Y-18.834 Z-6.000 I-0.000 J-1.500 F1200.000 
G1 X137.491 Y-18.834 Z-9.000 F500.000 
G2 X137.500 Y-19.000 Z-9.000 I-1.491 J-0.166 F1200.000 
G1 X137.500 Y-35.833 Z-9.000 F1200.000 
G1 X137.061 Y-36.273 
G1 X137.500 Y-35.833 
G1 X148.000 Y-35.833 Z-9.000 F1200.000 
G2 X149.500 Y-37.333 Z-9.000 I-0.000 J-1.500 F1200.000 
G1 X149.500 Y-55.667 Z-9.000 F1200.000 
G2 X148.000 Y-57.167 Z-9.000 I-1.500 J0.000 F1200.000 
G1 X137.500 Y-57.167 Z-9.000 F1200.000 
G1 X137.061 Y-56.727 
G1 X137.500 Y-57.167 
G1 X137.500 Y-90.833 Z-9.000 F1200.000 
G1 X137.061 Y-91.273 
G1 X137.500 Y-90.833 
G1 X148.000 Y-90.833 Z-9.000 F1200.000 
G2 X149.500 Y-92.333 Z-9.000 I-0.000 J-1.500 F1200.000 
G1 X149.500 Y-110.667 Z-9.000 F1200.000 
G2 X148.000 Y-112.167 Z-9.000 I-1.500 J0.000 F1200.000 
G1 X137.500 Y-112.167 Z-9.000 F1200.000 
G1 X137.061 Y-111.727 
G1 X137.500 Y-112.167 
G1 X137.500 Y-129.000 Z-9.000 F1200.000 
G2 X136.000 Y-130.500 Z-9.000 I-1.500 J0.000 F1200.000 
G1 X28.000 Y-130.500 Z-9.000 F1200.000 
G2 X26.500 Y-129.000 Z-9.000 I0.000 J1.500 F1200.000 
G1 X26.500 Y-112.167 Z-9.000 F1200.000 
G1 X26.939 Y-111.727 
G1 X26.500 Y-112.167 
G1 X16.000 Y-112.167 Z-9.000 F1200.000 
G2 X14.500 Y-110.667 Z-9.000 I0.000 J1.500 F1200.000 
G1 X14.500 Y-92.333 Z-9.000 F1200.000 
G2 X16.000 Y-90.833 Z-9.000 I1.500 J-0.000 F1200.000 
G1 X26.500 Y-90.833 Z-9.000 F1200.000 
G1 X26.939 Y-91.273 
G1 X26.500 Y-90.833 
G1 X26.500 Y-57.167 Z-9.000 F1200.000 
G1 X26.939 Y-56.727 
G1 X26.500 Y-57.167 
G1 X16.000 Y-57.167 Z-9.000 F1200.000 
G2 X14.500 Y-55.667 Z-9.000 I0.000 J1.500 F1200.000 
G1 X14.500 Y-37.333 Z-9.000 F1200.000 
G2 X16.000 Y-35.833 Z-9.000 I1.500 J-0.000 F1200.000 
G1 X26.500 Y-35.833 Z-9.000 F1200.000 
G1 X26.939 Y-36.273 
G1 X26.500 Y-35.833 
G1 X26.500 Y-19.000 Z-9.000 F1200.000 
G2 X28.000 Y-17.500 Z-9.000 I1.500 J-0.000 F1200.000 
G1 X40.000 Y-17.500 Z-9.000 F1200.000 
G2 X41.500 Y-19.000 Z-9.000 I-0.000 J-1.500 F1200.000 
G1 X41.500 Y-29.500 Z-9.000 F1200.000 
G1 X41.061 Y-29.939 
G1 X41.500 Y-29.500 
G1 X50.500 Y-29.500 Z-9.000 F1200.000 
G1 X50.939 Y-29.939 
G1 X50.500 Y-29.500 
G1 X50.500 Y-19.000 Z-9.000 F1200.000 
G2 X52.000 Y-17.500 Z-9.000 I1.500 J-0.000 F1200.000 
G1 X112.000 Y-17.500 Z-9.000 F1200.000 
G2 X113.500 Y-19.000 Z-9.000 I-0.000 J-1.500 F1200.000 
G1 X113.500 Y-29.500 Z-9.000 F1200.000 
G1 X113.061 Y-29.939 
G1 X113.500 Y-29.500 
G1 X122.500 Y-29.500 Z-9.000 F1200.000 
G1 X122.939 Y-29.939 
G1 X122.500 Y-29.500 
G1 X122.500 Y-19.000 Z-9.000 F1200.000 
G2 X124.000 Y-17.500 Z-9.000 I1.500 J-0.000 F1200.000 
G1 X136.000 Y-17.500 Z-9.000 F1200.000 
G2 X137.491 Y-18.834 Z-9.000 I-0.000 J-1.500 F1200.000 
G1 X137.491 Y-18.834 Z-12.000 F500.000 
G2 X137.500 Y-19.000 Z-12.000 I-1.491 J-0.166 F1200.000 
G1 X137.500 Y-35.833 Z-12.000 F1200.000 
G1 X137.061 Y-36.273 
G1 X137.500 Y-35.833 
G1 X148.000 Y-35.833 Z-12.000 F1200.000 
G2 X149.500 Y-37.333 Z-12.000 I-0.000 J-1.500 F1200.000 
G1 X149.500 Y-55.667 Z-12.000 F1200.000 
G2 X148.000 Y-57.167 Z-12.000 I-1.500 J0.000 F1200.000 
G1 X137.500 Y-57.167 Z-12.000 F1200.000 
G1 X137.061 Y-56.727 
G1 X137.500 Y-57.167 
G1 X137.500 Y-90.833 Z-12.000 F1200.000 
G1 X137.061 Y-91.273 
G1 X137.500 Y-90.833 
G1 X148.000 Y-90.833 Z-12.000 F1200.000 
G2 X149.500 Y-92.333 Z-12.000 I-0.000 J-1.500 F1200.000 
G1 X149.500 Y-110.667 Z-12.000 F1200.000 
G2 X148.000 Y-112.167 Z-12.000 I-1.500 J0.000 F1200.000 
G1 X137.500 Y-112.167 Z-12.000 F1200.000 
G1 X137.061 Y-111.727 
G1 X137.500 Y-112.167 
G1 X137.500 Y-129.000 Z-12.000 F1200.000 
G2 X136.000 Y-130.500 Z-12.000 I-1.500 J0.000 F1200.000 
G1 X28.000 Y-130.500 Z-12.000 F1200.000 
G2 X26.500 Y-129.000 Z-12.000 I0.000 J1.500 F1200.000 
G1 X26.500 Y-112.167 Z-12.000 F1200.000 
G1 X26.939 Y-111.727 
G1 X26.500 Y-112.167 
G1 X16.000 Y-112.167 Z-12.000 F1200.000 
G2 X14.500 Y-110.667 Z-12.000 I0.000 J1.500 F1200.000 
G1 X14.500 Y-92.333 Z-12.000 F1200.000 
G2 X16.000 Y-90.833 Z-12.000 I1.500 J-0.000 F1200.000 
G1 X26.500 Y-90.833 Z-12.000 F1200.000 
G1 X26.939 Y-91.273 
G1 X26.500 Y-90.833 
G1 X26.500 Y-57.167 Z-12.000 F1200.000 
G1 X26.939 Y-56.727 
G1 X26.500 Y-57.167 
G1 X16.000 Y-57.167 Z-12.000 F1200.000 
G2 X14.500 Y-55.667 Z-12.000 I0.000 J1.500 F1200.000 
G1 X14.500 Y-37.333 Z-12.000 F1200.000 
G2 X16.000 Y-35.833 Z-12.000 I1.500 J-0.000 F1200.000 
G1 X26.500 Y-35.833 Z-12.000 F1200.000 
G1 X26.939 Y-36.273 
G1 X26.500 Y-35.833 
G1 X26.500 Y-19.000 Z-12.000 F1200.000 
G2 X28.000 Y-17.500 Z-12.000 I1.500 J-0.000 F1200.000 
G1 X40.000 Y-17.500 Z-12.000 F1200.000 
G2 X41.500 Y-19.000 Z-12.000 I-0.000 J-1.500 F1200.000 
G1 X41.500 Y-29.500 Z-12.000 F1200.000 
G1 X41.061 Y-29.939 
G1 X41.500 Y-29.500 
G1 X50.500 Y-29.500 Z-12.000 F1200.000 
G1 X50.939 Y-29.939 
G1 X50.500 Y-29.500 
G1 X50.500 Y-19.000 Z-12.000 F1200.000 
G2 X52.000 Y-17.500 Z-12.000 I1.500 J-0.000 F1200.000 
G1 X112.000 Y-17.500 Z-12.000 F1200.000 
G2 X113.500 Y-19.000 Z-12.000 I-0.000 J-1.500 F1200.000 
G1 X113.500 Y-29.500 Z-12.000 F1200.000 
G1 X113.061 Y-29.939 
G1 X113.500 Y-29.500 
G1 X122.500 Y-29.500 Z-12.000 F1200.000 
G1 X122.939 Y-29.939 
G1 X122.500 Y-29.500 
G1 X122.500 Y-19.000 Z-12.000 F1200.000 
G2 X124.000 Y-17.500 Z-12.000 I1.500 J-0.000 F1200.000 
G1 X136.000 Y-17.500 Z-12.000 F1200.000 
G2 X137.491 Y-18.834 Z-12.000 I-0.000 J-1.500 F1200.000 
G0 Z5.000 
G0 Z5.000 
(finish operation: DressupDogbone)
(begin postamble)
M05
G17 G54 G90 G80 G40
M2
