(Exported by FreeCAD)
(Post Processor: linuxcnc_post)
(Output Time:2025-08-11 23:07:52.892372)
(begin preamble)
G17 G54 G40 G49 G80 G90
G21
(begin operation: Fixture)
(machine units: mm/min)
G54 
(finish operation: Fixture)
(begin operation: Endmill002)
(machine units: mm/min)
(Endmill002) 
M5
M6 T1 
G43 H1 
M3 S24000 
(finish operation: Endmill002)
(begin operation: DressupDogbone012)
(machine units: mm/min)
(Profile012) 
(Compensated Tool Path. Diameter: 3.0) 
G0 Z5.000 
G0 X451.191 Y-120.334 
G0 Z3.000 
G1 X451.191 Y-120.334 Z-3.000 F500.000 
G2 X451.200 Y-120.500 Z-3.000 I-1.491 J-0.166 F1200.000 
G1 X451.200 Y-136.667 Z-3.000 F1200.000 
G1 X450.761 Y-137.106 
G1 X451.200 Y-136.667 
G1 X461.700 Y-136.667 Z-3.000 F1200.000 
G2 X463.200 Y-138.167 Z-3.000 I-0.000 J-1.500 F1200.000 
G1 X463.200 Y-155.833 Z-3.000 F1200.000 
G2 X461.700 Y-157.333 Z-3.000 I-1.500 J0.000 F1200.000 
G1 X451.200 Y-157.333 Z-3.000 F1200.000 
G1 X450.761 Y-156.894 
G1 X451.200 Y-157.333 
G1 X451.200 Y-173.500 Z-3.000 F1200.000 
G2 X449.700 Y-175.000 Z-3.000 I-1.500 J0.000 F1200.000 
G1 X416.030 Y-175.000 Z-3.000 F1200.000 
G2 X414.530 Y-173.500 Z-3.000 I0.000 J1.500 F1200.000 
G1 X414.530 Y-163.000 Z-3.000 F1200.000 
G1 X414.969 Y-162.561 
G1 X414.530 Y-163.000 
G1 X371.860 Y-163.000 Z-3.000 F1200.000 
G1 X371.421 Y-162.561 
G1 X371.860 Y-163.000 
G1 X371.860 Y-173.500 Z-3.000 F1200.000 
G2 X370.360 Y-175.000 Z-3.000 I-1.500 J0.000 F1200.000 
G1 X324.690 Y-175.000 Z-3.000 F1200.000 
G2 X323.190 Y-173.500 Z-3.000 I0.000 J1.500 F1200.000 
G1 X323.190 Y-163.000 Z-3.000 F1200.000 
G1 X323.629 Y-162.561 
G1 X323.190 Y-163.000 
G1 X280.520 Y-163.000 Z-3.000 F1200.000 
G1 X280.081 Y-162.561 
G1 X280.520 Y-163.000 
G1 X280.520 Y-173.500 Z-3.000 F1200.000 
G2 X279.020 Y-175.000 Z-3.000 I-1.500 J0.000 F1200.000 
G1 X187.680 Y-175.000 Z-3.000 F1200.000 
G2 X186.180 Y-173.500 Z-3.000 I0.000 J1.500 F1200.000 
G1 X186.180 Y-163.000 Z-3.000 F1200.000 
G1 X186.619 Y-162.561 
G1 X186.180 Y-163.000 
G1 X143.510 Y-163.000 Z-3.000 F1200.000 
G1 X143.071 Y-162.561 
G1 X143.510 Y-163.000 
G1 X143.510 Y-173.500 Z-3.000 F1200.000 
G2 X142.010 Y-175.000 Z-3.000 I-1.500 J0.000 F1200.000 
G1 X96.340 Y-175.000 Z-3.000 F1200.000 
G2 X94.840 Y-173.500 Z-3.000 I0.000 J1.500 F1200.000 
G1 X94.840 Y-163.000 Z-3.000 F1200.000 
G1 X95.279 Y-162.561 
G1 X94.840 Y-163.000 
G1 X52.170 Y-163.000 Z-3.000 F1200.000 
G1 X51.731 Y-162.561 
G1 X52.170 Y-163.000 
G1 X52.170 Y-173.500 Z-3.000 F1200.000 
G2 X50.670 Y-175.000 Z-3.000 I-1.500 J0.000 F1200.000 
G1 X17.000 Y-175.000 Z-3.000 F1200.000 
G2 X15.500 Y-173.500 Z-3.000 I0.000 J1.500 F1200.000 
G1 X15.500 Y-157.333 Z-3.000 F1200.000 
G1 X15.939 Y-156.894 
G1 X15.500 Y-157.333 
G1 X5.000 Y-157.333 Z-3.000 F1200.000 
G2 X3.500 Y-155.833 Z-3.000 I0.000 J1.500 F1200.000 
G1 X3.500 Y-138.167 Z-3.000 F1200.000 
G2 X5.000 Y-136.667 Z-3.000 I1.500 J-0.000 F1200.000 
G1 X15.500 Y-136.667 Z-3.000 F1200.000 
G1 X15.939 Y-137.106 
G1 X15.500 Y-136.667 
G1 X15.500 Y-120.500 Z-3.000 F1200.000 
G2 X17.000 Y-119.000 Z-3.000 I1.500 J-0.000 F1200.000 
G1 X449.700 Y-119.000 Z-3.000 F1200.000 
G2 X451.191 Y-120.334 Z-3.000 I-0.000 J-1.500 F1200.000 
G1 X451.191 Y-120.334 Z-6.000 F500.000 
G2 X451.200 Y-120.500 Z-6.000 I-1.491 J-0.166 F1200.000 
G1 X451.200 Y-136.667 Z-6.000 F1200.000 
G1 X450.761 Y-137.106 
G1 X451.200 Y-136.667 
G1 X461.700 Y-136.667 Z-6.000 F1200.000 
G2 X463.200 Y-138.167 Z-6.000 I-0.000 J-1.500 F1200.000 
G1 X463.200 Y-155.833 Z-6.000 F1200.000 
G2 X461.700 Y-157.333 Z-6.000 I-1.500 J0.000 F1200.000 
G1 X451.200 Y-157.333 Z-6.000 F1200.000 
G1 X450.761 Y-156.894 
G1 X451.200 Y-157.333 
G1 X451.200 Y-173.500 Z-6.000 F1200.000 
G2 X449.700 Y-175.000 Z-6.000 I-1.500 J0.000 F1200.000 
G1 X416.030 Y-175.000 Z-6.000 F1200.000 
G2 X414.530 Y-173.500 Z-6.000 I0.000 J1.500 F1200.000 
G1 X414.530 Y-163.000 Z-6.000 F1200.000 
G1 X414.969 Y-162.561 
G1 X414.530 Y-163.000 
G1 X371.860 Y-163.000 Z-6.000 F1200.000 
G1 X371.421 Y-162.561 
G1 X371.860 Y-163.000 
G1 X371.860 Y-173.500 Z-6.000 F1200.000 
G2 X370.360 Y-175.000 Z-6.000 I-1.500 J0.000 F1200.000 
G1 X324.690 Y-175.000 Z-6.000 F1200.000 
G2 X323.190 Y-173.500 Z-6.000 I0.000 J1.500 F1200.000 
G1 X323.190 Y-163.000 Z-6.000 F1200.000 
G1 X323.629 Y-162.561 
G1 X323.190 Y-163.000 
G1 X280.520 Y-163.000 Z-6.000 F1200.000 
G1 X280.081 Y-162.561 
G1 X280.520 Y-163.000 
G1 X280.520 Y-173.500 Z-6.000 F1200.000 
G2 X279.020 Y-175.000 Z-6.000 I-1.500 J0.000 F1200.000 
G1 X187.680 Y-175.000 Z-6.000 F1200.000 
G2 X186.180 Y-173.500 Z-6.000 I0.000 J1.500 F1200.000 
G1 X186.180 Y-163.000 Z-6.000 F1200.000 
G1 X186.619 Y-162.561 
G1 X186.180 Y-163.000 
G1 X143.510 Y-163.000 Z-6.000 F1200.000 
G1 X143.071 Y-162.561 
G1 X143.510 Y-163.000 
G1 X143.510 Y-173.500 Z-6.000 F1200.000 
G2 X142.010 Y-175.000 Z-6.000 I-1.500 J0.000 F1200.000 
G1 X96.340 Y-175.000 Z-6.000 F1200.000 
G2 X94.840 Y-173.500 Z-6.000 I0.000 J1.500 F1200.000 
G1 X94.840 Y-163.000 Z-6.000 F1200.000 
G1 X95.279 Y-162.561 
G1 X94.840 Y-163.000 
G1 X52.170 Y-163.000 Z-6.000 F1200.000 
G1 X51.731 Y-162.561 
G1 X52.170 Y-163.000 
G1 X52.170 Y-173.500 Z-6.000 F1200.000 
G2 X50.670 Y-175.000 Z-6.000 I-1.500 J0.000 F1200.000 
G1 X17.000 Y-175.000 Z-6.000 F1200.000 
G2 X15.500 Y-173.500 Z-6.000 I0.000 J1.500 F1200.000 
G1 X15.500 Y-157.333 Z-6.000 F1200.000 
G1 X15.939 Y-156.894 
G1 X15.500 Y-157.333 
G1 X5.000 Y-157.333 Z-6.000 F1200.000 
G2 X3.500 Y-155.833 Z-6.000 I0.000 J1.500 F1200.000 
G1 X3.500 Y-138.167 Z-6.000 F1200.000 
G2 X5.000 Y-136.667 Z-6.000 I1.500 J-0.000 F1200.000 
G1 X15.500 Y-136.667 Z-6.000 F1200.000 
G1 X15.939 Y-137.106 
G1 X15.500 Y-136.667 
G1 X15.500 Y-120.500 Z-6.000 F1200.000 
G2 X17.000 Y-119.000 Z-6.000 I1.500 J-0.000 F1200.000 
G1 X449.700 Y-119.000 Z-6.000 F1200.000 
G2 X451.191 Y-120.334 Z-6.000 I-0.000 J-1.500 F1200.000 
G1 X451.191 Y-120.334 Z-9.000 F500.000 
G2 X451.200 Y-120.500 Z-9.000 I-1.491 J-0.166 F1200.000 
G1 X451.200 Y-136.667 Z-9.000 F1200.000 
G1 X450.761 Y-137.106 
G1 X451.200 Y-136.667 
G1 X461.700 Y-136.667 Z-9.000 F1200.000 
G2 X463.200 Y-138.167 Z-9.000 I-0.000 J-1.500 F1200.000 
G1 X463.200 Y-155.833 Z-9.000 F1200.000 
G2 X461.700 Y-157.333 Z-9.000 I-1.500 J0.000 F1200.000 
G1 X451.200 Y-157.333 Z-9.000 F1200.000 
G1 X450.761 Y-156.894 
G1 X451.200 Y-157.333 
G1 X451.200 Y-173.500 Z-9.000 F1200.000 
G2 X449.700 Y-175.000 Z-9.000 I-1.500 J0.000 F1200.000 
G1 X416.030 Y-175.000 Z-9.000 F1200.000 
G2 X414.530 Y-173.500 Z-9.000 I0.000 J1.500 F1200.000 
G1 X414.530 Y-163.000 Z-9.000 F1200.000 
G1 X414.969 Y-162.561 
G1 X414.530 Y-163.000 
G1 X371.860 Y-163.000 Z-9.000 F1200.000 
G1 X371.421 Y-162.561 
G1 X371.860 Y-163.000 
G1 X371.860 Y-173.500 Z-9.000 F1200.000 
G2 X370.360 Y-175.000 Z-9.000 I-1.500 J0.000 F1200.000 
G1 X324.690 Y-175.000 Z-9.000 F1200.000 
G2 X323.190 Y-173.500 Z-9.000 I0.000 J1.500 F1200.000 
G1 X323.190 Y-163.000 Z-9.000 F1200.000 
G1 X323.629 Y-162.561 
G1 X323.190 Y-163.000 
G1 X280.520 Y-163.000 Z-9.000 F1200.000 
G1 X280.081 Y-162.561 
G1 X280.520 Y-163.000 
G1 X280.520 Y-173.500 Z-9.000 F1200.000 
G2 X279.020 Y-175.000 Z-9.000 I-1.500 J0.000 F1200.000 
G1 X187.680 Y-175.000 Z-9.000 F1200.000 
G2 X186.180 Y-173.500 Z-9.000 I0.000 J1.500 F1200.000 
G1 X186.180 Y-163.000 Z-9.000 F1200.000 
G1 X186.619 Y-162.561 
G1 X186.180 Y-163.000 
G1 X143.510 Y-163.000 Z-9.000 F1200.000 
G1 X143.071 Y-162.561 
G1 X143.510 Y-163.000 
G1 X143.510 Y-173.500 Z-9.000 F1200.000 
G2 X142.010 Y-175.000 Z-9.000 I-1.500 J0.000 F1200.000 
G1 X96.340 Y-175.000 Z-9.000 F1200.000 
G2 X94.840 Y-173.500 Z-9.000 I0.000 J1.500 F1200.000 
G1 X94.840 Y-163.000 Z-9.000 F1200.000 
G1 X95.279 Y-162.561 
G1 X94.840 Y-163.000 
G1 X52.170 Y-163.000 Z-9.000 F1200.000 
G1 X51.731 Y-162.561 
G1 X52.170 Y-163.000 
G1 X52.170 Y-173.500 Z-9.000 F1200.000 
G2 X50.670 Y-175.000 Z-9.000 I-1.500 J0.000 F1200.000 
G1 X17.000 Y-175.000 Z-9.000 F1200.000 
G2 X15.500 Y-173.500 Z-9.000 I0.000 J1.500 F1200.000 
G1 X15.500 Y-157.333 Z-9.000 F1200.000 
G1 X15.939 Y-156.894 
G1 X15.500 Y-157.333 
G1 X5.000 Y-157.333 Z-9.000 F1200.000 
G2 X3.500 Y-155.833 Z-9.000 I0.000 J1.500 F1200.000 
G1 X3.500 Y-138.167 Z-9.000 F1200.000 
G2 X5.000 Y-136.667 Z-9.000 I1.500 J-0.000 F1200.000 
G1 X15.500 Y-136.667 Z-9.000 F1200.000 
G1 X15.939 Y-137.106 
G1 X15.500 Y-136.667 
G1 X15.500 Y-120.500 Z-9.000 F1200.000 
G2 X17.000 Y-119.000 Z-9.000 I1.500 J-0.000 F1200.000 
G1 X449.700 Y-119.000 Z-9.000 F1200.000 
G2 X451.191 Y-120.334 Z-9.000 I-0.000 J-1.500 F1200.000 
G1 X451.191 Y-120.334 Z-12.000 F500.000 
G2 X451.200 Y-120.500 Z-12.000 I-1.491 J-0.166 F1200.000 
G1 X451.200 Y-136.667 Z-12.000 F1200.000 
G1 X450.761 Y-137.106 
G1 X451.200 Y-136.667 
G1 X461.700 Y-136.667 Z-12.000 F1200.000 
G2 X463.200 Y-138.167 Z-12.000 I-0.000 J-1.500 F1200.000 
G1 X463.200 Y-155.833 Z-12.000 F1200.000 
G2 X461.700 Y-157.333 Z-12.000 I-1.500 J0.000 F1200.000 
G1 X451.200 Y-157.333 Z-12.000 F1200.000 
G1 X450.761 Y-156.894 
G1 X451.200 Y-157.333 
G1 X451.200 Y-173.500 Z-12.000 F1200.000 
G2 X449.700 Y-175.000 Z-12.000 I-1.500 J0.000 F1200.000 
G1 X416.030 Y-175.000 Z-12.000 F1200.000 
G2 X414.530 Y-173.500 Z-12.000 I0.000 J1.500 F1200.000 
G1 X414.530 Y-163.000 Z-12.000 F1200.000 
G1 X414.969 Y-162.561 
G1 X414.530 Y-163.000 
G1 X371.860 Y-163.000 Z-12.000 F1200.000 
G1 X371.421 Y-162.561 
G1 X371.860 Y-163.000 
G1 X371.860 Y-173.500 Z-12.000 F1200.000 
G2 X370.360 Y-175.000 Z-12.000 I-1.500 J0.000 F1200.000 
G1 X324.690 Y-175.000 Z-12.000 F1200.000 
G2 X323.190 Y-173.500 Z-12.000 I0.000 J1.500 F1200.000 
G1 X323.190 Y-163.000 Z-12.000 F1200.000 
G1 X323.629 Y-162.561 
G1 X323.190 Y-163.000 
G1 X280.520 Y-163.000 Z-12.000 F1200.000 
G1 X280.081 Y-162.561 
G1 X280.520 Y-163.000 
G1 X280.520 Y-173.500 Z-12.000 F1200.000 
G2 X279.020 Y-175.000 Z-12.000 I-1.500 J0.000 F1200.000 
G1 X187.680 Y-175.000 Z-12.000 F1200.000 
G2 X186.180 Y-173.500 Z-12.000 I0.000 J1.500 F1200.000 
G1 X186.180 Y-163.000 Z-12.000 F1200.000 
G1 X186.619 Y-162.561 
G1 X186.180 Y-163.000 
G1 X143.510 Y-163.000 Z-12.000 F1200.000 
G1 X143.071 Y-162.561 
G1 X143.510 Y-163.000 
G1 X143.510 Y-173.500 Z-12.000 F1200.000 
G2 X142.010 Y-175.000 Z-12.000 I-1.500 J0.000 F1200.000 
G1 X96.340 Y-175.000 Z-12.000 F1200.000 
G2 X94.840 Y-173.500 Z-12.000 I0.000 J1.500 F1200.000 
G1 X94.840 Y-163.000 Z-12.000 F1200.000 
G1 X95.279 Y-162.561 
G1 X94.840 Y-163.000 
G1 X52.170 Y-163.000 Z-12.000 F1200.000 
G1 X51.731 Y-162.561 
G1 X52.170 Y-163.000 
G1 X52.170 Y-173.500 Z-12.000 F1200.000 
G2 X50.670 Y-175.000 Z-12.000 I-1.500 J0.000 F1200.000 
G1 X17.000 Y-175.000 Z-12.000 F1200.000 
G2 X15.500 Y-173.500 Z-12.000 I0.000 J1.500 F1200.000 
G1 X15.500 Y-157.333 Z-12.000 F1200.000 
G1 X15.939 Y-156.894 
G1 X15.500 Y-157.333 
G1 X5.000 Y-157.333 Z-12.000 F1200.000 
G2 X3.500 Y-155.833 Z-12.000 I0.000 J1.500 F1200.000 
G1 X3.500 Y-138.167 Z-12.000 F1200.000 
G2 X5.000 Y-136.667 Z-12.000 I1.500 J-0.000 F1200.000 
G1 X15.500 Y-136.667 Z-12.000 F1200.000 
G1 X15.939 Y-137.106 
G1 X15.500 Y-136.667 
G1 X15.500 Y-120.500 Z-12.000 F1200.000 
G2 X17.000 Y-119.000 Z-12.000 I1.500 J-0.000 F1200.000 
G1 X449.700 Y-119.000 Z-12.000 F1200.000 
G2 X451.191 Y-120.334 Z-12.000 I-0.000 J-1.500 F1200.000 
G0 Z5.000 
G0 Z5.000 
(finish operation: DressupDogbone012)
(begin operation: DressupDogbone013)
(machine units: mm/min)
(Profile013) 
(Compensated Tool Path. Diameter: 3.0) 
G0 Z5.000 
G0 X451.191 Y-180.334 
G0 Z3.000 
G1 X451.191 Y-180.334 Z-3.000 F500.000 
G2 X451.200 Y-180.500 Z-3.000 I-1.491 J-0.166 F1200.000 
G1 X451.200 Y-196.667 Z-3.000 F1200.000 
G1 X450.761 Y-197.106 
G1 X451.200 Y-196.667 
G1 X461.700 Y-196.667 Z-3.000 F1200.000 
G2 X463.200 Y-198.167 Z-3.000 I-0.000 J-1.500 F1200.000 
G1 X463.200 Y-215.833 Z-3.000 F1200.000 
G2 X461.700 Y-217.333 Z-3.000 I-1.500 J0.000 F1200.000 
G1 X451.200 Y-217.333 Z-3.000 F1200.000 
G1 X450.761 Y-216.894 
G1 X451.200 Y-217.333 
G1 X451.200 Y-233.500 Z-3.000 F1200.000 
G2 X449.700 Y-235.000 Z-3.000 I-1.500 J0.000 F1200.000 
G1 X416.030 Y-235.000 Z-3.000 F1200.000 
G2 X414.530 Y-233.500 Z-3.000 I0.000 J1.500 F1200.000 
G1 X414.530 Y-223.000 Z-3.000 F1200.000 
G1 X414.969 Y-222.561 
G1 X414.530 Y-223.000 
G1 X371.860 Y-223.000 Z-3.000 F1200.000 
G1 X371.421 Y-222.561 
G1 X371.860 Y-223.000 
G1 X371.860 Y-233.500 Z-3.000 F1200.000 
G2 X370.360 Y-235.000 Z-3.000 I-1.500 J0.000 F1200.000 
G1 X324.690 Y-235.000 Z-3.000 F1200.000 
G2 X323.190 Y-233.500 Z-3.000 I0.000 J1.500 F1200.000 
G1 X323.190 Y-223.000 Z-3.000 F1200.000 
G1 X323.629 Y-222.561 
G1 X323.190 Y-223.000 
G1 X280.520 Y-223.000 Z-3.000 F1200.000 
G1 X280.081 Y-222.561 
G1 X280.520 Y-223.000 
G1 X280.520 Y-233.500 Z-3.000 F1200.000 
G2 X279.020 Y-235.000 Z-3.000 I-1.500 J0.000 F1200.000 
G1 X187.680 Y-235.000 Z-3.000 F1200.000 
G2 X186.180 Y-233.500 Z-3.000 I0.000 J1.500 F1200.000 
G1 X186.180 Y-223.000 Z-3.000 F1200.000 
G1 X186.619 Y-222.561 
G1 X186.180 Y-223.000 
G1 X143.510 Y-223.000 Z-3.000 F1200.000 
G1 X143.071 Y-222.561 
G1 X143.510 Y-223.000 
G1 X143.510 Y-233.500 Z-3.000 F1200.000 
G2 X142.010 Y-235.000 Z-3.000 I-1.500 J0.000 F1200.000 
G1 X96.340 Y-235.000 Z-3.000 F1200.000 
G2 X94.840 Y-233.500 Z-3.000 I0.000 J1.500 F1200.000 
G1 X94.840 Y-223.000 Z-3.000 F1200.000 
G1 X95.279 Y-222.561 
G1 X94.840 Y-223.000 
G1 X52.170 Y-223.000 Z-3.000 F1200.000 
G1 X51.731 Y-222.561 
G1 X52.170 Y-223.000 
G1 X52.170 Y-233.500 Z-3.000 F1200.000 
G2 X50.670 Y-235.000 Z-3.000 I-1.500 J0.000 F1200.000 
G1 X17.000 Y-235.000 Z-3.000 F1200.000 
G2 X15.500 Y-233.500 Z-3.000 I0.000 J1.500 F1200.000 
G1 X15.500 Y-217.333 Z-3.000 F1200.000 
G1 X15.939 Y-216.894 
G1 X15.500 Y-217.333 
G1 X5.000 Y-217.333 Z-3.000 F1200.000 
G2 X3.500 Y-215.833 Z-3.000 I0.000 J1.500 F1200.000 
G1 X3.500 Y-198.167 Z-3.000 F1200.000 
G2 X5.000 Y-196.667 Z-3.000 I1.500 J-0.000 F1200.000 
G1 X15.500 Y-196.667 Z-3.000 F1200.000 
G1 X15.939 Y-197.106 
G1 X15.500 Y-196.667 
G1 X15.500 Y-180.500 Z-3.000 F1200.000 
G2 X17.000 Y-179.000 Z-3.000 I1.500 J-0.000 F1200.000 
G1 X449.700 Y-179.000 Z-3.000 F1200.000 
G2 X451.191 Y-180.334 Z-3.000 I-0.000 J-1.500 F1200.000 
G1 X451.191 Y-180.334 Z-6.000 F500.000 
G2 X451.200 Y-180.500 Z-6.000 I-1.491 J-0.166 F1200.000 
G1 X451.200 Y-196.667 Z-6.000 F1200.000 
G1 X450.761 Y-197.106 
G1 X451.200 Y-196.667 
G1 X461.700 Y-196.667 Z-6.000 F1200.000 
G2 X463.200 Y-198.167 Z-6.000 I-0.000 J-1.500 F1200.000 
G1 X463.200 Y-215.833 Z-6.000 F1200.000 
G2 X461.700 Y-217.333 Z-6.000 I-1.500 J0.000 F1200.000 
G1 X451.200 Y-217.333 Z-6.000 F1200.000 
G1 X450.761 Y-216.894 
G1 X451.200 Y-217.333 
G1 X451.200 Y-233.500 Z-6.000 F1200.000 
G2 X449.700 Y-235.000 Z-6.000 I-1.500 J0.000 F1200.000 
G1 X416.030 Y-235.000 Z-6.000 F1200.000 
G2 X414.530 Y-233.500 Z-6.000 I0.000 J1.500 F1200.000 
G1 X414.530 Y-223.000 Z-6.000 F1200.000 
G1 X414.969 Y-222.561 
G1 X414.530 Y-223.000 
G1 X371.860 Y-223.000 Z-6.000 F1200.000 
G1 X371.421 Y-222.561 
G1 X371.860 Y-223.000 
G1 X371.860 Y-233.500 Z-6.000 F1200.000 
G2 X370.360 Y-235.000 Z-6.000 I-1.500 J0.000 F1200.000 
G1 X324.690 Y-235.000 Z-6.000 F1200.000 
G2 X323.190 Y-233.500 Z-6.000 I0.000 J1.500 F1200.000 
G1 X323.190 Y-223.000 Z-6.000 F1200.000 
G1 X323.629 Y-222.561 
G1 X323.190 Y-223.000 
G1 X280.520 Y-223.000 Z-6.000 F1200.000 
G1 X280.081 Y-222.561 
G1 X280.520 Y-223.000 
G1 X280.520 Y-233.500 Z-6.000 F1200.000 
G2 X279.020 Y-235.000 Z-6.000 I-1.500 J0.000 F1200.000 
G1 X187.680 Y-235.000 Z-6.000 F1200.000 
G2 X186.180 Y-233.500 Z-6.000 I0.000 J1.500 F1200.000 
G1 X186.180 Y-223.000 Z-6.000 F1200.000 
G1 X186.619 Y-222.561 
G1 X186.180 Y-223.000 
G1 X143.510 Y-223.000 Z-6.000 F1200.000 
G1 X143.071 Y-222.561 
G1 X143.510 Y-223.000 
G1 X143.510 Y-233.500 Z-6.000 F1200.000 
G2 X142.010 Y-235.000 Z-6.000 I-1.500 J0.000 F1200.000 
G1 X96.340 Y-235.000 Z-6.000 F1200.000 
G2 X94.840 Y-233.500 Z-6.000 I0.000 J1.500 F1200.000 
G1 X94.840 Y-223.000 Z-6.000 F1200.000 
G1 X95.279 Y-222.561 
G1 X94.840 Y-223.000 
G1 X52.170 Y-223.000 Z-6.000 F1200.000 
G1 X51.731 Y-222.561 
G1 X52.170 Y-223.000 
G1 X52.170 Y-233.500 Z-6.000 F1200.000 
G2 X50.670 Y-235.000 Z-6.000 I-1.500 J0.000 F1200.000 
G1 X17.000 Y-235.000 Z-6.000 F1200.000 
G2 X15.500 Y-233.500 Z-6.000 I0.000 J1.500 F1200.000 
G1 X15.500 Y-217.333 Z-6.000 F1200.000 
G1 X15.939 Y-216.894 
G1 X15.500 Y-217.333 
G1 X5.000 Y-217.333 Z-6.000 F1200.000 
G2 X3.500 Y-215.833 Z-6.000 I0.000 J1.500 F1200.000 
G1 X3.500 Y-198.167 Z-6.000 F1200.000 
G2 X5.000 Y-196.667 Z-6.000 I1.500 J-0.000 F1200.000 
G1 X15.500 Y-196.667 Z-6.000 F1200.000 
G1 X15.939 Y-197.106 
G1 X15.500 Y-196.667 
G1 X15.500 Y-180.500 Z-6.000 F1200.000 
G2 X17.000 Y-179.000 Z-6.000 I1.500 J-0.000 F1200.000 
G1 X449.700 Y-179.000 Z-6.000 F1200.000 
G2 X451.191 Y-180.334 Z-6.000 I-0.000 J-1.500 F1200.000 
G1 X451.191 Y-180.334 Z-9.000 F500.000 
G2 X451.200 Y-180.500 Z-9.000 I-1.491 J-0.166 F1200.000 
G1 X451.200 Y-196.667 Z-9.000 F1200.000 
G1 X450.761 Y-197.106 
G1 X451.200 Y-196.667 
G1 X461.700 Y-196.667 Z-9.000 F1200.000 
G2 X463.200 Y-198.167 Z-9.000 I-0.000 J-1.500 F1200.000 
G1 X463.200 Y-215.833 Z-9.000 F1200.000 
G2 X461.700 Y-217.333 Z-9.000 I-1.500 J0.000 F1200.000 
G1 X451.200 Y-217.333 Z-9.000 F1200.000 
G1 X450.761 Y-216.894 
G1 X451.200 Y-217.333 
G1 X451.200 Y-233.500 Z-9.000 F1200.000 
G2 X449.700 Y-235.000 Z-9.000 I-1.500 J0.000 F1200.000 
G1 X416.030 Y-235.000 Z-9.000 F1200.000 
G2 X414.530 Y-233.500 Z-9.000 I0.000 J1.500 F1200.000 
G1 X414.530 Y-223.000 Z-9.000 F1200.000 
G1 X414.969 Y-222.561 
G1 X414.530 Y-223.000 
G1 X371.860 Y-223.000 Z-9.000 F1200.000 
G1 X371.421 Y-222.561 
G1 X371.860 Y-223.000 
G1 X371.860 Y-233.500 Z-9.000 F1200.000 
G2 X370.360 Y-235.000 Z-9.000 I-1.500 J0.000 F1200.000 
G1 X324.690 Y-235.000 Z-9.000 F1200.000 
G2 X323.190 Y-233.500 Z-9.000 I0.000 J1.500 F1200.000 
G1 X323.190 Y-223.000 Z-9.000 F1200.000 
G1 X323.629 Y-222.561 
G1 X323.190 Y-223.000 
G1 X280.520 Y-223.000 Z-9.000 F1200.000 
G1 X280.081 Y-222.561 
G1 X280.520 Y-223.000 
G1 X280.520 Y-233.500 Z-9.000 F1200.000 
G2 X279.020 Y-235.000 Z-9.000 I-1.500 J0.000 F1200.000 
G1 X187.680 Y-235.000 Z-9.000 F1200.000 
G2 X186.180 Y-233.500 Z-9.000 I0.000 J1.500 F1200.000 
G1 X186.180 Y-223.000 Z-9.000 F1200.000 
G1 X186.619 Y-222.561 
G1 X186.180 Y-223.000 
G1 X143.510 Y-223.000 Z-9.000 F1200.000 
G1 X143.071 Y-222.561 
G1 X143.510 Y-223.000 
G1 X143.510 Y-233.500 Z-9.000 F1200.000 
G2 X142.010 Y-235.000 Z-9.000 I-1.500 J0.000 F1200.000 
G1 X96.340 Y-235.000 Z-9.000 F1200.000 
G2 X94.840 Y-233.500 Z-9.000 I0.000 J1.500 F1200.000 
G1 X94.840 Y-223.000 Z-9.000 F1200.000 
G1 X95.279 Y-222.561 
G1 X94.840 Y-223.000 
G1 X52.170 Y-223.000 Z-9.000 F1200.000 
G1 X51.731 Y-222.561 
G1 X52.170 Y-223.000 
G1 X52.170 Y-233.500 Z-9.000 F1200.000 
G2 X50.670 Y-235.000 Z-9.000 I-1.500 J0.000 F1200.000 
G1 X17.000 Y-235.000 Z-9.000 F1200.000 
G2 X15.500 Y-233.500 Z-9.000 I0.000 J1.500 F1200.000 
G1 X15.500 Y-217.333 Z-9.000 F1200.000 
G1 X15.939 Y-216.894 
G1 X15.500 Y-217.333 
G1 X5.000 Y-217.333 Z-9.000 F1200.000 
G2 X3.500 Y-215.833 Z-9.000 I0.000 J1.500 F1200.000 
G1 X3.500 Y-198.167 Z-9.000 F1200.000 
G2 X5.000 Y-196.667 Z-9.000 I1.500 J-0.000 F1200.000 
G1 X15.500 Y-196.667 Z-9.000 F1200.000 
G1 X15.939 Y-197.106 
G1 X15.500 Y-196.667 
G1 X15.500 Y-180.500 Z-9.000 F1200.000 
G2 X17.000 Y-179.000 Z-9.000 I1.500 J-0.000 F1200.000 
G1 X449.700 Y-179.000 Z-9.000 F1200.000 
G2 X451.191 Y-180.334 Z-9.000 I-0.000 J-1.500 F1200.000 
G1 X451.191 Y-180.334 Z-12.000 F500.000 
G2 X451.200 Y-180.500 Z-12.000 I-1.491 J-0.166 F1200.000 
G1 X451.200 Y-196.667 Z-12.000 F1200.000 
G1 X450.761 Y-197.106 
G1 X451.200 Y-196.667 
G1 X461.700 Y-196.667 Z-12.000 F1200.000 
G2 X463.200 Y-198.167 Z-12.000 I-0.000 J-1.500 F1200.000 
G1 X463.200 Y-215.833 Z-12.000 F1200.000 
G2 X461.700 Y-217.333 Z-12.000 I-1.500 J0.000 F1200.000 
G1 X451.200 Y-217.333 Z-12.000 F1200.000 
G1 X450.761 Y-216.894 
G1 X451.200 Y-217.333 
G1 X451.200 Y-233.500 Z-12.000 F1200.000 
G2 X449.700 Y-235.000 Z-12.000 I-1.500 J0.000 F1200.000 
G1 X416.030 Y-235.000 Z-12.000 F1200.000 
G2 X414.530 Y-233.500 Z-12.000 I0.000 J1.500 F1200.000 
G1 X414.530 Y-223.000 Z-12.000 F1200.000 
G1 X414.969 Y-222.561 
G1 X414.530 Y-223.000 
G1 X371.860 Y-223.000 Z-12.000 F1200.000 
G1 X371.421 Y-222.561 
G1 X371.860 Y-223.000 
G1 X371.860 Y-233.500 Z-12.000 F1200.000 
G2 X370.360 Y-235.000 Z-12.000 I-1.500 J0.000 F1200.000 
G1 X324.690 Y-235.000 Z-12.000 F1200.000 
G2 X323.190 Y-233.500 Z-12.000 I0.000 J1.500 F1200.000 
G1 X323.190 Y-223.000 Z-12.000 F1200.000 
G1 X323.629 Y-222.561 
G1 X323.190 Y-223.000 
G1 X280.520 Y-223.000 Z-12.000 F1200.000 
G1 X280.081 Y-222.561 
G1 X280.520 Y-223.000 
G1 X280.520 Y-233.500 Z-12.000 F1200.000 
G2 X279.020 Y-235.000 Z-12.000 I-1.500 J0.000 F1200.000 
G1 X187.680 Y-235.000 Z-12.000 F1200.000 
G2 X186.180 Y-233.500 Z-12.000 I0.000 J1.500 F1200.000 
G1 X186.180 Y-223.000 Z-12.000 F1200.000 
G1 X186.619 Y-222.561 
G1 X186.180 Y-223.000 
G1 X143.510 Y-223.000 Z-12.000 F1200.000 
G1 X143.071 Y-222.561 
G1 X143.510 Y-223.000 
G1 X143.510 Y-233.500 Z-12.000 F1200.000 
G2 X142.010 Y-235.000 Z-12.000 I-1.500 J0.000 F1200.000 
G1 X96.340 Y-235.000 Z-12.000 F1200.000 
G2 X94.840 Y-233.500 Z-12.000 I0.000 J1.500 F1200.000 
G1 X94.840 Y-223.000 Z-12.000 F1200.000 
G1 X95.279 Y-222.561 
G1 X94.840 Y-223.000 
G1 X52.170 Y-223.000 Z-12.000 F1200.000 
G1 X51.731 Y-222.561 
G1 X52.170 Y-223.000 
G1 X52.170 Y-233.500 Z-12.000 F1200.000 
G2 X50.670 Y-235.000 Z-12.000 I-1.500 J0.000 F1200.000 
G1 X17.000 Y-235.000 Z-12.000 F1200.000 
G2 X15.500 Y-233.500 Z-12.000 I0.000 J1.500 F1200.000 
G1 X15.500 Y-217.333 Z-12.000 F1200.000 
G1 X15.939 Y-216.894 
G1 X15.500 Y-217.333 
G1 X5.000 Y-217.333 Z-12.000 F1200.000 
G2 X3.500 Y-215.833 Z-12.000 I0.000 J1.500 F1200.000 
G1 X3.500 Y-198.167 Z-12.000 F1200.000 
G2 X5.000 Y-196.667 Z-12.000 I1.500 J-0.000 F1200.000 
G1 X15.500 Y-196.667 Z-12.000 F1200.000 
G1 X15.939 Y-197.106 
G1 X15.500 Y-196.667 
G1 X15.500 Y-180.500 Z-12.000 F1200.000 
G2 X17.000 Y-179.000 Z-12.000 I1.500 J-0.000 F1200.000 
G1 X449.700 Y-179.000 Z-12.000 F1200.000 
G2 X451.191 Y-180.334 Z-12.000 I-0.000 J-1.500 F1200.000 
G0 Z5.000 
G0 Z5.000 
(finish operation: DressupDogbone013)
(begin operation: DressupDogbone014)
(machine units: mm/min)
(Profile014) 
(Compensated Tool Path. Diameter: 3.0) 
G0 Z5.000 
G0 X450.761 Y-249.939 
G0 Z3.000 
G1 X450.761 Y-249.939 Z-3.000 F500.000 
G2 X451.200 Y-251.000 Z-3.000 I-1.061 J-1.061 F1200.000 
G1 X451.200 Y-261.500 Z-3.000 F1200.000 
G1 X450.761 Y-261.939 
G1 X451.200 Y-261.500 
G1 X461.700 Y-261.500 Z-3.000 F1200.000 
G2 X463.200 Y-263.000 Z-3.000 I-0.000 J-1.500 F1200.000 
G1 X463.200 Y-275.000 Z-3.000 F1200.000 
G2 X461.700 Y-276.500 Z-3.000 I-1.500 J0.000 F1200.000 
G1 X451.200 Y-276.500 Z-3.000 F1200.000 
G1 X450.761 Y-276.061 
G1 X451.200 Y-276.500 
G1 X451.200 Y-357.500 Z-3.000 F1200.000 
G1 X450.761 Y-357.939 
G1 X451.200 Y-357.500 
G1 X461.700 Y-357.500 Z-3.000 F1200.000 
G2 X463.200 Y-359.000 Z-3.000 I-0.000 J-1.500 F1200.000 
G1 X463.200 Y-371.000 Z-3.000 F1200.000 
G2 X461.700 Y-372.500 Z-3.000 I-1.500 J0.000 F1200.000 
G1 X451.200 Y-372.500 Z-3.000 F1200.000 
G1 X450.761 Y-372.061 
G1 X451.200 Y-372.500 
G1 X451.200 Y-383.000 Z-3.000 F1200.000 
G2 X449.700 Y-384.500 Z-3.000 I-1.500 J0.000 F1200.000 
G1 X417.530 Y-384.500 Z-3.000 F1200.000 
G1 X417.091 Y-384.061 
G1 X417.530 Y-384.500 
G1 X417.530 Y-395.000 Z-3.000 F1200.000 
G2 X416.030 Y-396.500 Z-3.000 I-1.500 J0.000 F1200.000 
G1 X370.360 Y-396.500 Z-3.000 F1200.000 
G2 X368.860 Y-395.000 Z-3.000 I0.000 J1.500 F1200.000 
G1 X368.860 Y-384.500 Z-3.000 F1200.000 
G1 X369.299 Y-384.061 
G1 X368.860 Y-384.500 
G1 X326.190 Y-384.500 Z-3.000 F1200.000 
G1 X325.751 Y-384.061 
G1 X326.190 Y-384.500 
G1 X326.190 Y-395.000 Z-3.000 F1200.000 
G2 X324.690 Y-396.500 Z-3.000 I-1.500 J0.000 F1200.000 
G1 X279.020 Y-396.500 Z-3.000 F1200.000 
G2 X277.520 Y-395.000 Z-3.000 I0.000 J1.500 F1200.000 
G1 X277.520 Y-384.500 Z-3.000 F1200.000 
G1 X277.959 Y-384.061 
G1 X277.520 Y-384.500 
G1 X189.180 Y-384.500 Z-3.000 F1200.000 
G1 X188.741 Y-384.061 
G1 X189.180 Y-384.500 
G1 X189.180 Y-395.000 Z-3.000 F1200.000 
G2 X187.680 Y-396.500 Z-3.000 I-1.500 J0.000 F1200.000 
G1 X142.010 Y-396.500 Z-3.000 F1200.000 
G2 X140.510 Y-395.000 Z-3.000 I0.000 J1.500 F1200.000 
G1 X140.510 Y-384.500 Z-3.000 F1200.000 
G1 X140.949 Y-384.061 
G1 X140.510 Y-384.500 
G1 X97.840 Y-384.500 Z-3.000 F1200.000 
G1 X97.401 Y-384.061 
G1 X97.840 Y-384.500 
G1 X97.840 Y-395.000 Z-3.000 F1200.000 
G2 X96.340 Y-396.500 Z-3.000 I-1.500 J0.000 F1200.000 
G1 X50.670 Y-396.500 Z-3.000 F1200.000 
G2 X49.170 Y-395.000 Z-3.000 I0.000 J1.500 F1200.000 
G1 X49.170 Y-384.500 Z-3.000 F1200.000 
G1 X49.609 Y-384.061 
G1 X49.170 Y-384.500 
G1 X17.000 Y-384.500 Z-3.000 F1200.000 
G2 X15.500 Y-383.000 Z-3.000 I0.000 J1.500 F1200.000 
G1 X15.500 Y-372.500 Z-3.000 F1200.000 
G1 X15.939 Y-372.061 
G1 X15.500 Y-372.500 
G1 X5.000 Y-372.500 Z-3.000 F1200.000 
G2 X3.500 Y-371.000 Z-3.000 I0.000 J1.500 F1200.000 
G1 X3.500 Y-359.000 Z-3.000 F1200.000 
G2 X5.000 Y-357.500 Z-3.000 I1.500 J-0.000 F1200.000 
G1 X15.500 Y-357.500 Z-3.000 F1200.000 
G1 X15.939 Y-357.939 
G1 X15.500 Y-357.500 
G1 X15.500 Y-276.500 Z-3.000 F1200.000 
G1 X15.939 Y-276.061 
G1 X15.500 Y-276.500 
G1 X5.000 Y-276.500 Z-3.000 F1200.000 
G2 X3.500 Y-275.000 Z-3.000 I0.000 J1.500 F1200.000 
G1 X3.500 Y-263.000 Z-3.000 F1200.000 
G2 X5.000 Y-261.500 Z-3.000 I1.500 J-0.000 F1200.000 
G1 X15.500 Y-261.500 Z-3.000 F1200.000 
G1 X15.939 Y-261.939 
G1 X15.500 Y-261.500 
G1 X15.500 Y-251.000 Z-3.000 F1200.000 
G2 X17.000 Y-249.500 Z-3.000 I1.500 J-0.000 F1200.000 
G1 X49.170 Y-249.500 Z-3.000 F1200.000 
G1 X49.609 Y-249.939 
G1 X49.170 Y-249.500 
G1 X49.170 Y-239.000 Z-3.000 F1200.000 
G2 X50.670 Y-237.500 Z-3.000 I1.500 J-0.000 F1200.000 
G1 X96.340 Y-237.500 Z-3.000 F1200.000 
G2 X97.840 Y-239.000 Z-3.000 I-0.000 J-1.500 F1200.000 
G1 X97.840 Y-249.500 Z-3.000 F1200.000 
G1 X97.401 Y-249.939 
G1 X97.840 Y-249.500 
G1 X140.510 Y-249.500 Z-3.000 F1200.000 
G1 X140.949 Y-249.939 
G1 X140.510 Y-249.500 
G1 X140.510 Y-239.000 Z-3.000 F1200.000 
G2 X142.010 Y-237.500 Z-3.000 I1.500 J-0.000 F1200.000 
G1 X187.680 Y-237.500 Z-3.000 F1200.000 
G2 X189.180 Y-239.000 Z-3.000 I-0.000 J-1.500 F1200.000 
G1 X189.180 Y-249.500 Z-3.000 F1200.000 
G1 X188.741 Y-249.939 
G1 X189.180 Y-249.500 
G1 X277.520 Y-249.500 Z-3.000 F1200.000 
G1 X277.959 Y-249.939 
G1 X277.520 Y-249.500 
G1 X277.520 Y-239.000 Z-3.000 F1200.000 
G2 X279.020 Y-237.500 Z-3.000 I1.500 J-0.000 F1200.000 
G1 X324.690 Y-237.500 Z-3.000 F1200.000 
G2 X326.190 Y-239.000 Z-3.000 I-0.000 J-1.500 F1200.000 
G1 X326.190 Y-249.500 Z-3.000 F1200.000 
G1 X325.751 Y-249.939 
G1 X326.190 Y-249.500 
G1 X368.860 Y-249.500 Z-3.000 F1200.000 
G1 X369.299 Y-249.939 
G1 X368.860 Y-249.500 
G1 X368.860 Y-239.000 Z-3.000 F1200.000 
G2 X370.360 Y-237.500 Z-3.000 I1.500 J-0.000 F1200.000 
G1 X416.030 Y-237.500 Z-3.000 F1200.000 
G2 X417.530 Y-239.000 Z-3.000 I-0.000 J-1.500 F1200.000 
G1 X417.530 Y-249.500 Z-3.000 F1200.000 
G1 X417.091 Y-249.939 
G1 X417.530 Y-249.500 
G1 X449.700 Y-249.500 Z-3.000 F1200.000 
G2 X450.761 Y-249.939 Z-3.000 I-0.000 J-1.500 F1200.000 
G1 X450.761 Y-249.939 Z-6.000 F500.000 
G2 X451.200 Y-251.000 Z-6.000 I-1.061 J-1.061 F1200.000 
G1 X451.200 Y-261.500 Z-6.000 F1200.000 
G1 X450.761 Y-261.939 
G1 X451.200 Y-261.500 
G1 X461.700 Y-261.500 Z-6.000 F1200.000 
G2 X463.200 Y-263.000 Z-6.000 I-0.000 J-1.500 F1200.000 
G1 X463.200 Y-275.000 Z-6.000 F1200.000 
G2 X461.700 Y-276.500 Z-6.000 I-1.500 J0.000 F1200.000 
G1 X451.200 Y-276.500 Z-6.000 F1200.000 
G1 X450.761 Y-276.061 
G1 X451.200 Y-276.500 
G1 X451.200 Y-357.500 Z-6.000 F1200.000 
G1 X450.761 Y-357.939 
G1 X451.200 Y-357.500 
G1 X461.700 Y-357.500 Z-6.000 F1200.000 
G2 X463.200 Y-359.000 Z-6.000 I-0.000 J-1.500 F1200.000 
G1 X463.200 Y-371.000 Z-6.000 F1200.000 
G2 X461.700 Y-372.500 Z-6.000 I-1.500 J0.000 F1200.000 
G1 X451.200 Y-372.500 Z-6.000 F1200.000 
G1 X450.761 Y-372.061 
G1 X451.200 Y-372.500 
G1 X451.200 Y-383.000 Z-6.000 F1200.000 
G2 X449.700 Y-384.500 Z-6.000 I-1.500 J0.000 F1200.000 
G1 X417.530 Y-384.500 Z-6.000 F1200.000 
G1 X417.091 Y-384.061 
G1 X417.530 Y-384.500 
G1 X417.530 Y-395.000 Z-6.000 F1200.000 
G2 X416.030 Y-396.500 Z-6.000 I-1.500 J0.000 F1200.000 
G1 X370.360 Y-396.500 Z-6.000 F1200.000 
G2 X368.860 Y-395.000 Z-6.000 I0.000 J1.500 F1200.000 
G1 X368.860 Y-384.500 Z-6.000 F1200.000 
G1 X369.299 Y-384.061 
G1 X368.860 Y-384.500 
G1 X326.190 Y-384.500 Z-6.000 F1200.000 
G1 X325.751 Y-384.061 
G1 X326.190 Y-384.500 
G1 X326.190 Y-395.000 Z-6.000 F1200.000 
G2 X324.690 Y-396.500 Z-6.000 I-1.500 J0.000 F1200.000 
G1 X279.020 Y-396.500 Z-6.000 F1200.000 
G2 X277.520 Y-395.000 Z-6.000 I0.000 J1.500 F1200.000 
G1 X277.520 Y-384.500 Z-6.000 F1200.000 
G1 X277.959 Y-384.061 
G1 X277.520 Y-384.500 
G1 X189.180 Y-384.500 Z-6.000 F1200.000 
G1 X188.741 Y-384.061 
G1 X189.180 Y-384.500 
G1 X189.180 Y-395.000 Z-6.000 F1200.000 
G2 X187.680 Y-396.500 Z-6.000 I-1.500 J0.000 F1200.000 
G1 X142.010 Y-396.500 Z-6.000 F1200.000 
G2 X140.510 Y-395.000 Z-6.000 I0.000 J1.500 F1200.000 
G1 X140.510 Y-384.500 Z-6.000 F1200.000 
G1 X140.949 Y-384.061 
G1 X140.510 Y-384.500 
G1 X97.840 Y-384.500 Z-6.000 F1200.000 
G1 X97.401 Y-384.061 
G1 X97.840 Y-384.500 
G1 X97.840 Y-395.000 Z-6.000 F1200.000 
G2 X96.340 Y-396.500 Z-6.000 I-1.500 J0.000 F1200.000 
G1 X50.670 Y-396.500 Z-6.000 F1200.000 
G2 X49.170 Y-395.000 Z-6.000 I0.000 J1.500 F1200.000 
G1 X49.170 Y-384.500 Z-6.000 F1200.000 
G1 X49.609 Y-384.061 
G1 X49.170 Y-384.500 
G1 X17.000 Y-384.500 Z-6.000 F1200.000 
G2 X15.500 Y-383.000 Z-6.000 I0.000 J1.500 F1200.000 
G1 X15.500 Y-372.500 Z-6.000 F1200.000 
G1 X15.939 Y-372.061 
G1 X15.500 Y-372.500 
G1 X5.000 Y-372.500 Z-6.000 F1200.000 
G2 X3.500 Y-371.000 Z-6.000 I0.000 J1.500 F1200.000 
G1 X3.500 Y-359.000 Z-6.000 F1200.000 
G2 X5.000 Y-357.500 Z-6.000 I1.500 J-0.000 F1200.000 
G1 X15.500 Y-357.500 Z-6.000 F1200.000 
G1 X15.939 Y-357.939 
G1 X15.500 Y-357.500 
G1 X15.500 Y-276.500 Z-6.000 F1200.000 
G1 X15.939 Y-276.061 
G1 X15.500 Y-276.500 
G1 X5.000 Y-276.500 Z-6.000 F1200.000 
G2 X3.500 Y-275.000 Z-6.000 I0.000 J1.500 F1200.000 
G1 X3.500 Y-263.000 Z-6.000 F1200.000 
G2 X5.000 Y-261.500 Z-6.000 I1.500 J-0.000 F1200.000 
G1 X15.500 Y-261.500 Z-6.000 F1200.000 
G1 X15.939 Y-261.939 
G1 X15.500 Y-261.500 
G1 X15.500 Y-251.000 Z-6.000 F1200.000 
G2 X17.000 Y-249.500 Z-6.000 I1.500 J-0.000 F1200.000 
G1 X49.170 Y-249.500 Z-6.000 F1200.000 
G1 X49.609 Y-249.939 
G1 X49.170 Y-249.500 
G1 X49.170 Y-239.000 Z-6.000 F1200.000 
G2 X50.670 Y-237.500 Z-6.000 I1.500 J-0.000 F1200.000 
G1 X96.340 Y-237.500 Z-6.000 F1200.000 
G2 X97.840 Y-239.000 Z-6.000 I-0.000 J-1.500 F1200.000 
G1 X97.840 Y-249.500 Z-6.000 F1200.000 
G1 X97.401 Y-249.939 
G1 X97.840 Y-249.500 
G1 X140.510 Y-249.500 Z-6.000 F1200.000 
G1 X140.949 Y-249.939 
G1 X140.510 Y-249.500 
G1 X140.510 Y-239.000 Z-6.000 F1200.000 
G2 X142.010 Y-237.500 Z-6.000 I1.500 J-0.000 F1200.000 
G1 X187.680 Y-237.500 Z-6.000 F1200.000 
G2 X189.180 Y-239.000 Z-6.000 I-0.000 J-1.500 F1200.000 
G1 X189.180 Y-249.500 Z-6.000 F1200.000 
G1 X188.741 Y-249.939 
G1 X189.180 Y-249.500 
G1 X277.520 Y-249.500 Z-6.000 F1200.000 
G1 X277.959 Y-249.939 
G1 X277.520 Y-249.500 
G1 X277.520 Y-239.000 Z-6.000 F1200.000 
G2 X279.020 Y-237.500 Z-6.000 I1.500 J-0.000 F1200.000 
G1 X324.690 Y-237.500 Z-6.000 F1200.000 
G2 X326.190 Y-239.000 Z-6.000 I-0.000 J-1.500 F1200.000 
G1 X326.190 Y-249.500 Z-6.000 F1200.000 
G1 X325.751 Y-249.939 
G1 X326.190 Y-249.500 
G1 X368.860 Y-249.500 Z-6.000 F1200.000 
G1 X369.299 Y-249.939 
G1 X368.860 Y-249.500 
G1 X368.860 Y-239.000 Z-6.000 F1200.000 
G2 X370.360 Y-237.500 Z-6.000 I1.500 J-0.000 F1200.000 
G1 X416.030 Y-237.500 Z-6.000 F1200.000 
G2 X417.530 Y-239.000 Z-6.000 I-0.000 J-1.500 F1200.000 
G1 X417.530 Y-249.500 Z-6.000 F1200.000 
G1 X417.091 Y-249.939 
G1 X417.530 Y-249.500 
G1 X449.700 Y-249.500 Z-6.000 F1200.000 
G2 X450.761 Y-249.939 Z-6.000 I-0.000 J-1.500 F1200.000 
G1 X450.761 Y-249.939 Z-9.000 F500.000 
G2 X451.200 Y-251.000 Z-9.000 I-1.061 J-1.061 F1200.000 
G1 X451.200 Y-261.500 Z-9.000 F1200.000 
G1 X450.761 Y-261.939 
G1 X451.200 Y-261.500 
G1 X461.700 Y-261.500 Z-9.000 F1200.000 
G2 X463.200 Y-263.000 Z-9.000 I-0.000 J-1.500 F1200.000 
G1 X463.200 Y-275.000 Z-9.000 F1200.000 
G2 X461.700 Y-276.500 Z-9.000 I-1.500 J0.000 F1200.000 
G1 X451.200 Y-276.500 Z-9.000 F1200.000 
G1 X450.761 Y-276.061 
G1 X451.200 Y-276.500 
G1 X451.200 Y-357.500 Z-9.000 F1200.000 
G1 X450.761 Y-357.939 
G1 X451.200 Y-357.500 
G1 X461.700 Y-357.500 Z-9.000 F1200.000 
G2 X463.200 Y-359.000 Z-9.000 I-0.000 J-1.500 F1200.000 
G1 X463.200 Y-371.000 Z-9.000 F1200.000 
G2 X461.700 Y-372.500 Z-9.000 I-1.500 J0.000 F1200.000 
G1 X451.200 Y-372.500 Z-9.000 F1200.000 
G1 X450.761 Y-372.061 
G1 X451.200 Y-372.500 
G1 X451.200 Y-383.000 Z-9.000 F1200.000 
G2 X449.700 Y-384.500 Z-9.000 I-1.500 J0.000 F1200.000 
G1 X417.530 Y-384.500 Z-9.000 F1200.000 
G1 X417.091 Y-384.061 
G1 X417.530 Y-384.500 
G1 X417.530 Y-395.000 Z-9.000 F1200.000 
G2 X416.030 Y-396.500 Z-9.000 I-1.500 J0.000 F1200.000 
G1 X370.360 Y-396.500 Z-9.000 F1200.000 
G2 X368.860 Y-395.000 Z-9.000 I0.000 J1.500 F1200.000 
G1 X368.860 Y-384.500 Z-9.000 F1200.000 
G1 X369.299 Y-384.061 
G1 X368.860 Y-384.500 
G1 X326.190 Y-384.500 Z-9.000 F1200.000 
G1 X325.751 Y-384.061 
G1 X326.190 Y-384.500 
G1 X326.190 Y-395.000 Z-9.000 F1200.000 
G2 X324.690 Y-396.500 Z-9.000 I-1.500 J0.000 F1200.000 
G1 X279.020 Y-396.500 Z-9.000 F1200.000 
G2 X277.520 Y-395.000 Z-9.000 I0.000 J1.500 F1200.000 
G1 X277.520 Y-384.500 Z-9.000 F1200.000 
G1 X277.959 Y-384.061 
G1 X277.520 Y-384.500 
G1 X189.180 Y-384.500 Z-9.000 F1200.000 
G1 X188.741 Y-384.061 
G1 X189.180 Y-384.500 
G1 X189.180 Y-395.000 Z-9.000 F1200.000 
G2 X187.680 Y-396.500 Z-9.000 I-1.500 J0.000 F1200.000 
G1 X142.010 Y-396.500 Z-9.000 F1200.000 
G2 X140.510 Y-395.000 Z-9.000 I0.000 J1.500 F1200.000 
G1 X140.510 Y-384.500 Z-9.000 F1200.000 
G1 X140.949 Y-384.061 
G1 X140.510 Y-384.500 
G1 X97.840 Y-384.500 Z-9.000 F1200.000 
G1 X97.401 Y-384.061 
G1 X97.840 Y-384.500 
G1 X97.840 Y-395.000 Z-9.000 F1200.000 
G2 X96.340 Y-396.500 Z-9.000 I-1.500 J0.000 F1200.000 
G1 X50.670 Y-396.500 Z-9.000 F1200.000 
G2 X49.170 Y-395.000 Z-9.000 I0.000 J1.500 F1200.000 
G1 X49.170 Y-384.500 Z-9.000 F1200.000 
G1 X49.609 Y-384.061 
G1 X49.170 Y-384.500 
G1 X17.000 Y-384.500 Z-9.000 F1200.000 
G2 X15.500 Y-383.000 Z-9.000 I0.000 J1.500 F1200.000 
G1 X15.500 Y-372.500 Z-9.000 F1200.000 
G1 X15.939 Y-372.061 
G1 X15.500 Y-372.500 
G1 X5.000 Y-372.500 Z-9.000 F1200.000 
G2 X3.500 Y-371.000 Z-9.000 I0.000 J1.500 F1200.000 
G1 X3.500 Y-359.000 Z-9.000 F1200.000 
G2 X5.000 Y-357.500 Z-9.000 I1.500 J-0.000 F1200.000 
G1 X15.500 Y-357.500 Z-9.000 F1200.000 
G1 X15.939 Y-357.939 
G1 X15.500 Y-357.500 
G1 X15.500 Y-276.500 Z-9.000 F1200.000 
G1 X15.939 Y-276.061 
G1 X15.500 Y-276.500 
G1 X5.000 Y-276.500 Z-9.000 F1200.000 
G2 X3.500 Y-275.000 Z-9.000 I0.000 J1.500 F1200.000 
G1 X3.500 Y-263.000 Z-9.000 F1200.000 
G2 X5.000 Y-261.500 Z-9.000 I1.500 J-0.000 F1200.000 
G1 X15.500 Y-261.500 Z-9.000 F1200.000 
G1 X15.939 Y-261.939 
G1 X15.500 Y-261.500 
G1 X15.500 Y-251.000 Z-9.000 F1200.000 
G2 X17.000 Y-249.500 Z-9.000 I1.500 J-0.000 F1200.000 
G1 X49.170 Y-249.500 Z-9.000 F1200.000 
G1 X49.609 Y-249.939 
G1 X49.170 Y-249.500 
G1 X49.170 Y-239.000 Z-9.000 F1200.000 
G2 X50.670 Y-237.500 Z-9.000 I1.500 J-0.000 F1200.000 
G1 X96.340 Y-237.500 Z-9.000 F1200.000 
G2 X97.840 Y-239.000 Z-9.000 I-0.000 J-1.500 F1200.000 
G1 X97.840 Y-249.500 Z-9.000 F1200.000 
G1 X97.401 Y-249.939 
G1 X97.840 Y-249.500 
G1 X140.510 Y-249.500 Z-9.000 F1200.000 
G1 X140.949 Y-249.939 
G1 X140.510 Y-249.500 
G1 X140.510 Y-239.000 Z-9.000 F1200.000 
G2 X142.010 Y-237.500 Z-9.000 I1.500 J-0.000 F1200.000 
G1 X187.680 Y-237.500 Z-9.000 F1200.000 
G2 X189.180 Y-239.000 Z-9.000 I-0.000 J-1.500 F1200.000 
G1 X189.180 Y-249.500 Z-9.000 F1200.000 
G1 X188.741 Y-249.939 
G1 X189.180 Y-249.500 
G1 X277.520 Y-249.500 Z-9.000 F1200.000 
G1 X277.959 Y-249.939 
G1 X277.520 Y-249.500 
G1 X277.520 Y-239.000 Z-9.000 F1200.000 
G2 X279.020 Y-237.500 Z-9.000 I1.500 J-0.000 F1200.000 
G1 X324.690 Y-237.500 Z-9.000 F1200.000 
G2 X326.190 Y-239.000 Z-9.000 I-0.000 J-1.500 F1200.000 
G1 X326.190 Y-249.500 Z-9.000 F1200.000 
G1 X325.751 Y-249.939 
G1 X326.190 Y-249.500 
G1 X368.860 Y-249.500 Z-9.000 F1200.000 
G1 X369.299 Y-249.939 
G1 X368.860 Y-249.500 
G1 X368.860 Y-239.000 Z-9.000 F1200.000 
G2 X370.360 Y-237.500 Z-9.000 I1.500 J-0.000 F1200.000 
G1 X416.030 Y-237.500 Z-9.000 F1200.000 
G2 X417.530 Y-239.000 Z-9.000 I-0.000 J-1.500 F1200.000 
G1 X417.530 Y-249.500 Z-9.000 F1200.000 
G1 X417.091 Y-249.939 
G1 X417.530 Y-249.500 
G1 X449.700 Y-249.500 Z-9.000 F1200.000 
G2 X450.761 Y-249.939 Z-9.000 I-0.000 J-1.500 F1200.000 
G1 X450.761 Y-249.939 Z-12.000 F500.000 
G2 X451.200 Y-251.000 Z-12.000 I-1.061 J-1.061 F1200.000 
G1 X451.200 Y-261.500 Z-12.000 F1200.000 
G1 X450.761 Y-261.939 
G1 X451.200 Y-261.500 
G1 X461.700 Y-261.500 Z-12.000 F1200.000 
G2 X463.200 Y-263.000 Z-12.000 I-0.000 J-1.500 F1200.000 
G1 X463.200 Y-275.000 Z-12.000 F1200.000 
G2 X461.700 Y-276.500 Z-12.000 I-1.500 J0.000 F1200.000 
G1 X451.200 Y-276.500 Z-12.000 F1200.000 
G1 X450.761 Y-276.061 
G1 X451.200 Y-276.500 
G1 X451.200 Y-357.500 Z-12.000 F1200.000 
G1 X450.761 Y-357.939 
G1 X451.200 Y-357.500 
G1 X461.700 Y-357.500 Z-12.000 F1200.000 
G2 X463.200 Y-359.000 Z-12.000 I-0.000 J-1.500 F1200.000 
G1 X463.200 Y-371.000 Z-12.000 F1200.000 
G2 X461.700 Y-372.500 Z-12.000 I-1.500 J0.000 F1200.000 
G1 X451.200 Y-372.500 Z-12.000 F1200.000 
G1 X450.761 Y-372.061 
G1 X451.200 Y-372.500 
G1 X451.200 Y-383.000 Z-12.000 F1200.000 
G2 X449.700 Y-384.500 Z-12.000 I-1.500 J0.000 F1200.000 
G1 X417.530 Y-384.500 Z-12.000 F1200.000 
G1 X417.091 Y-384.061 
G1 X417.530 Y-384.500 
G1 X417.530 Y-395.000 Z-12.000 F1200.000 
G2 X416.030 Y-396.500 Z-12.000 I-1.500 J0.000 F1200.000 
G1 X370.360 Y-396.500 Z-12.000 F1200.000 
G2 X368.860 Y-395.000 Z-12.000 I0.000 J1.500 F1200.000 
G1 X368.860 Y-384.500 Z-12.000 F1200.000 
G1 X369.299 Y-384.061 
G1 X368.860 Y-384.500 
G1 X326.190 Y-384.500 Z-12.000 F1200.000 
G1 X325.751 Y-384.061 
G1 X326.190 Y-384.500 
G1 X326.190 Y-395.000 Z-12.000 F1200.000 
G2 X324.690 Y-396.500 Z-12.000 I-1.500 J0.000 F1200.000 
G1 X279.020 Y-396.500 Z-12.000 F1200.000 
G2 X277.520 Y-395.000 Z-12.000 I0.000 J1.500 F1200.000 
G1 X277.520 Y-384.500 Z-12.000 F1200.000 
G1 X277.959 Y-384.061 
G1 X277.520 Y-384.500 
G1 X189.180 Y-384.500 Z-12.000 F1200.000 
G1 X188.741 Y-384.061 
G1 X189.180 Y-384.500 
G1 X189.180 Y-395.000 Z-12.000 F1200.000 
G2 X187.680 Y-396.500 Z-12.000 I-1.500 J0.000 F1200.000 
G1 X142.010 Y-396.500 Z-12.000 F1200.000 
G2 X140.510 Y-395.000 Z-12.000 I0.000 J1.500 F1200.000 
G1 X140.510 Y-384.500 Z-12.000 F1200.000 
G1 X140.949 Y-384.061 
G1 X140.510 Y-384.500 
G1 X97.840 Y-384.500 Z-12.000 F1200.000 
G1 X97.401 Y-384.061 
G1 X97.840 Y-384.500 
G1 X97.840 Y-395.000 Z-12.000 F1200.000 
G2 X96.340 Y-396.500 Z-12.000 I-1.500 J0.000 F1200.000 
G1 X50.670 Y-396.500 Z-12.000 F1200.000 
G2 X49.170 Y-395.000 Z-12.000 I0.000 J1.500 F1200.000 
G1 X49.170 Y-384.500 Z-12.000 F1200.000 
G1 X49.609 Y-384.061 
G1 X49.170 Y-384.500 
G1 X17.000 Y-384.500 Z-12.000 F1200.000 
G2 X15.500 Y-383.000 Z-12.000 I0.000 J1.500 F1200.000 
G1 X15.500 Y-372.500 Z-12.000 F1200.000 
G1 X15.939 Y-372.061 
G1 X15.500 Y-372.500 
G1 X5.000 Y-372.500 Z-12.000 F1200.000 
G2 X3.500 Y-371.000 Z-12.000 I0.000 J1.500 F1200.000 
G1 X3.500 Y-359.000 Z-12.000 F1200.000 
G2 X5.000 Y-357.500 Z-12.000 I1.500 J-0.000 F1200.000 
G1 X15.500 Y-357.500 Z-12.000 F1200.000 
G1 X15.939 Y-357.939 
G1 X15.500 Y-357.500 
G1 X15.500 Y-276.500 Z-12.000 F1200.000 
G1 X15.939 Y-276.061 
G1 X15.500 Y-276.500 
G1 X5.000 Y-276.500 Z-12.000 F1200.000 
G2 X3.500 Y-275.000 Z-12.000 I0.000 J1.500 F1200.000 
G1 X3.500 Y-263.000 Z-12.000 F1200.000 
G2 X5.000 Y-261.500 Z-12.000 I1.500 J-0.000 F1200.000 
G1 X15.500 Y-261.500 Z-12.000 F1200.000 
G1 X15.939 Y-261.939 
G1 X15.500 Y-261.500 
G1 X15.500 Y-251.000 Z-12.000 F1200.000 
G2 X17.000 Y-249.500 Z-12.000 I1.500 J-0.000 F1200.000 
G1 X49.170 Y-249.500 Z-12.000 F1200.000 
G1 X49.609 Y-249.939 
G1 X49.170 Y-249.500 
G1 X49.170 Y-239.000 Z-12.000 F1200.000 
G2 X50.670 Y-237.500 Z-12.000 I1.500 J-0.000 F1200.000 
G1 X96.340 Y-237.500 Z-12.000 F1200.000 
G2 X97.840 Y-239.000 Z-12.000 I-0.000 J-1.500 F1200.000 
G1 X97.840 Y-249.500 Z-12.000 F1200.000 
G1 X97.401 Y-249.939 
G1 X97.840 Y-249.500 
G1 X140.510 Y-249.500 Z-12.000 F1200.000 
G1 X140.949 Y-249.939 
G1 X140.510 Y-249.500 
G1 X140.510 Y-239.000 Z-12.000 F1200.000 
G2 X142.010 Y-237.500 Z-12.000 I1.500 J-0.000 F1200.000 
G1 X187.680 Y-237.500 Z-12.000 F1200.000 
G2 X189.180 Y-239.000 Z-12.000 I-0.000 J-1.500 F1200.000 
G1 X189.180 Y-249.500 Z-12.000 F1200.000 
G1 X188.741 Y-249.939 
G1 X189.180 Y-249.500 
G1 X277.520 Y-249.500 Z-12.000 F1200.000 
G1 X277.959 Y-249.939 
G1 X277.520 Y-249.500 
G1 X277.520 Y-239.000 Z-12.000 F1200.000 
G2 X279.020 Y-237.500 Z-12.000 I1.500 J-0.000 F1200.000 
G1 X324.690 Y-237.500 Z-12.000 F1200.000 
G2 X326.190 Y-239.000 Z-12.000 I-0.000 J-1.500 F1200.000 
G1 X326.190 Y-249.500 Z-12.000 F1200.000 
G1 X325.751 Y-249.939 
G1 X326.190 Y-249.500 
G1 X368.860 Y-249.500 Z-12.000 F1200.000 
G1 X369.299 Y-249.939 
G1 X368.860 Y-249.500 
G1 X368.860 Y-239.000 Z-12.000 F1200.000 
G2 X370.360 Y-237.500 Z-12.000 I1.500 J-0.000 F1200.000 
G1 X416.030 Y-237.500 Z-12.000 F1200.000 
G2 X417.530 Y-239.000 Z-12.000 I-0.000 J-1.500 F1200.000 
G1 X417.530 Y-249.500 Z-12.000 F1200.000 
G1 X417.091 Y-249.939 
G1 X417.530 Y-249.500 
G1 X449.700 Y-249.500 Z-12.000 F1200.000 
G2 X450.761 Y-249.939 Z-12.000 I-0.000 J-1.500 F1200.000 
G0 Z5.000 
G0 Z5.000 
(finish operation: DressupDogbone014)
(begin postamble)
M05
G17 G54 G90 G80 G40
M2
