(Exported by FreeCAD)
(Post Processor: linuxcnc_post)
(Output Time:2025-08-11 23:06:42.569165)
(begin preamble)
G17 G54 G40 G49 G80 G90
G21
(begin operation: Fixture)
(machine units: mm/min)
G54 
(finish operation: Fixture)
(begin operation: 3mm_Endmill_doubleFlute)
(machine units: mm/min)
(3mm_Endmill_doubleFlute) 
M5
M6 T1 
G43 H1 
M3 S24000 
(finish operation: 3mm_Endmill_doubleFlute)
(begin operation: DressupDogbone_Bottom)
(machine units: mm/min)
(Profile) 
(Compensated Tool Path. Diameter: 3.0) 
G0 Z5.000 
G0 X458.850 Y-5.500 
G0 Z3.000 
G1 X458.850 Y-5.500 Z-3.000 F500.000 
G1 X458.850 Y-20.833 Z-3.000 F1200.000 
G1 X459.289 Y-21.273 
G1 X458.850 Y-20.833 
G1 X448.350 Y-20.833 Z-3.000 F1200.000 
G3 X446.850 Y-22.333 Z-3.000 I0.000 J-1.500 F1200.000 
G1 X446.850 Y-40.667 Z-3.000 F1200.000 
G3 X448.350 Y-42.167 Z-3.000 I1.500 J0.000 F1200.000 
G1 X458.850 Y-42.167 Z-3.000 F1200.000 
G1 X459.289 Y-41.727 
G1 X458.850 Y-42.167 
G1 X458.850 Y-75.833 Z-3.000 F1200.000 
G1 X459.289 Y-76.273 
G1 X458.850 Y-75.833 
G1 X448.350 Y-75.833 Z-3.000 F1200.000 
G3 X446.850 Y-77.333 Z-3.000 I0.000 J-1.500 F1200.000 
G1 X446.850 Y-95.667 Z-3.000 F1200.000 
G3 X448.350 Y-97.167 Z-3.000 I1.500 J0.000 F1200.000 
G1 X458.850 Y-97.167 Z-3.000 F1200.000 
G1 X459.289 Y-96.727 
G1 X458.850 Y-97.167 
G1 X458.850 Y-112.500 Z-3.000 F1200.000 
G1 X459.289 Y-112.939 
G1 X458.850 Y-112.500 
G1 X5.150 Y-112.500 Z-3.000 F1200.000 
G1 X4.711 Y-112.939 
G1 X5.150 Y-112.500 
G1 X5.150 Y-97.167 Z-3.000 F1200.000 
G1 X4.711 Y-96.727 
G1 X5.150 Y-97.167 
G1 X15.650 Y-97.167 Z-3.000 F1200.000 
G3 X17.150 Y-95.667 Z-3.000 I-0.000 J1.500 F1200.000 
G1 X17.150 Y-77.333 Z-3.000 F1200.000 
G3 X15.650 Y-75.833 Z-3.000 I-1.500 J-0.000 F1200.000 
G1 X5.150 Y-75.833 Z-3.000 F1200.000 
G1 X4.711 Y-76.273 
G1 X5.150 Y-75.833 
G1 X5.150 Y-42.167 Z-3.000 F1200.000 
G1 X4.711 Y-41.727 
G1 X5.150 Y-42.167 
G1 X15.650 Y-42.167 Z-3.000 F1200.000 
G3 X17.150 Y-40.667 Z-3.000 I-0.000 J1.500 F1200.000 
G1 X17.150 Y-22.333 Z-3.000 F1200.000 
G3 X15.650 Y-20.833 Z-3.000 I-1.500 J-0.000 F1200.000 
G1 X5.150 Y-20.833 Z-3.000 F1200.000 
G1 X4.711 Y-21.273 
G1 X5.150 Y-20.833 
G1 X5.150 Y-5.500 Z-3.000 F1200.000 
G1 X4.711 Y-5.061 
G1 X5.150 Y-5.500 
G1 X47.820 Y-5.500 Z-3.000 F1200.000 
G1 X48.259 Y-5.061 
G1 X47.820 Y-5.500 
G1 X47.820 Y-16.000 Z-3.000 F1200.000 
G3 X49.320 Y-17.500 Z-3.000 I1.500 J0.000 F1200.000 
G1 X94.990 Y-17.500 Z-3.000 F1200.000 
G3 X96.490 Y-16.000 Z-3.000 I-0.000 J1.500 F1200.000 
G1 X96.490 Y-5.500 Z-3.000 F1200.000 
G1 X96.051 Y-5.061 
G1 X96.490 Y-5.500 
G1 X139.160 Y-5.500 Z-3.000 F1200.000 
G1 X139.599 Y-5.061 
G1 X139.160 Y-5.500 
G1 X139.160 Y-16.000 Z-3.000 F1200.000 
G3 X140.660 Y-17.500 Z-3.000 I1.500 J0.000 F1200.000 
G1 X186.330 Y-17.500 Z-3.000 F1200.000 
G3 X187.830 Y-16.000 Z-3.000 I-0.000 J1.500 F1200.000 
G1 X187.830 Y-5.500 Z-3.000 F1200.000 
G1 X187.391 Y-5.061 
G1 X187.830 Y-5.500 
G1 X276.170 Y-5.500 Z-3.000 F1200.000 
G1 X276.609 Y-5.061 
G1 X276.170 Y-5.500 
G1 X276.170 Y-16.000 Z-3.000 F1200.000 
G3 X277.670 Y-17.500 Z-3.000 I1.500 J0.000 F1200.000 
G1 X323.340 Y-17.500 Z-3.000 F1200.000 
G3 X324.840 Y-16.000 Z-3.000 I-0.000 J1.500 F1200.000 
G1 X324.840 Y-5.500 Z-3.000 F1200.000 
G1 X324.401 Y-5.061 
G1 X324.840 Y-5.500 
G1 X367.510 Y-5.500 Z-3.000 F1200.000 
G1 X367.949 Y-5.061 
G1 X367.510 Y-5.500 
G1 X367.510 Y-16.000 Z-3.000 F1200.000 
G3 X369.010 Y-17.500 Z-3.000 I1.500 J0.000 F1200.000 
G1 X414.680 Y-17.500 Z-3.000 F1200.000 
G3 X416.180 Y-16.000 Z-3.000 I-0.000 J1.500 F1200.000 
G1 X416.180 Y-5.500 Z-3.000 F1200.000 
G1 X415.741 Y-5.061 
G1 X416.180 Y-5.500 
G1 X458.850 Y-5.500 Z-3.000 F1200.000 
G1 X459.289 Y-5.061 
G1 X458.850 Y-5.500 
G1 X458.850 Y-5.500 Z-6.000 F500.000 
G1 X458.850 Y-20.833 Z-6.000 F1200.000 
G1 X459.289 Y-21.273 
G1 X458.850 Y-20.833 
G1 X448.350 Y-20.833 Z-6.000 F1200.000 
G3 X446.850 Y-22.333 Z-6.000 I0.000 J-1.500 F1200.000 
G1 X446.850 Y-40.667 Z-6.000 F1200.000 
G3 X448.350 Y-42.167 Z-6.000 I1.500 J0.000 F1200.000 
G1 X458.850 Y-42.167 Z-6.000 F1200.000 
G1 X459.289 Y-41.727 
G1 X458.850 Y-42.167 
G1 X458.850 Y-75.833 Z-6.000 F1200.000 
G1 X459.289 Y-76.273 
G1 X458.850 Y-75.833 
G1 X448.350 Y-75.833 Z-6.000 F1200.000 
G3 X446.850 Y-77.333 Z-6.000 I0.000 J-1.500 F1200.000 
G1 X446.850 Y-95.667 Z-6.000 F1200.000 
G3 X448.350 Y-97.167 Z-6.000 I1.500 J0.000 F1200.000 
G1 X458.850 Y-97.167 Z-6.000 F1200.000 
G1 X459.289 Y-96.727 
G1 X458.850 Y-97.167 
G1 X458.850 Y-112.500 Z-6.000 F1200.000 
G1 X459.289 Y-112.939 
G1 X458.850 Y-112.500 
G1 X5.150 Y-112.500 Z-6.000 F1200.000 
G1 X4.711 Y-112.939 
G1 X5.150 Y-112.500 
G1 X5.150 Y-97.167 Z-6.000 F1200.000 
G1 X4.711 Y-96.727 
G1 X5.150 Y-97.167 
G1 X15.650 Y-97.167 Z-6.000 F1200.000 
G3 X17.150 Y-95.667 Z-6.000 I-0.000 J1.500 F1200.000 
G1 X17.150 Y-77.333 Z-6.000 F1200.000 
G3 X15.650 Y-75.833 Z-6.000 I-1.500 J-0.000 F1200.000 
G1 X5.150 Y-75.833 Z-6.000 F1200.000 
G1 X4.711 Y-76.273 
G1 X5.150 Y-75.833 
G1 X5.150 Y-42.167 Z-6.000 F1200.000 
G1 X4.711 Y-41.727 
G1 X5.150 Y-42.167 
G1 X15.650 Y-42.167 Z-6.000 F1200.000 
G3 X17.150 Y-40.667 Z-6.000 I-0.000 J1.500 F1200.000 
G1 X17.150 Y-22.333 Z-6.000 F1200.000 
G3 X15.650 Y-20.833 Z-6.000 I-1.500 J-0.000 F1200.000 
G1 X5.150 Y-20.833 Z-6.000 F1200.000 
G1 X4.711 Y-21.273 
G1 X5.150 Y-20.833 
G1 X5.150 Y-5.500 Z-6.000 F1200.000 
G1 X4.711 Y-5.061 
G1 X5.150 Y-5.500 
G1 X47.820 Y-5.500 Z-6.000 F1200.000 
G1 X48.259 Y-5.061 
G1 X47.820 Y-5.500 
G1 X47.820 Y-16.000 Z-6.000 F1200.000 
G3 X49.320 Y-17.500 Z-6.000 I1.500 J0.000 F1200.000 
G1 X94.990 Y-17.500 Z-6.000 F1200.000 
G3 X96.490 Y-16.000 Z-6.000 I-0.000 J1.500 F1200.000 
G1 X96.490 Y-5.500 Z-6.000 F1200.000 
G1 X96.051 Y-5.061 
G1 X96.490 Y-5.500 
G1 X139.160 Y-5.500 Z-6.000 F1200.000 
G1 X139.599 Y-5.061 
G1 X139.160 Y-5.500 
G1 X139.160 Y-16.000 Z-6.000 F1200.000 
G3 X140.660 Y-17.500 Z-6.000 I1.500 J0.000 F1200.000 
G1 X186.330 Y-17.500 Z-6.000 F1200.000 
G3 X187.830 Y-16.000 Z-6.000 I-0.000 J1.500 F1200.000 
G1 X187.830 Y-5.500 Z-6.000 F1200.000 
G1 X187.391 Y-5.061 
G1 X187.830 Y-5.500 
G1 X276.170 Y-5.500 Z-6.000 F1200.000 
G1 X276.609 Y-5.061 
G1 X276.170 Y-5.500 
G1 X276.170 Y-16.000 Z-6.000 F1200.000 
G3 X277.670 Y-17.500 Z-6.000 I1.500 J0.000 F1200.000 
G1 X323.340 Y-17.500 Z-6.000 F1200.000 
G3 X324.840 Y-16.000 Z-6.000 I-0.000 J1.500 F1200.000 
G1 X324.840 Y-5.500 Z-6.000 F1200.000 
G1 X324.401 Y-5.061 
G1 X324.840 Y-5.500 
G1 X367.510 Y-5.500 Z-6.000 F1200.000 
G1 X367.949 Y-5.061 
G1 X367.510 Y-5.500 
G1 X367.510 Y-16.000 Z-6.000 F1200.000 
G3 X369.010 Y-17.500 Z-6.000 I1.500 J0.000 F1200.000 
G1 X414.680 Y-17.500 Z-6.000 F1200.000 
G3 X416.180 Y-16.000 Z-6.000 I-0.000 J1.500 F1200.000 
G1 X416.180 Y-5.500 Z-6.000 F1200.000 
G1 X415.741 Y-5.061 
G1 X416.180 Y-5.500 
G1 X458.850 Y-5.500 Z-6.000 F1200.000 
G1 X459.289 Y-5.061 
G1 X458.850 Y-5.500 
G1 X458.850 Y-5.500 Z-9.000 F500.000 
G1 X458.850 Y-20.833 Z-9.000 F1200.000 
G1 X459.289 Y-21.273 
G1 X458.850 Y-20.833 
G1 X448.350 Y-20.833 Z-9.000 F1200.000 
G3 X446.850 Y-22.333 Z-9.000 I0.000 J-1.500 F1200.000 
G1 X446.850 Y-40.667 Z-9.000 F1200.000 
G3 X448.350 Y-42.167 Z-9.000 I1.500 J0.000 F1200.000 
G1 X458.850 Y-42.167 Z-9.000 F1200.000 
G1 X459.289 Y-41.727 
G1 X458.850 Y-42.167 
G1 X458.850 Y-75.833 Z-9.000 F1200.000 
G1 X459.289 Y-76.273 
G1 X458.850 Y-75.833 
G1 X448.350 Y-75.833 Z-9.000 F1200.000 
G3 X446.850 Y-77.333 Z-9.000 I0.000 J-1.500 F1200.000 
G1 X446.850 Y-95.667 Z-9.000 F1200.000 
G3 X448.350 Y-97.167 Z-9.000 I1.500 J0.000 F1200.000 
G1 X458.850 Y-97.167 Z-9.000 F1200.000 
G1 X459.289 Y-96.727 
G1 X458.850 Y-97.167 
G1 X458.850 Y-112.500 Z-9.000 F1200.000 
G1 X459.289 Y-112.939 
G1 X458.850 Y-112.500 
G1 X5.150 Y-112.500 Z-9.000 F1200.000 
G1 X4.711 Y-112.939 
G1 X5.150 Y-112.500 
G1 X5.150 Y-97.167 Z-9.000 F1200.000 
G1 X4.711 Y-96.727 
G1 X5.150 Y-97.167 
G1 X15.650 Y-97.167 Z-9.000 F1200.000 
G3 X17.150 Y-95.667 Z-9.000 I-0.000 J1.500 F1200.000 
G1 X17.150 Y-77.333 Z-9.000 F1200.000 
G3 X15.650 Y-75.833 Z-9.000 I-1.500 J-0.000 F1200.000 
G1 X5.150 Y-75.833 Z-9.000 F1200.000 
G1 X4.711 Y-76.273 
G1 X5.150 Y-75.833 
G1 X5.150 Y-42.167 Z-9.000 F1200.000 
G1 X4.711 Y-41.727 
G1 X5.150 Y-42.167 
G1 X15.650 Y-42.167 Z-9.000 F1200.000 
G3 X17.150 Y-40.667 Z-9.000 I-0.000 J1.500 F1200.000 
G1 X17.150 Y-22.333 Z-9.000 F1200.000 
G3 X15.650 Y-20.833 Z-9.000 I-1.500 J-0.000 F1200.000 
G1 X5.150 Y-20.833 Z-9.000 F1200.000 
G1 X4.711 Y-21.273 
G1 X5.150 Y-20.833 
G1 X5.150 Y-5.500 Z-9.000 F1200.000 
G1 X4.711 Y-5.061 
G1 X5.150 Y-5.500 
G1 X47.820 Y-5.500 Z-9.000 F1200.000 
G1 X48.259 Y-5.061 
G1 X47.820 Y-5.500 
G1 X47.820 Y-16.000 Z-9.000 F1200.000 
G3 X49.320 Y-17.500 Z-9.000 I1.500 J0.000 F1200.000 
G1 X94.990 Y-17.500 Z-9.000 F1200.000 
G3 X96.490 Y-16.000 Z-9.000 I-0.000 J1.500 F1200.000 
G1 X96.490 Y-5.500 Z-9.000 F1200.000 
G1 X96.051 Y-5.061 
G1 X96.490 Y-5.500 
G1 X139.160 Y-5.500 Z-9.000 F1200.000 
G1 X139.599 Y-5.061 
G1 X139.160 Y-5.500 
G1 X139.160 Y-16.000 Z-9.000 F1200.000 
G3 X140.660 Y-17.500 Z-9.000 I1.500 J0.000 F1200.000 
G1 X186.330 Y-17.500 Z-9.000 F1200.000 
G3 X187.830 Y-16.000 Z-9.000 I-0.000 J1.500 F1200.000 
G1 X187.830 Y-5.500 Z-9.000 F1200.000 
G1 X187.391 Y-5.061 
G1 X187.830 Y-5.500 
G1 X276.170 Y-5.500 Z-9.000 F1200.000 
G1 X276.609 Y-5.061 
G1 X276.170 Y-5.500 
G1 X276.170 Y-16.000 Z-9.000 F1200.000 
G3 X277.670 Y-17.500 Z-9.000 I1.500 J0.000 F1200.000 
G1 X323.340 Y-17.500 Z-9.000 F1200.000 
G3 X324.840 Y-16.000 Z-9.000 I-0.000 J1.500 F1200.000 
G1 X324.840 Y-5.500 Z-9.000 F1200.000 
G1 X324.401 Y-5.061 
G1 X324.840 Y-5.500 
G1 X367.510 Y-5.500 Z-9.000 F1200.000 
G1 X367.949 Y-5.061 
G1 X367.510 Y-5.500 
G1 X367.510 Y-16.000 Z-9.000 F1200.000 
G3 X369.010 Y-17.500 Z-9.000 I1.500 J0.000 F1200.000 
G1 X414.680 Y-17.500 Z-9.000 F1200.000 
G3 X416.180 Y-16.000 Z-9.000 I-0.000 J1.500 F1200.000 
G1 X416.180 Y-5.500 Z-9.000 F1200.000 
G1 X415.741 Y-5.061 
G1 X416.180 Y-5.500 
G1 X458.850 Y-5.500 Z-9.000 F1200.000 
G1 X459.289 Y-5.061 
G1 X458.850 Y-5.500 
G1 X458.850 Y-5.500 Z-12.000 F500.000 
G1 X458.850 Y-20.833 Z-12.000 F1200.000 
G1 X459.289 Y-21.273 
G1 X458.850 Y-20.833 
G1 X448.350 Y-20.833 Z-12.000 F1200.000 
G3 X446.850 Y-22.333 Z-12.000 I0.000 J-1.500 F1200.000 
G1 X446.850 Y-40.667 Z-12.000 F1200.000 
G3 X448.350 Y-42.167 Z-12.000 I1.500 J0.000 F1200.000 
G1 X458.850 Y-42.167 Z-12.000 F1200.000 
G1 X459.289 Y-41.727 
G1 X458.850 Y-42.167 
G1 X458.850 Y-75.833 Z-12.000 F1200.000 
G1 X459.289 Y-76.273 
G1 X458.850 Y-75.833 
G1 X448.350 Y-75.833 Z-12.000 F1200.000 
G3 X446.850 Y-77.333 Z-12.000 I0.000 J-1.500 F1200.000 
G1 X446.850 Y-95.667 Z-12.000 F1200.000 
G3 X448.350 Y-97.167 Z-12.000 I1.500 J0.000 F1200.000 
G1 X458.850 Y-97.167 Z-12.000 F1200.000 
G1 X459.289 Y-96.727 
G1 X458.850 Y-97.167 
G1 X458.850 Y-112.500 Z-12.000 F1200.000 
G1 X459.289 Y-112.939 
G1 X458.850 Y-112.500 
G1 X5.150 Y-112.500 Z-12.000 F1200.000 
G1 X4.711 Y-112.939 
G1 X5.150 Y-112.500 
G1 X5.150 Y-97.167 Z-12.000 F1200.000 
G1 X4.711 Y-96.727 
G1 X5.150 Y-97.167 
G1 X15.650 Y-97.167 Z-12.000 F1200.000 
G3 X17.150 Y-95.667 Z-12.000 I-0.000 J1.500 F1200.000 
G1 X17.150 Y-77.333 Z-12.000 F1200.000 
G3 X15.650 Y-75.833 Z-12.000 I-1.500 J-0.000 F1200.000 
G1 X5.150 Y-75.833 Z-12.000 F1200.000 
G1 X4.711 Y-76.273 
G1 X5.150 Y-75.833 
G1 X5.150 Y-42.167 Z-12.000 F1200.000 
G1 X4.711 Y-41.727 
G1 X5.150 Y-42.167 
G1 X15.650 Y-42.167 Z-12.000 F1200.000 
G3 X17.150 Y-40.667 Z-12.000 I-0.000 J1.500 F1200.000 
G1 X17.150 Y-22.333 Z-12.000 F1200.000 
G3 X15.650 Y-20.833 Z-12.000 I-1.500 J-0.000 F1200.000 
G1 X5.150 Y-20.833 Z-12.000 F1200.000 
G1 X4.711 Y-21.273 
G1 X5.150 Y-20.833 
G1 X5.150 Y-5.500 Z-12.000 F1200.000 
G1 X4.711 Y-5.061 
G1 X5.150 Y-5.500 
G1 X47.820 Y-5.500 Z-12.000 F1200.000 
G1 X48.259 Y-5.061 
G1 X47.820 Y-5.500 
G1 X47.820 Y-16.000 Z-12.000 F1200.000 
G3 X49.320 Y-17.500 Z-12.000 I1.500 J0.000 F1200.000 
G1 X94.990 Y-17.500 Z-12.000 F1200.000 
G3 X96.490 Y-16.000 Z-12.000 I-0.000 J1.500 F1200.000 
G1 X96.490 Y-5.500 Z-12.000 F1200.000 
G1 X96.051 Y-5.061 
G1 X96.490 Y-5.500 
G1 X139.160 Y-5.500 Z-12.000 F1200.000 
G1 X139.599 Y-5.061 
G1 X139.160 Y-5.500 
G1 X139.160 Y-16.000 Z-12.000 F1200.000 
G3 X140.660 Y-17.500 Z-12.000 I1.500 J0.000 F1200.000 
G1 X186.330 Y-17.500 Z-12.000 F1200.000 
G3 X187.830 Y-16.000 Z-12.000 I-0.000 J1.500 F1200.000 
G1 X187.830 Y-5.500 Z-12.000 F1200.000 
G1 X187.391 Y-5.061 
G1 X187.830 Y-5.500 
G1 X276.170 Y-5.500 Z-12.000 F1200.000 
G1 X276.609 Y-5.061 
G1 X276.170 Y-5.500 
G1 X276.170 Y-16.000 Z-12.000 F1200.000 
G3 X277.670 Y-17.500 Z-12.000 I1.500 J0.000 F1200.000 
G1 X323.340 Y-17.500 Z-12.000 F1200.000 
G3 X324.840 Y-16.000 Z-12.000 I-0.000 J1.500 F1200.000 
G1 X324.840 Y-5.500 Z-12.000 F1200.000 
G1 X324.401 Y-5.061 
G1 X324.840 Y-5.500 
G1 X367.510 Y-5.500 Z-12.000 F1200.000 
G1 X367.949 Y-5.061 
G1 X367.510 Y-5.500 
G1 X367.510 Y-16.000 Z-12.000 F1200.000 
G3 X369.010 Y-17.500 Z-12.000 I1.500 J0.000 F1200.000 
G1 X414.680 Y-17.500 Z-12.000 F1200.000 
G3 X416.180 Y-16.000 Z-12.000 I-0.000 J1.500 F1200.000 
G1 X416.180 Y-5.500 Z-12.000 F1200.000 
G1 X415.741 Y-5.061 
G1 X416.180 Y-5.500 
G1 X458.850 Y-5.500 Z-12.000 F1200.000 
G1 X459.289 Y-5.061 
G1 X458.850 Y-5.500 
G0 Z5.000 
G0 Z5.000 
(finish operation: DressupDogbone_Bottom)
(begin operation: DressupDogbone001)
(machine units: mm/min)
(Profile001) 
(Compensated Tool Path. Diameter: 3.0) 
G0 Z5.000 
G0 X461.411 Y-117.939 
G0 Z3.000 
G1 X461.411 Y-117.939 Z-3.000 F500.000 
G2 X461.850 Y-119.000 Z-3.000 I-1.061 J-1.061 F1200.000 
G1 X461.850 Y-137.333 Z-3.000 F1200.000 
G2 X460.350 Y-138.833 Z-3.000 I-1.500 J0.000 F1200.000 
G1 X449.850 Y-138.833 Z-3.000 F1200.000 
G1 X449.411 Y-138.394 
G1 X449.850 Y-138.833 
G1 X449.850 Y-154.167 Z-3.000 F1200.000 
G1 X449.411 Y-154.606 
G1 X449.850 Y-154.167 
G1 X460.350 Y-154.167 Z-3.000 F1200.000 
G2 X461.850 Y-155.667 Z-3.000 I-0.000 J-1.500 F1200.000 
G1 X461.850 Y-192.333 Z-3.000 F1200.000 
G2 X460.350 Y-193.833 Z-3.000 I-1.500 J0.000 F1200.000 
G1 X449.850 Y-193.833 Z-3.000 F1200.000 
G1 X449.411 Y-193.394 
G1 X449.850 Y-193.833 
G1 X449.850 Y-209.167 Z-3.000 F1200.000 
G1 X449.411 Y-209.606 
G1 X449.850 Y-209.167 
G1 X460.350 Y-209.167 Z-3.000 F1200.000 
G2 X461.850 Y-210.667 Z-3.000 I-0.000 J-1.500 F1200.000 
G1 X461.850 Y-229.000 Z-3.000 F1200.000 
G2 X460.350 Y-230.500 Z-3.000 I-1.500 J0.000 F1200.000 
G1 X3.650 Y-230.500 Z-3.000 F1200.000 
G2 X2.150 Y-229.000 Z-3.000 I0.000 J1.500 F1200.000 
G1 X2.150 Y-210.667 Z-3.000 F1200.000 
G2 X3.650 Y-209.167 Z-3.000 I1.500 J-0.000 F1200.000 
G1 X14.150 Y-209.167 Z-3.000 F1200.000 
G1 X14.589 Y-209.606 
G1 X14.150 Y-209.167 
G1 X14.150 Y-193.833 Z-3.000 F1200.000 
G1 X14.589 Y-193.394 
G1 X14.150 Y-193.833 
G1 X3.650 Y-193.833 Z-3.000 F1200.000 
G2 X2.150 Y-192.333 Z-3.000 I0.000 J1.500 F1200.000 
G1 X2.150 Y-155.667 Z-3.000 F1200.000 
G2 X3.650 Y-154.167 Z-3.000 I1.500 J-0.000 F1200.000 
G1 X14.150 Y-154.167 Z-3.000 F1200.000 
G1 X14.589 Y-154.606 
G1 X14.150 Y-154.167 
G1 X14.150 Y-138.833 Z-3.000 F1200.000 
G1 X14.589 Y-138.394 
G1 X14.150 Y-138.833 
G1 X3.650 Y-138.833 Z-3.000 F1200.000 
G2 X2.150 Y-137.333 Z-3.000 I0.000 J1.500 F1200.000 
G1 X2.150 Y-119.000 Z-3.000 F1200.000 
G2 X3.650 Y-117.500 Z-3.000 I1.500 J-0.000 F1200.000 
G1 X49.320 Y-117.500 Z-3.000 F1200.000 
G2 X50.820 Y-119.000 Z-3.000 I-0.000 J-1.500 F1200.000 
G1 X50.820 Y-129.500 Z-3.000 F1200.000 
G1 X50.381 Y-129.939 
G1 X50.820 Y-129.500 
G1 X93.490 Y-129.500 Z-3.000 F1200.000 
G1 X93.929 Y-129.939 
G1 X93.490 Y-129.500 
G1 X93.490 Y-119.000 Z-3.000 F1200.000 
G2 X94.990 Y-117.500 Z-3.000 I1.500 J-0.000 F1200.000 
G1 X140.660 Y-117.500 Z-3.000 F1200.000 
G2 X142.160 Y-119.000 Z-3.000 I-0.000 J-1.500 F1200.000 
G1 X142.160 Y-129.500 Z-3.000 F1200.000 
G1 X141.721 Y-129.939 
G1 X142.160 Y-129.500 
G1 X184.830 Y-129.500 Z-3.000 F1200.000 
G1 X185.269 Y-129.939 
G1 X184.830 Y-129.500 
G1 X184.830 Y-119.000 Z-3.000 F1200.000 
G2 X186.330 Y-117.500 Z-3.000 I1.500 J-0.000 F1200.000 
G1 X277.670 Y-117.500 Z-3.000 F1200.000 
G2 X279.170 Y-119.000 Z-3.000 I-0.000 J-1.500 F1200.000 
G1 X279.170 Y-129.500 Z-3.000 F1200.000 
G1 X278.731 Y-129.939 
G1 X279.170 Y-129.500 
G1 X321.840 Y-129.500 Z-3.000 F1200.000 
G1 X322.279 Y-129.939 
G1 X321.840 Y-129.500 
G1 X321.840 Y-119.000 Z-3.000 F1200.000 
G2 X323.340 Y-117.500 Z-3.000 I1.500 J-0.000 F1200.000 
G1 X369.010 Y-117.500 Z-3.000 F1200.000 
G2 X370.510 Y-119.000 Z-3.000 I-0.000 J-1.500 F1200.000 
G1 X370.510 Y-129.500 Z-3.000 F1200.000 
G1 X370.071 Y-129.939 
G1 X370.510 Y-129.500 
G1 X413.180 Y-129.500 Z-3.000 F1200.000 
G1 X413.619 Y-129.939 
G1 X413.180 Y-129.500 
G1 X413.180 Y-119.000 Z-3.000 F1200.000 
G2 X414.680 Y-117.500 Z-3.000 I1.500 J-0.000 F1200.000 
G1 X460.350 Y-117.500 Z-3.000 F1200.000 
G2 X461.411 Y-117.939 Z-3.000 I-0.000 J-1.500 F1200.000 
G1 X461.411 Y-117.939 Z-6.000 F500.000 
G2 X461.850 Y-119.000 Z-6.000 I-1.061 J-1.061 F1200.000 
G1 X461.850 Y-137.333 Z-6.000 F1200.000 
G2 X460.350 Y-138.833 Z-6.000 I-1.500 J0.000 F1200.000 
G1 X449.850 Y-138.833 Z-6.000 F1200.000 
G1 X449.411 Y-138.394 
G1 X449.850 Y-138.833 
G1 X449.850 Y-154.167 Z-6.000 F1200.000 
G1 X449.411 Y-154.606 
G1 X449.850 Y-154.167 
G1 X460.350 Y-154.167 Z-6.000 F1200.000 
G2 X461.850 Y-155.667 Z-6.000 I-0.000 J-1.500 F1200.000 
G1 X461.850 Y-192.333 Z-6.000 F1200.000 
G2 X460.350 Y-193.833 Z-6.000 I-1.500 J0.000 F1200.000 
G1 X449.850 Y-193.833 Z-6.000 F1200.000 
G1 X449.411 Y-193.394 
G1 X449.850 Y-193.833 
G1 X449.850 Y-209.167 Z-6.000 F1200.000 
G1 X449.411 Y-209.606 
G1 X449.850 Y-209.167 
G1 X460.350 Y-209.167 Z-6.000 F1200.000 
G2 X461.850 Y-210.667 Z-6.000 I-0.000 J-1.500 F1200.000 
G1 X461.850 Y-229.000 Z-6.000 F1200.000 
G2 X460.350 Y-230.500 Z-6.000 I-1.500 J0.000 F1200.000 
G1 X3.650 Y-230.500 Z-6.000 F1200.000 
G2 X2.150 Y-229.000 Z-6.000 I0.000 J1.500 F1200.000 
G1 X2.150 Y-210.667 Z-6.000 F1200.000 
G2 X3.650 Y-209.167 Z-6.000 I1.500 J-0.000 F1200.000 
G1 X14.150 Y-209.167 Z-6.000 F1200.000 
G1 X14.589 Y-209.606 
G1 X14.150 Y-209.167 
G1 X14.150 Y-193.833 Z-6.000 F1200.000 
G1 X14.589 Y-193.394 
G1 X14.150 Y-193.833 
G1 X3.650 Y-193.833 Z-6.000 F1200.000 
G2 X2.150 Y-192.333 Z-6.000 I0.000 J1.500 F1200.000 
G1 X2.150 Y-155.667 Z-6.000 F1200.000 
G2 X3.650 Y-154.167 Z-6.000 I1.500 J-0.000 F1200.000 
G1 X14.150 Y-154.167 Z-6.000 F1200.000 
G1 X14.589 Y-154.606 
G1 X14.150 Y-154.167 
G1 X14.150 Y-138.833 Z-6.000 F1200.000 
G1 X14.589 Y-138.394 
G1 X14.150 Y-138.833 
G1 X3.650 Y-138.833 Z-6.000 F1200.000 
G2 X2.150 Y-137.333 Z-6.000 I0.000 J1.500 F1200.000 
G1 X2.150 Y-119.000 Z-6.000 F1200.000 
G2 X3.650 Y-117.500 Z-6.000 I1.500 J-0.000 F1200.000 
G1 X49.320 Y-117.500 Z-6.000 F1200.000 
G2 X50.820 Y-119.000 Z-6.000 I-0.000 J-1.500 F1200.000 
G1 X50.820 Y-129.500 Z-6.000 F1200.000 
G1 X50.381 Y-129.939 
G1 X50.820 Y-129.500 
G1 X93.490 Y-129.500 Z-6.000 F1200.000 
G1 X93.929 Y-129.939 
G1 X93.490 Y-129.500 
G1 X93.490 Y-119.000 Z-6.000 F1200.000 
G2 X94.990 Y-117.500 Z-6.000 I1.500 J-0.000 F1200.000 
G1 X140.660 Y-117.500 Z-6.000 F1200.000 
G2 X142.160 Y-119.000 Z-6.000 I-0.000 J-1.500 F1200.000 
G1 X142.160 Y-129.500 Z-6.000 F1200.000 
G1 X141.721 Y-129.939 
G1 X142.160 Y-129.500 
G1 X184.830 Y-129.500 Z-6.000 F1200.000 
G1 X185.269 Y-129.939 
G1 X184.830 Y-129.500 
G1 X184.830 Y-119.000 Z-6.000 F1200.000 
G2 X186.330 Y-117.500 Z-6.000 I1.500 J-0.000 F1200.000 
G1 X277.670 Y-117.500 Z-6.000 F1200.000 
G2 X279.170 Y-119.000 Z-6.000 I-0.000 J-1.500 F1200.000 
G1 X279.170 Y-129.500 Z-6.000 F1200.000 
G1 X278.731 Y-129.939 
G1 X279.170 Y-129.500 
G1 X321.840 Y-129.500 Z-6.000 F1200.000 
G1 X322.279 Y-129.939 
G1 X321.840 Y-129.500 
G1 X321.840 Y-119.000 Z-6.000 F1200.000 
G2 X323.340 Y-117.500 Z-6.000 I1.500 J-0.000 F1200.000 
G1 X369.010 Y-117.500 Z-6.000 F1200.000 
G2 X370.510 Y-119.000 Z-6.000 I-0.000 J-1.500 F1200.000 
G1 X370.510 Y-129.500 Z-6.000 F1200.000 
G1 X370.071 Y-129.939 
G1 X370.510 Y-129.500 
G1 X413.180 Y-129.500 Z-6.000 F1200.000 
G1 X413.619 Y-129.939 
G1 X413.180 Y-129.500 
G1 X413.180 Y-119.000 Z-6.000 F1200.000 
G2 X414.680 Y-117.500 Z-6.000 I1.500 J-0.000 F1200.000 
G1 X460.350 Y-117.500 Z-6.000 F1200.000 
G2 X461.411 Y-117.939 Z-6.000 I-0.000 J-1.500 F1200.000 
G1 X461.411 Y-117.939 Z-9.000 F500.000 
G2 X461.850 Y-119.000 Z-9.000 I-1.061 J-1.061 F1200.000 
G1 X461.850 Y-137.333 Z-9.000 F1200.000 
G2 X460.350 Y-138.833 Z-9.000 I-1.500 J0.000 F1200.000 
G1 X449.850 Y-138.833 Z-9.000 F1200.000 
G1 X449.411 Y-138.394 
G1 X449.850 Y-138.833 
G1 X449.850 Y-154.167 Z-9.000 F1200.000 
G1 X449.411 Y-154.606 
G1 X449.850 Y-154.167 
G1 X460.350 Y-154.167 Z-9.000 F1200.000 
G2 X461.850 Y-155.667 Z-9.000 I-0.000 J-1.500 F1200.000 
G1 X461.850 Y-192.333 Z-9.000 F1200.000 
G2 X460.350 Y-193.833 Z-9.000 I-1.500 J0.000 F1200.000 
G1 X449.850 Y-193.833 Z-9.000 F1200.000 
G1 X449.411 Y-193.394 
G1 X449.850 Y-193.833 
G1 X449.850 Y-209.167 Z-9.000 F1200.000 
G1 X449.411 Y-209.606 
G1 X449.850 Y-209.167 
G1 X460.350 Y-209.167 Z-9.000 F1200.000 
G2 X461.850 Y-210.667 Z-9.000 I-0.000 J-1.500 F1200.000 
G1 X461.850 Y-229.000 Z-9.000 F1200.000 
G2 X460.350 Y-230.500 Z-9.000 I-1.500 J0.000 F1200.000 
G1 X3.650 Y-230.500 Z-9.000 F1200.000 
G2 X2.150 Y-229.000 Z-9.000 I0.000 J1.500 F1200.000 
G1 X2.150 Y-210.667 Z-9.000 F1200.000 
G2 X3.650 Y-209.167 Z-9.000 I1.500 J-0.000 F1200.000 
G1 X14.150 Y-209.167 Z-9.000 F1200.000 
G1 X14.589 Y-209.606 
G1 X14.150 Y-209.167 
G1 X14.150 Y-193.833 Z-9.000 F1200.000 
G1 X14.589 Y-193.394 
G1 X14.150 Y-193.833 
G1 X3.650 Y-193.833 Z-9.000 F1200.000 
G2 X2.150 Y-192.333 Z-9.000 I0.000 J1.500 F1200.000 
G1 X2.150 Y-155.667 Z-9.000 F1200.000 
G2 X3.650 Y-154.167 Z-9.000 I1.500 J-0.000 F1200.000 
G1 X14.150 Y-154.167 Z-9.000 F1200.000 
G1 X14.589 Y-154.606 
G1 X14.150 Y-154.167 
G1 X14.150 Y-138.833 Z-9.000 F1200.000 
G1 X14.589 Y-138.394 
G1 X14.150 Y-138.833 
G1 X3.650 Y-138.833 Z-9.000 F1200.000 
G2 X2.150 Y-137.333 Z-9.000 I0.000 J1.500 F1200.000 
G1 X2.150 Y-119.000 Z-9.000 F1200.000 
G2 X3.650 Y-117.500 Z-9.000 I1.500 J-0.000 F1200.000 
G1 X49.320 Y-117.500 Z-9.000 F1200.000 
G2 X50.820 Y-119.000 Z-9.000 I-0.000 J-1.500 F1200.000 
G1 X50.820 Y-129.500 Z-9.000 F1200.000 
G1 X50.381 Y-129.939 
G1 X50.820 Y-129.500 
G1 X93.490 Y-129.500 Z-9.000 F1200.000 
G1 X93.929 Y-129.939 
G1 X93.490 Y-129.500 
G1 X93.490 Y-119.000 Z-9.000 F1200.000 
G2 X94.990 Y-117.500 Z-9.000 I1.500 J-0.000 F1200.000 
G1 X140.660 Y-117.500 Z-9.000 F1200.000 
G2 X142.160 Y-119.000 Z-9.000 I-0.000 J-1.500 F1200.000 
G1 X142.160 Y-129.500 Z-9.000 F1200.000 
G1 X141.721 Y-129.939 
G1 X142.160 Y-129.500 
G1 X184.830 Y-129.500 Z-9.000 F1200.000 
G1 X185.269 Y-129.939 
G1 X184.830 Y-129.500 
G1 X184.830 Y-119.000 Z-9.000 F1200.000 
G2 X186.330 Y-117.500 Z-9.000 I1.500 J-0.000 F1200.000 
G1 X277.670 Y-117.500 Z-9.000 F1200.000 
G2 X279.170 Y-119.000 Z-9.000 I-0.000 J-1.500 F1200.000 
G1 X279.170 Y-129.500 Z-9.000 F1200.000 
G1 X278.731 Y-129.939 
G1 X279.170 Y-129.500 
G1 X321.840 Y-129.500 Z-9.000 F1200.000 
G1 X322.279 Y-129.939 
G1 X321.840 Y-129.500 
G1 X321.840 Y-119.000 Z-9.000 F1200.000 
G2 X323.340 Y-117.500 Z-9.000 I1.500 J-0.000 F1200.000 
G1 X369.010 Y-117.500 Z-9.000 F1200.000 
G2 X370.510 Y-119.000 Z-9.000 I-0.000 J-1.500 F1200.000 
G1 X370.510 Y-129.500 Z-9.000 F1200.000 
G1 X370.071 Y-129.939 
G1 X370.510 Y-129.500 
G1 X413.180 Y-129.500 Z-9.000 F1200.000 
G1 X413.619 Y-129.939 
G1 X413.180 Y-129.500 
G1 X413.180 Y-119.000 Z-9.000 F1200.000 
G2 X414.680 Y-117.500 Z-9.000 I1.500 J-0.000 F1200.000 
G1 X460.350 Y-117.500 Z-9.000 F1200.000 
G2 X461.411 Y-117.939 Z-9.000 I-0.000 J-1.500 F1200.000 
G1 X461.411 Y-117.939 Z-12.000 F500.000 
G2 X461.850 Y-119.000 Z-12.000 I-1.061 J-1.061 F1200.000 
G1 X461.850 Y-137.333 Z-12.000 F1200.000 
G2 X460.350 Y-138.833 Z-12.000 I-1.500 J0.000 F1200.000 
G1 X449.850 Y-138.833 Z-12.000 F1200.000 
G1 X449.411 Y-138.394 
G1 X449.850 Y-138.833 
G1 X449.850 Y-154.167 Z-12.000 F1200.000 
G1 X449.411 Y-154.606 
G1 X449.850 Y-154.167 
G1 X460.350 Y-154.167 Z-12.000 F1200.000 
G2 X461.850 Y-155.667 Z-12.000 I-0.000 J-1.500 F1200.000 
G1 X461.850 Y-192.333 Z-12.000 F1200.000 
G2 X460.350 Y-193.833 Z-12.000 I-1.500 J0.000 F1200.000 
G1 X449.850 Y-193.833 Z-12.000 F1200.000 
G1 X449.411 Y-193.394 
G1 X449.850 Y-193.833 
G1 X449.850 Y-209.167 Z-12.000 F1200.000 
G1 X449.411 Y-209.606 
G1 X449.850 Y-209.167 
G1 X460.350 Y-209.167 Z-12.000 F1200.000 
G2 X461.850 Y-210.667 Z-12.000 I-0.000 J-1.500 F1200.000 
G1 X461.850 Y-229.000 Z-12.000 F1200.000 
G2 X460.350 Y-230.500 Z-12.000 I-1.500 J0.000 F1200.000 
G1 X3.650 Y-230.500 Z-12.000 F1200.000 
G2 X2.150 Y-229.000 Z-12.000 I0.000 J1.500 F1200.000 
G1 X2.150 Y-210.667 Z-12.000 F1200.000 
G2 X3.650 Y-209.167 Z-12.000 I1.500 J-0.000 F1200.000 
G1 X14.150 Y-209.167 Z-12.000 F1200.000 
G1 X14.589 Y-209.606 
G1 X14.150 Y-209.167 
G1 X14.150 Y-193.833 Z-12.000 F1200.000 
G1 X14.589 Y-193.394 
G1 X14.150 Y-193.833 
G1 X3.650 Y-193.833 Z-12.000 F1200.000 
G2 X2.150 Y-192.333 Z-12.000 I0.000 J1.500 F1200.000 
G1 X2.150 Y-155.667 Z-12.000 F1200.000 
G2 X3.650 Y-154.167 Z-12.000 I1.500 J-0.000 F1200.000 
G1 X14.150 Y-154.167 Z-12.000 F1200.000 
G1 X14.589 Y-154.606 
G1 X14.150 Y-154.167 
G1 X14.150 Y-138.833 Z-12.000 F1200.000 
G1 X14.589 Y-138.394 
G1 X14.150 Y-138.833 
G1 X3.650 Y-138.833 Z-12.000 F1200.000 
G2 X2.150 Y-137.333 Z-12.000 I0.000 J1.500 F1200.000 
G1 X2.150 Y-119.000 Z-12.000 F1200.000 
G2 X3.650 Y-117.500 Z-12.000 I1.500 J-0.000 F1200.000 
G1 X49.320 Y-117.500 Z-12.000 F1200.000 
G2 X50.820 Y-119.000 Z-12.000 I-0.000 J-1.500 F1200.000 
G1 X50.820 Y-129.500 Z-12.000 F1200.000 
G1 X50.381 Y-129.939 
G1 X50.820 Y-129.500 
G1 X93.490 Y-129.500 Z-12.000 F1200.000 
G1 X93.929 Y-129.939 
G1 X93.490 Y-129.500 
G1 X93.490 Y-119.000 Z-12.000 F1200.000 
G2 X94.990 Y-117.500 Z-12.000 I1.500 J-0.000 F1200.000 
G1 X140.660 Y-117.500 Z-12.000 F1200.000 
G2 X142.160 Y-119.000 Z-12.000 I-0.000 J-1.500 F1200.000 
G1 X142.160 Y-129.500 Z-12.000 F1200.000 
G1 X141.721 Y-129.939 
G1 X142.160 Y-129.500 
G1 X184.830 Y-129.500 Z-12.000 F1200.000 
G1 X185.269 Y-129.939 
G1 X184.830 Y-129.500 
G1 X184.830 Y-119.000 Z-12.000 F1200.000 
G2 X186.330 Y-117.500 Z-12.000 I1.500 J-0.000 F1200.000 
G1 X277.670 Y-117.500 Z-12.000 F1200.000 
G2 X279.170 Y-119.000 Z-12.000 I-0.000 J-1.500 F1200.000 
G1 X279.170 Y-129.500 Z-12.000 F1200.000 
G1 X278.731 Y-129.939 
G1 X279.170 Y-129.500 
G1 X321.840 Y-129.500 Z-12.000 F1200.000 
G1 X322.279 Y-129.939 
G1 X321.840 Y-129.500 
G1 X321.840 Y-119.000 Z-12.000 F1200.000 
G2 X323.340 Y-117.500 Z-12.000 I1.500 J-0.000 F1200.000 
G1 X369.010 Y-117.500 Z-12.000 F1200.000 
G2 X370.510 Y-119.000 Z-12.000 I-0.000 J-1.500 F1200.000 
G1 X370.510 Y-129.500 Z-12.000 F1200.000 
G1 X370.071 Y-129.939 
G1 X370.510 Y-129.500 
G1 X413.180 Y-129.500 Z-12.000 F1200.000 
G1 X413.619 Y-129.939 
G1 X413.180 Y-129.500 
G1 X413.180 Y-119.000 Z-12.000 F1200.000 
G2 X414.680 Y-117.500 Z-12.000 I1.500 J-0.000 F1200.000 
G1 X460.350 Y-117.500 Z-12.000 F1200.000 
G2 X461.411 Y-117.939 Z-12.000 I-0.000 J-1.500 F1200.000 
G0 Z5.000 
G0 Z5.000 
(finish operation: DressupDogbone001)
(begin operation: DressupDogbone002)
(machine units: mm/min)
(Profile002) 
(Compensated Tool Path. Diameter: 3.0) 
G0 Z5.000 
G0 X449.411 Y-246.939 
G0 Z3.000 
G1 X449.411 Y-246.939 Z-3.000 F500.000 
G2 X449.850 Y-248.000 Z-3.000 I-1.061 J-1.061 F1200.000 
G1 X449.850 Y-258.500 Z-3.000 F1200.000 
G1 X449.411 Y-258.939 
G1 X449.850 Y-258.500 
G1 X460.350 Y-258.500 Z-3.000 F1200.000 
G2 X461.850 Y-260.000 Z-3.000 I-0.000 J-1.500 F1200.000 
G1 X461.850 Y-272.000 Z-3.000 F1200.000 
G2 X460.350 Y-273.500 Z-3.000 I-1.500 J0.000 F1200.000 
G1 X449.850 Y-273.500 Z-3.000 F1200.000 
G1 X449.411 Y-273.061 
G1 X449.850 Y-273.500 
G1 X449.850 Y-354.500 Z-3.000 F1200.000 
G1 X449.411 Y-354.939 
G1 X449.850 Y-354.500 
G1 X460.350 Y-354.500 Z-3.000 F1200.000 
G2 X461.850 Y-356.000 Z-3.000 I-0.000 J-1.500 F1200.000 
G1 X461.850 Y-368.000 Z-3.000 F1200.000 
G2 X460.350 Y-369.500 Z-3.000 I-1.500 J0.000 F1200.000 
G1 X449.850 Y-369.500 Z-3.000 F1200.000 
G1 X449.411 Y-369.061 
G1 X449.850 Y-369.500 
G1 X449.850 Y-380.000 Z-3.000 F1200.000 
G2 X448.350 Y-381.500 Z-3.000 I-1.500 J0.000 F1200.000 
G1 X416.180 Y-381.500 Z-3.000 F1200.000 
G1 X415.741 Y-381.061 
G1 X416.180 Y-381.500 
G1 X416.180 Y-392.000 Z-3.000 F1200.000 
G2 X414.680 Y-393.500 Z-3.000 I-1.500 J0.000 F1200.000 
G1 X369.010 Y-393.500 Z-3.000 F1200.000 
G2 X367.510 Y-392.000 Z-3.000 I0.000 J1.500 F1200.000 
G1 X367.510 Y-381.500 Z-3.000 F1200.000 
G1 X367.949 Y-381.061 
G1 X367.510 Y-381.500 
G1 X324.840 Y-381.500 Z-3.000 F1200.000 
G1 X324.401 Y-381.061 
G1 X324.840 Y-381.500 
G1 X324.840 Y-392.000 Z-3.000 F1200.000 
G2 X323.340 Y-393.500 Z-3.000 I-1.500 J0.000 F1200.000 
G1 X277.670 Y-393.500 Z-3.000 F1200.000 
G2 X276.170 Y-392.000 Z-3.000 I0.000 J1.500 F1200.000 
G1 X276.170 Y-381.500 Z-3.000 F1200.000 
G1 X276.609 Y-381.061 
G1 X276.170 Y-381.500 
G1 X187.830 Y-381.500 Z-3.000 F1200.000 
G1 X187.391 Y-381.061 
G1 X187.830 Y-381.500 
G1 X187.830 Y-392.000 Z-3.000 F1200.000 
G2 X186.330 Y-393.500 Z-3.000 I-1.500 J0.000 F1200.000 
G1 X140.660 Y-393.500 Z-3.000 F1200.000 
G2 X139.160 Y-392.000 Z-3.000 I0.000 J1.500 F1200.000 
G1 X139.160 Y-381.500 Z-3.000 F1200.000 
G1 X139.599 Y-381.061 
G1 X139.160 Y-381.500 
G1 X96.490 Y-381.500 Z-3.000 F1200.000 
G1 X96.051 Y-381.061 
G1 X96.490 Y-381.500 
G1 X96.490 Y-392.000 Z-3.000 F1200.000 
G2 X94.990 Y-393.500 Z-3.000 I-1.500 J0.000 F1200.000 
G1 X49.320 Y-393.500 Z-3.000 F1200.000 
G2 X47.820 Y-392.000 Z-3.000 I0.000 J1.500 F1200.000 
G1 X47.820 Y-381.500 Z-3.000 F1200.000 
G1 X48.259 Y-381.061 
G1 X47.820 Y-381.500 
G1 X15.650 Y-381.500 Z-3.000 F1200.000 
G2 X14.150 Y-380.000 Z-3.000 I0.000 J1.500 F1200.000 
G1 X14.150 Y-369.500 Z-3.000 F1200.000 
G1 X14.589 Y-369.061 
G1 X14.150 Y-369.500 
G1 X3.650 Y-369.500 Z-3.000 F1200.000 
G2 X2.150 Y-368.000 Z-3.000 I0.000 J1.500 F1200.000 
G1 X2.150 Y-356.000 Z-3.000 F1200.000 
G2 X3.650 Y-354.500 Z-3.000 I1.500 J-0.000 F1200.000 
G1 X14.150 Y-354.500 Z-3.000 F1200.000 
G1 X14.589 Y-354.939 
G1 X14.150 Y-354.500 
G1 X14.150 Y-273.500 Z-3.000 F1200.000 
G1 X14.589 Y-273.061 
G1 X14.150 Y-273.500 
G1 X3.650 Y-273.500 Z-3.000 F1200.000 
G2 X2.150 Y-272.000 Z-3.000 I0.000 J1.500 F1200.000 
G1 X2.150 Y-260.000 Z-3.000 F1200.000 
G2 X3.650 Y-258.500 Z-3.000 I1.500 J-0.000 F1200.000 
G1 X14.150 Y-258.500 Z-3.000 F1200.000 
G1 X14.589 Y-258.939 
G1 X14.150 Y-258.500 
G1 X14.150 Y-248.000 Z-3.000 F1200.000 
G2 X15.650 Y-246.500 Z-3.000 I1.500 J-0.000 F1200.000 
G1 X47.820 Y-246.500 Z-3.000 F1200.000 
G1 X48.259 Y-246.939 
G1 X47.820 Y-246.500 
G1 X47.820 Y-236.000 Z-3.000 F1200.000 
G2 X49.320 Y-234.500 Z-3.000 I1.500 J-0.000 F1200.000 
G1 X94.990 Y-234.500 Z-3.000 F1200.000 
G2 X96.490 Y-236.000 Z-3.000 I-0.000 J-1.500 F1200.000 
G1 X96.490 Y-246.500 Z-3.000 F1200.000 
G1 X96.051 Y-246.939 
G1 X96.490 Y-246.500 
G1 X139.160 Y-246.500 Z-3.000 F1200.000 
G1 X139.599 Y-246.939 
G1 X139.160 Y-246.500 
G1 X139.160 Y-236.000 Z-3.000 F1200.000 
G2 X140.660 Y-234.500 Z-3.000 I1.500 J-0.000 F1200.000 
G1 X186.330 Y-234.500 Z-3.000 F1200.000 
G2 X187.830 Y-236.000 Z-3.000 I-0.000 J-1.500 F1200.000 
G1 X187.830 Y-246.500 Z-3.000 F1200.000 
G1 X187.391 Y-246.939 
G1 X187.830 Y-246.500 
G1 X276.170 Y-246.500 Z-3.000 F1200.000 
G1 X276.609 Y-246.939 
G1 X276.170 Y-246.500 
G1 X276.170 Y-236.000 Z-3.000 F1200.000 
G2 X277.670 Y-234.500 Z-3.000 I1.500 J-0.000 F1200.000 
G1 X323.340 Y-234.500 Z-3.000 F1200.000 
G2 X324.840 Y-236.000 Z-3.000 I-0.000 J-1.500 F1200.000 
G1 X324.840 Y-246.500 Z-3.000 F1200.000 
G1 X324.401 Y-246.939 
G1 X324.840 Y-246.500 
G1 X367.510 Y-246.500 Z-3.000 F1200.000 
G1 X367.949 Y-246.939 
G1 X367.510 Y-246.500 
G1 X367.510 Y-236.000 Z-3.000 F1200.000 
G2 X369.010 Y-234.500 Z-3.000 I1.500 J-0.000 F1200.000 
G1 X414.680 Y-234.500 Z-3.000 F1200.000 
G2 X416.180 Y-236.000 Z-3.000 I-0.000 J-1.500 F1200.000 
G1 X416.180 Y-246.500 Z-3.000 F1200.000 
G1 X415.741 Y-246.939 
G1 X416.180 Y-246.500 
G1 X448.350 Y-246.500 Z-3.000 F1200.000 
G2 X449.411 Y-246.939 Z-3.000 I-0.000 J-1.500 F1200.000 
G1 X449.411 Y-246.939 Z-6.000 F500.000 
G2 X449.850 Y-248.000 Z-6.000 I-1.061 J-1.061 F1200.000 
G1 X449.850 Y-258.500 Z-6.000 F1200.000 
G1 X449.411 Y-258.939 
G1 X449.850 Y-258.500 
G1 X460.350 Y-258.500 Z-6.000 F1200.000 
G2 X461.850 Y-260.000 Z-6.000 I-0.000 J-1.500 F1200.000 
G1 X461.850 Y-272.000 Z-6.000 F1200.000 
G2 X460.350 Y-273.500 Z-6.000 I-1.500 J0.000 F1200.000 
G1 X449.850 Y-273.500 Z-6.000 F1200.000 
G1 X449.411 Y-273.061 
G1 X449.850 Y-273.500 
G1 X449.850 Y-354.500 Z-6.000 F1200.000 
G1 X449.411 Y-354.939 
G1 X449.850 Y-354.500 
G1 X460.350 Y-354.500 Z-6.000 F1200.000 
G2 X461.850 Y-356.000 Z-6.000 I-0.000 J-1.500 F1200.000 
G1 X461.850 Y-368.000 Z-6.000 F1200.000 
G2 X460.350 Y-369.500 Z-6.000 I-1.500 J0.000 F1200.000 
G1 X449.850 Y-369.500 Z-6.000 F1200.000 
G1 X449.411 Y-369.061 
G1 X449.850 Y-369.500 
G1 X449.850 Y-380.000 Z-6.000 F1200.000 
G2 X448.350 Y-381.500 Z-6.000 I-1.500 J0.000 F1200.000 
G1 X416.180 Y-381.500 Z-6.000 F1200.000 
G1 X415.741 Y-381.061 
G1 X416.180 Y-381.500 
G1 X416.180 Y-392.000 Z-6.000 F1200.000 
G2 X414.680 Y-393.500 Z-6.000 I-1.500 J0.000 F1200.000 
G1 X369.010 Y-393.500 Z-6.000 F1200.000 
G2 X367.510 Y-392.000 Z-6.000 I0.000 J1.500 F1200.000 
G1 X367.510 Y-381.500 Z-6.000 F1200.000 
G1 X367.949 Y-381.061 
G1 X367.510 Y-381.500 
G1 X324.840 Y-381.500 Z-6.000 F1200.000 
G1 X324.401 Y-381.061 
G1 X324.840 Y-381.500 
G1 X324.840 Y-392.000 Z-6.000 F1200.000 
G2 X323.340 Y-393.500 Z-6.000 I-1.500 J0.000 F1200.000 
G1 X277.670 Y-393.500 Z-6.000 F1200.000 
G2 X276.170 Y-392.000 Z-6.000 I0.000 J1.500 F1200.000 
G1 X276.170 Y-381.500 Z-6.000 F1200.000 
G1 X276.609 Y-381.061 
G1 X276.170 Y-381.500 
G1 X187.830 Y-381.500 Z-6.000 F1200.000 
G1 X187.391 Y-381.061 
G1 X187.830 Y-381.500 
G1 X187.830 Y-392.000 Z-6.000 F1200.000 
G2 X186.330 Y-393.500 Z-6.000 I-1.500 J0.000 F1200.000 
G1 X140.660 Y-393.500 Z-6.000 F1200.000 
G2 X139.160 Y-392.000 Z-6.000 I0.000 J1.500 F1200.000 
G1 X139.160 Y-381.500 Z-6.000 F1200.000 
G1 X139.599 Y-381.061 
G1 X139.160 Y-381.500 
G1 X96.490 Y-381.500 Z-6.000 F1200.000 
G1 X96.051 Y-381.061 
G1 X96.490 Y-381.500 
G1 X96.490 Y-392.000 Z-6.000 F1200.000 
G2 X94.990 Y-393.500 Z-6.000 I-1.500 J0.000 F1200.000 
G1 X49.320 Y-393.500 Z-6.000 F1200.000 
G2 X47.820 Y-392.000 Z-6.000 I0.000 J1.500 F1200.000 
G1 X47.820 Y-381.500 Z-6.000 F1200.000 
G1 X48.259 Y-381.061 
G1 X47.820 Y-381.500 
G1 X15.650 Y-381.500 Z-6.000 F1200.000 
G2 X14.150 Y-380.000 Z-6.000 I0.000 J1.500 F1200.000 
G1 X14.150 Y-369.500 Z-6.000 F1200.000 
G1 X14.589 Y-369.061 
G1 X14.150 Y-369.500 
G1 X3.650 Y-369.500 Z-6.000 F1200.000 
G2 X2.150 Y-368.000 Z-6.000 I0.000 J1.500 F1200.000 
G1 X2.150 Y-356.000 Z-6.000 F1200.000 
G2 X3.650 Y-354.500 Z-6.000 I1.500 J-0.000 F1200.000 
G1 X14.150 Y-354.500 Z-6.000 F1200.000 
G1 X14.589 Y-354.939 
G1 X14.150 Y-354.500 
G1 X14.150 Y-273.500 Z-6.000 F1200.000 
G1 X14.589 Y-273.061 
G1 X14.150 Y-273.500 
G1 X3.650 Y-273.500 Z-6.000 F1200.000 
G2 X2.150 Y-272.000 Z-6.000 I0.000 J1.500 F1200.000 
G1 X2.150 Y-260.000 Z-6.000 F1200.000 
G2 X3.650 Y-258.500 Z-6.000 I1.500 J-0.000 F1200.000 
G1 X14.150 Y-258.500 Z-6.000 F1200.000 
G1 X14.589 Y-258.939 
G1 X14.150 Y-258.500 
G1 X14.150 Y-248.000 Z-6.000 F1200.000 
G2 X15.650 Y-246.500 Z-6.000 I1.500 J-0.000 F1200.000 
G1 X47.820 Y-246.500 Z-6.000 F1200.000 
G1 X48.259 Y-246.939 
G1 X47.820 Y-246.500 
G1 X47.820 Y-236.000 Z-6.000 F1200.000 
G2 X49.320 Y-234.500 Z-6.000 I1.500 J-0.000 F1200.000 
G1 X94.990 Y-234.500 Z-6.000 F1200.000 
G2 X96.490 Y-236.000 Z-6.000 I-0.000 J-1.500 F1200.000 
G1 X96.490 Y-246.500 Z-6.000 F1200.000 
G1 X96.051 Y-246.939 
G1 X96.490 Y-246.500 
G1 X139.160 Y-246.500 Z-6.000 F1200.000 
G1 X139.599 Y-246.939 
G1 X139.160 Y-246.500 
G1 X139.160 Y-236.000 Z-6.000 F1200.000 
G2 X140.660 Y-234.500 Z-6.000 I1.500 J-0.000 F1200.000 
G1 X186.330 Y-234.500 Z-6.000 F1200.000 
G2 X187.830 Y-236.000 Z-6.000 I-0.000 J-1.500 F1200.000 
G1 X187.830 Y-246.500 Z-6.000 F1200.000 
G1 X187.391 Y-246.939 
G1 X187.830 Y-246.500 
G1 X276.170 Y-246.500 Z-6.000 F1200.000 
G1 X276.609 Y-246.939 
G1 X276.170 Y-246.500 
G1 X276.170 Y-236.000 Z-6.000 F1200.000 
G2 X277.670 Y-234.500 Z-6.000 I1.500 J-0.000 F1200.000 
G1 X323.340 Y-234.500 Z-6.000 F1200.000 
G2 X324.840 Y-236.000 Z-6.000 I-0.000 J-1.500 F1200.000 
G1 X324.840 Y-246.500 Z-6.000 F1200.000 
G1 X324.401 Y-246.939 
G1 X324.840 Y-246.500 
G1 X367.510 Y-246.500 Z-6.000 F1200.000 
G1 X367.949 Y-246.939 
G1 X367.510 Y-246.500 
G1 X367.510 Y-236.000 Z-6.000 F1200.000 
G2 X369.010 Y-234.500 Z-6.000 I1.500 J-0.000 F1200.000 
G1 X414.680 Y-234.500 Z-6.000 F1200.000 
G2 X416.180 Y-236.000 Z-6.000 I-0.000 J-1.500 F1200.000 
G1 X416.180 Y-246.500 Z-6.000 F1200.000 
G1 X415.741 Y-246.939 
G1 X416.180 Y-246.500 
G1 X448.350 Y-246.500 Z-6.000 F1200.000 
G2 X449.411 Y-246.939 Z-6.000 I-0.000 J-1.500 F1200.000 
G1 X449.411 Y-246.939 Z-9.000 F500.000 
G2 X449.850 Y-248.000 Z-9.000 I-1.061 J-1.061 F1200.000 
G1 X449.850 Y-258.500 Z-9.000 F1200.000 
G1 X449.411 Y-258.939 
G1 X449.850 Y-258.500 
G1 X460.350 Y-258.500 Z-9.000 F1200.000 
G2 X461.850 Y-260.000 Z-9.000 I-0.000 J-1.500 F1200.000 
G1 X461.850 Y-272.000 Z-9.000 F1200.000 
G2 X460.350 Y-273.500 Z-9.000 I-1.500 J0.000 F1200.000 
G1 X449.850 Y-273.500 Z-9.000 F1200.000 
G1 X449.411 Y-273.061 
G1 X449.850 Y-273.500 
G1 X449.850 Y-354.500 Z-9.000 F1200.000 
G1 X449.411 Y-354.939 
G1 X449.850 Y-354.500 
G1 X460.350 Y-354.500 Z-9.000 F1200.000 
G2 X461.850 Y-356.000 Z-9.000 I-0.000 J-1.500 F1200.000 
G1 X461.850 Y-368.000 Z-9.000 F1200.000 
G2 X460.350 Y-369.500 Z-9.000 I-1.500 J0.000 F1200.000 
G1 X449.850 Y-369.500 Z-9.000 F1200.000 
G1 X449.411 Y-369.061 
G1 X449.850 Y-369.500 
G1 X449.850 Y-380.000 Z-9.000 F1200.000 
G2 X448.350 Y-381.500 Z-9.000 I-1.500 J0.000 F1200.000 
G1 X416.180 Y-381.500 Z-9.000 F1200.000 
G1 X415.741 Y-381.061 
G1 X416.180 Y-381.500 
G1 X416.180 Y-392.000 Z-9.000 F1200.000 
G2 X414.680 Y-393.500 Z-9.000 I-1.500 J0.000 F1200.000 
G1 X369.010 Y-393.500 Z-9.000 F1200.000 
G2 X367.510 Y-392.000 Z-9.000 I0.000 J1.500 F1200.000 
G1 X367.510 Y-381.500 Z-9.000 F1200.000 
G1 X367.949 Y-381.061 
G1 X367.510 Y-381.500 
G1 X324.840 Y-381.500 Z-9.000 F1200.000 
G1 X324.401 Y-381.061 
G1 X324.840 Y-381.500 
G1 X324.840 Y-392.000 Z-9.000 F1200.000 
G2 X323.340 Y-393.500 Z-9.000 I-1.500 J0.000 F1200.000 
G1 X277.670 Y-393.500 Z-9.000 F1200.000 
G2 X276.170 Y-392.000 Z-9.000 I0.000 J1.500 F1200.000 
G1 X276.170 Y-381.500 Z-9.000 F1200.000 
G1 X276.609 Y-381.061 
G1 X276.170 Y-381.500 
G1 X187.830 Y-381.500 Z-9.000 F1200.000 
G1 X187.391 Y-381.061 
G1 X187.830 Y-381.500 
G1 X187.830 Y-392.000 Z-9.000 F1200.000 
G2 X186.330 Y-393.500 Z-9.000 I-1.500 J0.000 F1200.000 
G1 X140.660 Y-393.500 Z-9.000 F1200.000 
G2 X139.160 Y-392.000 Z-9.000 I0.000 J1.500 F1200.000 
G1 X139.160 Y-381.500 Z-9.000 F1200.000 
G1 X139.599 Y-381.061 
G1 X139.160 Y-381.500 
G1 X96.490 Y-381.500 Z-9.000 F1200.000 
G1 X96.051 Y-381.061 
G1 X96.490 Y-381.500 
G1 X96.490 Y-392.000 Z-9.000 F1200.000 
G2 X94.990 Y-393.500 Z-9.000 I-1.500 J0.000 F1200.000 
G1 X49.320 Y-393.500 Z-9.000 F1200.000 
G2 X47.820 Y-392.000 Z-9.000 I0.000 J1.500 F1200.000 
G1 X47.820 Y-381.500 Z-9.000 F1200.000 
G1 X48.259 Y-381.061 
G1 X47.820 Y-381.500 
G1 X15.650 Y-381.500 Z-9.000 F1200.000 
G2 X14.150 Y-380.000 Z-9.000 I0.000 J1.500 F1200.000 
G1 X14.150 Y-369.500 Z-9.000 F1200.000 
G1 X14.589 Y-369.061 
G1 X14.150 Y-369.500 
G1 X3.650 Y-369.500 Z-9.000 F1200.000 
G2 X2.150 Y-368.000 Z-9.000 I0.000 J1.500 F1200.000 
G1 X2.150 Y-356.000 Z-9.000 F1200.000 
G2 X3.650 Y-354.500 Z-9.000 I1.500 J-0.000 F1200.000 
G1 X14.150 Y-354.500 Z-9.000 F1200.000 
G1 X14.589 Y-354.939 
G1 X14.150 Y-354.500 
G1 X14.150 Y-273.500 Z-9.000 F1200.000 
G1 X14.589 Y-273.061 
G1 X14.150 Y-273.500 
G1 X3.650 Y-273.500 Z-9.000 F1200.000 
G2 X2.150 Y-272.000 Z-9.000 I0.000 J1.500 F1200.000 
G1 X2.150 Y-260.000 Z-9.000 F1200.000 
G2 X3.650 Y-258.500 Z-9.000 I1.500 J-0.000 F1200.000 
G1 X14.150 Y-258.500 Z-9.000 F1200.000 
G1 X14.589 Y-258.939 
G1 X14.150 Y-258.500 
G1 X14.150 Y-248.000 Z-9.000 F1200.000 
G2 X15.650 Y-246.500 Z-9.000 I1.500 J-0.000 F1200.000 
G1 X47.820 Y-246.500 Z-9.000 F1200.000 
G1 X48.259 Y-246.939 
G1 X47.820 Y-246.500 
G1 X47.820 Y-236.000 Z-9.000 F1200.000 
G2 X49.320 Y-234.500 Z-9.000 I1.500 J-0.000 F1200.000 
G1 X94.990 Y-234.500 Z-9.000 F1200.000 
G2 X96.490 Y-236.000 Z-9.000 I-0.000 J-1.500 F1200.000 
G1 X96.490 Y-246.500 Z-9.000 F1200.000 
G1 X96.051 Y-246.939 
G1 X96.490 Y-246.500 
G1 X139.160 Y-246.500 Z-9.000 F1200.000 
G1 X139.599 Y-246.939 
G1 X139.160 Y-246.500 
G1 X139.160 Y-236.000 Z-9.000 F1200.000 
G2 X140.660 Y-234.500 Z-9.000 I1.500 J-0.000 F1200.000 
G1 X186.330 Y-234.500 Z-9.000 F1200.000 
G2 X187.830 Y-236.000 Z-9.000 I-0.000 J-1.500 F1200.000 
G1 X187.830 Y-246.500 Z-9.000 F1200.000 
G1 X187.391 Y-246.939 
G1 X187.830 Y-246.500 
G1 X276.170 Y-246.500 Z-9.000 F1200.000 
G1 X276.609 Y-246.939 
G1 X276.170 Y-246.500 
G1 X276.170 Y-236.000 Z-9.000 F1200.000 
G2 X277.670 Y-234.500 Z-9.000 I1.500 J-0.000 F1200.000 
G1 X323.340 Y-234.500 Z-9.000 F1200.000 
G2 X324.840 Y-236.000 Z-9.000 I-0.000 J-1.500 F1200.000 
G1 X324.840 Y-246.500 Z-9.000 F1200.000 
G1 X324.401 Y-246.939 
G1 X324.840 Y-246.500 
G1 X367.510 Y-246.500 Z-9.000 F1200.000 
G1 X367.949 Y-246.939 
G1 X367.510 Y-246.500 
G1 X367.510 Y-236.000 Z-9.000 F1200.000 
G2 X369.010 Y-234.500 Z-9.000 I1.500 J-0.000 F1200.000 
G1 X414.680 Y-234.500 Z-9.000 F1200.000 
G2 X416.180 Y-236.000 Z-9.000 I-0.000 J-1.500 F1200.000 
G1 X416.180 Y-246.500 Z-9.000 F1200.000 
G1 X415.741 Y-246.939 
G1 X416.180 Y-246.500 
G1 X448.350 Y-246.500 Z-9.000 F1200.000 
G2 X449.411 Y-246.939 Z-9.000 I-0.000 J-1.500 F1200.000 
G1 X449.411 Y-246.939 Z-12.000 F500.000 
G2 X449.850 Y-248.000 Z-12.000 I-1.061 J-1.061 F1200.000 
G1 X449.850 Y-258.500 Z-12.000 F1200.000 
G1 X449.411 Y-258.939 
G1 X449.850 Y-258.500 
G1 X460.350 Y-258.500 Z-12.000 F1200.000 
G2 X461.850 Y-260.000 Z-12.000 I-0.000 J-1.500 F1200.000 
G1 X461.850 Y-272.000 Z-12.000 F1200.000 
G2 X460.350 Y-273.500 Z-12.000 I-1.500 J0.000 F1200.000 
G1 X449.850 Y-273.500 Z-12.000 F1200.000 
G1 X449.411 Y-273.061 
G1 X449.850 Y-273.500 
G1 X449.850 Y-354.500 Z-12.000 F1200.000 
G1 X449.411 Y-354.939 
G1 X449.850 Y-354.500 
G1 X460.350 Y-354.500 Z-12.000 F1200.000 
G2 X461.850 Y-356.000 Z-12.000 I-0.000 J-1.500 F1200.000 
G1 X461.850 Y-368.000 Z-12.000 F1200.000 
G2 X460.350 Y-369.500 Z-12.000 I-1.500 J0.000 F1200.000 
G1 X449.850 Y-369.500 Z-12.000 F1200.000 
G1 X449.411 Y-369.061 
G1 X449.850 Y-369.500 
G1 X449.850 Y-380.000 Z-12.000 F1200.000 
G2 X448.350 Y-381.500 Z-12.000 I-1.500 J0.000 F1200.000 
G1 X416.180 Y-381.500 Z-12.000 F1200.000 
G1 X415.741 Y-381.061 
G1 X416.180 Y-381.500 
G1 X416.180 Y-392.000 Z-12.000 F1200.000 
G2 X414.680 Y-393.500 Z-12.000 I-1.500 J0.000 F1200.000 
G1 X369.010 Y-393.500 Z-12.000 F1200.000 
G2 X367.510 Y-392.000 Z-12.000 I0.000 J1.500 F1200.000 
G1 X367.510 Y-381.500 Z-12.000 F1200.000 
G1 X367.949 Y-381.061 
G1 X367.510 Y-381.500 
G1 X324.840 Y-381.500 Z-12.000 F1200.000 
G1 X324.401 Y-381.061 
G1 X324.840 Y-381.500 
G1 X324.840 Y-392.000 Z-12.000 F1200.000 
G2 X323.340 Y-393.500 Z-12.000 I-1.500 J0.000 F1200.000 
G1 X277.670 Y-393.500 Z-12.000 F1200.000 
G2 X276.170 Y-392.000 Z-12.000 I0.000 J1.500 F1200.000 
G1 X276.170 Y-381.500 Z-12.000 F1200.000 
G1 X276.609 Y-381.061 
G1 X276.170 Y-381.500 
G1 X187.830 Y-381.500 Z-12.000 F1200.000 
G1 X187.391 Y-381.061 
G1 X187.830 Y-381.500 
G1 X187.830 Y-392.000 Z-12.000 F1200.000 
G2 X186.330 Y-393.500 Z-12.000 I-1.500 J0.000 F1200.000 
G1 X140.660 Y-393.500 Z-12.000 F1200.000 
G2 X139.160 Y-392.000 Z-12.000 I0.000 J1.500 F1200.000 
G1 X139.160 Y-381.500 Z-12.000 F1200.000 
G1 X139.599 Y-381.061 
G1 X139.160 Y-381.500 
G1 X96.490 Y-381.500 Z-12.000 F1200.000 
G1 X96.051 Y-381.061 
G1 X96.490 Y-381.500 
G1 X96.490 Y-392.000 Z-12.000 F1200.000 
G2 X94.990 Y-393.500 Z-12.000 I-1.500 J0.000 F1200.000 
G1 X49.320 Y-393.500 Z-12.000 F1200.000 
G2 X47.820 Y-392.000 Z-12.000 I0.000 J1.500 F1200.000 
G1 X47.820 Y-381.500 Z-12.000 F1200.000 
G1 X48.259 Y-381.061 
G1 X47.820 Y-381.500 
G1 X15.650 Y-381.500 Z-12.000 F1200.000 
G2 X14.150 Y-380.000 Z-12.000 I0.000 J1.500 F1200.000 
G1 X14.150 Y-369.500 Z-12.000 F1200.000 
G1 X14.589 Y-369.061 
G1 X14.150 Y-369.500 
G1 X3.650 Y-369.500 Z-12.000 F1200.000 
G2 X2.150 Y-368.000 Z-12.000 I0.000 J1.500 F1200.000 
G1 X2.150 Y-356.000 Z-12.000 F1200.000 
G2 X3.650 Y-354.500 Z-12.000 I1.500 J-0.000 F1200.000 
G1 X14.150 Y-354.500 Z-12.000 F1200.000 
G1 X14.589 Y-354.939 
G1 X14.150 Y-354.500 
G1 X14.150 Y-273.500 Z-12.000 F1200.000 
G1 X14.589 Y-273.061 
G1 X14.150 Y-273.500 
G1 X3.650 Y-273.500 Z-12.000 F1200.000 
G2 X2.150 Y-272.000 Z-12.000 I0.000 J1.500 F1200.000 
G1 X2.150 Y-260.000 Z-12.000 F1200.000 
G2 X3.650 Y-258.500 Z-12.000 I1.500 J-0.000 F1200.000 
G1 X14.150 Y-258.500 Z-12.000 F1200.000 
G1 X14.589 Y-258.939 
G1 X14.150 Y-258.500 
G1 X14.150 Y-248.000 Z-12.000 F1200.000 
G2 X15.650 Y-246.500 Z-12.000 I1.500 J-0.000 F1200.000 
G1 X47.820 Y-246.500 Z-12.000 F1200.000 
G1 X48.259 Y-246.939 
G1 X47.820 Y-246.500 
G1 X47.820 Y-236.000 Z-12.000 F1200.000 
G2 X49.320 Y-234.500 Z-12.000 I1.500 J-0.000 F1200.000 
G1 X94.990 Y-234.500 Z-12.000 F1200.000 
G2 X96.490 Y-236.000 Z-12.000 I-0.000 J-1.500 F1200.000 
G1 X96.490 Y-246.500 Z-12.000 F1200.000 
G1 X96.051 Y-246.939 
G1 X96.490 Y-246.500 
G1 X139.160 Y-246.500 Z-12.000 F1200.000 
G1 X139.599 Y-246.939 
G1 X139.160 Y-246.500 
G1 X139.160 Y-236.000 Z-12.000 F1200.000 
G2 X140.660 Y-234.500 Z-12.000 I1.500 J-0.000 F1200.000 
G1 X186.330 Y-234.500 Z-12.000 F1200.000 
G2 X187.830 Y-236.000 Z-12.000 I-0.000 J-1.500 F1200.000 
G1 X187.830 Y-246.500 Z-12.000 F1200.000 
G1 X187.391 Y-246.939 
G1 X187.830 Y-246.500 
G1 X276.170 Y-246.500 Z-12.000 F1200.000 
G1 X276.609 Y-246.939 
G1 X276.170 Y-246.500 
G1 X276.170 Y-236.000 Z-12.000 F1200.000 
G2 X277.670 Y-234.500 Z-12.000 I1.500 J-0.000 F1200.000 
G1 X323.340 Y-234.500 Z-12.000 F1200.000 
G2 X324.840 Y-236.000 Z-12.000 I-0.000 J-1.500 F1200.000 
G1 X324.840 Y-246.500 Z-12.000 F1200.000 
G1 X324.401 Y-246.939 
G1 X324.840 Y-246.500 
G1 X367.510 Y-246.500 Z-12.000 F1200.000 
G1 X367.949 Y-246.939 
G1 X367.510 Y-246.500 
G1 X367.510 Y-236.000 Z-12.000 F1200.000 
G2 X369.010 Y-234.500 Z-12.000 I1.500 J-0.000 F1200.000 
G1 X414.680 Y-234.500 Z-12.000 F1200.000 
G2 X416.180 Y-236.000 Z-12.000 I-0.000 J-1.500 F1200.000 
G1 X416.180 Y-246.500 Z-12.000 F1200.000 
G1 X415.741 Y-246.939 
G1 X416.180 Y-246.500 
G1 X448.350 Y-246.500 Z-12.000 F1200.000 
G2 X449.411 Y-246.939 Z-12.000 I-0.000 J-1.500 F1200.000 
G0 Z5.000 
G0 Z5.000 
(finish operation: DressupDogbone002)
(begin operation: DressupDogbone003)
(machine units: mm/min)
(Profile003) 
(Compensated Tool Path. Diameter: 3.0) 
G0 Z5.000 
G0 X626.061 Y-31.439 
G0 Z3.000 
G1 X626.061 Y-31.439 Z-3.000 F500.000 
G2 X626.500 Y-32.500 Z-3.000 I-1.061 J-1.061 F1200.000 
G1 X626.500 Y-50.167 Z-3.000 F1200.000 
G2 X625.000 Y-51.667 Z-3.000 I-1.500 J0.000 F1200.000 
G1 X614.500 Y-51.667 Z-3.000 F1200.000 
G1 X614.061 Y-51.227 
G1 X614.500 Y-51.667 
G1 X614.500 Y-66.333 Z-3.000 F1200.000 
G1 X614.061 Y-66.773 
G1 X614.500 Y-66.333 
G1 X625.000 Y-66.333 Z-3.000 F1200.000 
G2 X626.500 Y-67.833 Z-3.000 I-0.000 J-1.500 F1200.000 
G1 X626.500 Y-85.500 Z-3.000 F1200.000 
G2 X625.000 Y-87.000 Z-3.000 I-1.500 J0.000 F1200.000 
G1 X469.000 Y-87.000 Z-3.000 F1200.000 
G2 X467.500 Y-85.500 Z-3.000 I0.000 J1.500 F1200.000 
G1 X467.500 Y-67.833 Z-3.000 F1200.000 
G2 X469.000 Y-66.333 Z-3.000 I1.500 J-0.000 F1200.000 
G1 X479.500 Y-66.333 Z-3.000 F1200.000 
G1 X479.939 Y-66.773 
G1 X479.500 Y-66.333 
G1 X479.500 Y-51.667 Z-3.000 F1200.000 
G1 X479.939 Y-51.227 
G1 X479.500 Y-51.667 
G1 X469.000 Y-51.667 Z-3.000 F1200.000 
G2 X467.500 Y-50.167 Z-3.000 I0.000 J1.500 F1200.000 
G1 X467.500 Y-32.500 Z-3.000 F1200.000 
G2 X469.000 Y-31.000 Z-3.000 I1.500 J-0.000 F1200.000 
G1 X493.000 Y-31.000 Z-3.000 F1200.000 
G2 X494.500 Y-32.500 Z-3.000 I-0.000 J-1.500 F1200.000 
G1 X494.500 Y-43.000 Z-3.000 F1200.000 
G1 X494.061 Y-43.439 
G1 X494.500 Y-43.000 
G1 X503.500 Y-43.000 Z-3.000 F1200.000 
G1 X503.939 Y-43.439 
G1 X503.500 Y-43.000 
G1 X503.500 Y-32.500 Z-3.000 F1200.000 
G2 X505.000 Y-31.000 Z-3.000 I1.500 J-0.000 F1200.000 
G1 X589.000 Y-31.000 Z-3.000 F1200.000 
G2 X590.500 Y-32.500 Z-3.000 I-0.000 J-1.500 F1200.000 
G1 X590.500 Y-43.000 Z-3.000 F1200.000 
G1 X590.061 Y-43.439 
G1 X590.500 Y-43.000 
G1 X599.500 Y-43.000 Z-3.000 F1200.000 
G1 X599.939 Y-43.439 
G1 X599.500 Y-43.000 
G1 X599.500 Y-32.500 Z-3.000 F1200.000 
G2 X601.000 Y-31.000 Z-3.000 I1.500 J-0.000 F1200.000 
G1 X625.000 Y-31.000 Z-3.000 F1200.000 
G2 X626.061 Y-31.439 Z-3.000 I-0.000 J-1.500 F1200.000 
G1 X626.061 Y-31.439 Z-6.000 F500.000 
G2 X626.500 Y-32.500 Z-6.000 I-1.061 J-1.061 F1200.000 
G1 X626.500 Y-50.167 Z-6.000 F1200.000 
G2 X625.000 Y-51.667 Z-6.000 I-1.500 J0.000 F1200.000 
G1 X614.500 Y-51.667 Z-6.000 F1200.000 
G1 X614.061 Y-51.227 
G1 X614.500 Y-51.667 
G1 X614.500 Y-66.333 Z-6.000 F1200.000 
G1 X614.061 Y-66.773 
G1 X614.500 Y-66.333 
G1 X625.000 Y-66.333 Z-6.000 F1200.000 
G2 X626.500 Y-67.833 Z-6.000 I-0.000 J-1.500 F1200.000 
G1 X626.500 Y-85.500 Z-6.000 F1200.000 
G2 X625.000 Y-87.000 Z-6.000 I-1.500 J0.000 F1200.000 
G1 X469.000 Y-87.000 Z-6.000 F1200.000 
G2 X467.500 Y-85.500 Z-6.000 I0.000 J1.500 F1200.000 
G1 X467.500 Y-67.833 Z-6.000 F1200.000 
G2 X469.000 Y-66.333 Z-6.000 I1.500 J-0.000 F1200.000 
G1 X479.500 Y-66.333 Z-6.000 F1200.000 
G1 X479.939 Y-66.773 
G1 X479.500 Y-66.333 
G1 X479.500 Y-51.667 Z-6.000 F1200.000 
G1 X479.939 Y-51.227 
G1 X479.500 Y-51.667 
G1 X469.000 Y-51.667 Z-6.000 F1200.000 
G2 X467.500 Y-50.167 Z-6.000 I0.000 J1.500 F1200.000 
G1 X467.500 Y-32.500 Z-6.000 F1200.000 
G2 X469.000 Y-31.000 Z-6.000 I1.500 J-0.000 F1200.000 
G1 X493.000 Y-31.000 Z-6.000 F1200.000 
G2 X494.500 Y-32.500 Z-6.000 I-0.000 J-1.500 F1200.000 
G1 X494.500 Y-43.000 Z-6.000 F1200.000 
G1 X494.061 Y-43.439 
G1 X494.500 Y-43.000 
G1 X503.500 Y-43.000 Z-6.000 F1200.000 
G1 X503.939 Y-43.439 
G1 X503.500 Y-43.000 
G1 X503.500 Y-32.500 Z-6.000 F1200.000 
G2 X505.000 Y-31.000 Z-6.000 I1.500 J-0.000 F1200.000 
G1 X589.000 Y-31.000 Z-6.000 F1200.000 
G2 X590.500 Y-32.500 Z-6.000 I-0.000 J-1.500 F1200.000 
G1 X590.500 Y-43.000 Z-6.000 F1200.000 
G1 X590.061 Y-43.439 
G1 X590.500 Y-43.000 
G1 X599.500 Y-43.000 Z-6.000 F1200.000 
G1 X599.939 Y-43.439 
G1 X599.500 Y-43.000 
G1 X599.500 Y-32.500 Z-6.000 F1200.000 
G2 X601.000 Y-31.000 Z-6.000 I1.500 J-0.000 F1200.000 
G1 X625.000 Y-31.000 Z-6.000 F1200.000 
G2 X626.061 Y-31.439 Z-6.000 I-0.000 J-1.500 F1200.000 
G1 X626.061 Y-31.439 Z-9.000 F500.000 
G2 X626.500 Y-32.500 Z-9.000 I-1.061 J-1.061 F1200.000 
G1 X626.500 Y-50.167 Z-9.000 F1200.000 
G2 X625.000 Y-51.667 Z-9.000 I-1.500 J0.000 F1200.000 
G1 X614.500 Y-51.667 Z-9.000 F1200.000 
G1 X614.061 Y-51.227 
G1 X614.500 Y-51.667 
G1 X614.500 Y-66.333 Z-9.000 F1200.000 
G1 X614.061 Y-66.773 
G1 X614.500 Y-66.333 
G1 X625.000 Y-66.333 Z-9.000 F1200.000 
G2 X626.500 Y-67.833 Z-9.000 I-0.000 J-1.500 F1200.000 
G1 X626.500 Y-85.500 Z-9.000 F1200.000 
G2 X625.000 Y-87.000 Z-9.000 I-1.500 J0.000 F1200.000 
G1 X469.000 Y-87.000 Z-9.000 F1200.000 
G2 X467.500 Y-85.500 Z-9.000 I0.000 J1.500 F1200.000 
G1 X467.500 Y-67.833 Z-9.000 F1200.000 
G2 X469.000 Y-66.333 Z-9.000 I1.500 J-0.000 F1200.000 
G1 X479.500 Y-66.333 Z-9.000 F1200.000 
G1 X479.939 Y-66.773 
G1 X479.500 Y-66.333 
G1 X479.500 Y-51.667 Z-9.000 F1200.000 
G1 X479.939 Y-51.227 
G1 X479.500 Y-51.667 
G1 X469.000 Y-51.667 Z-9.000 F1200.000 
G2 X467.500 Y-50.167 Z-9.000 I0.000 J1.500 F1200.000 
G1 X467.500 Y-32.500 Z-9.000 F1200.000 
G2 X469.000 Y-31.000 Z-9.000 I1.500 J-0.000 F1200.000 
G1 X493.000 Y-31.000 Z-9.000 F1200.000 
G2 X494.500 Y-32.500 Z-9.000 I-0.000 J-1.500 F1200.000 
G1 X494.500 Y-43.000 Z-9.000 F1200.000 
G1 X494.061 Y-43.439 
G1 X494.500 Y-43.000 
G1 X503.500 Y-43.000 Z-9.000 F1200.000 
G1 X503.939 Y-43.439 
G1 X503.500 Y-43.000 
G1 X503.500 Y-32.500 Z-9.000 F1200.000 
G2 X505.000 Y-31.000 Z-9.000 I1.500 J-0.000 F1200.000 
G1 X589.000 Y-31.000 Z-9.000 F1200.000 
G2 X590.500 Y-32.500 Z-9.000 I-0.000 J-1.500 F1200.000 
G1 X590.500 Y-43.000 Z-9.000 F1200.000 
G1 X590.061 Y-43.439 
G1 X590.500 Y-43.000 
G1 X599.500 Y-43.000 Z-9.000 F1200.000 
G1 X599.939 Y-43.439 
G1 X599.500 Y-43.000 
G1 X599.500 Y-32.500 Z-9.000 F1200.000 
G2 X601.000 Y-31.000 Z-9.000 I1.500 J-0.000 F1200.000 
G1 X625.000 Y-31.000 Z-9.000 F1200.000 
G2 X626.061 Y-31.439 Z-9.000 I-0.000 J-1.500 F1200.000 
G1 X626.061 Y-31.439 Z-12.000 F500.000 
G2 X626.500 Y-32.500 Z-12.000 I-1.061 J-1.061 F1200.000 
G1 X626.500 Y-50.167 Z-12.000 F1200.000 
G2 X625.000 Y-51.667 Z-12.000 I-1.500 J0.000 F1200.000 
G1 X614.500 Y-51.667 Z-12.000 F1200.000 
G1 X614.061 Y-51.227 
G1 X614.500 Y-51.667 
G1 X614.500 Y-66.333 Z-12.000 F1200.000 
G1 X614.061 Y-66.773 
G1 X614.500 Y-66.333 
G1 X625.000 Y-66.333 Z-12.000 F1200.000 
G2 X626.500 Y-67.833 Z-12.000 I-0.000 J-1.500 F1200.000 
G1 X626.500 Y-85.500 Z-12.000 F1200.000 
G2 X625.000 Y-87.000 Z-12.000 I-1.500 J0.000 F1200.000 
G1 X469.000 Y-87.000 Z-12.000 F1200.000 
G2 X467.500 Y-85.500 Z-12.000 I0.000 J1.500 F1200.000 
G1 X467.500 Y-67.833 Z-12.000 F1200.000 
G2 X469.000 Y-66.333 Z-12.000 I1.500 J-0.000 F1200.000 
G1 X479.500 Y-66.333 Z-12.000 F1200.000 
G1 X479.939 Y-66.773 
G1 X479.500 Y-66.333 
G1 X479.500 Y-51.667 Z-12.000 F1200.000 
G1 X479.939 Y-51.227 
G1 X479.500 Y-51.667 
G1 X469.000 Y-51.667 Z-12.000 F1200.000 
G2 X467.500 Y-50.167 Z-12.000 I0.000 J1.500 F1200.000 
G1 X467.500 Y-32.500 Z-12.000 F1200.000 
G2 X469.000 Y-31.000 Z-12.000 I1.500 J-0.000 F1200.000 
G1 X493.000 Y-31.000 Z-12.000 F1200.000 
G2 X494.500 Y-32.500 Z-12.000 I-0.000 J-1.500 F1200.000 
G1 X494.500 Y-43.000 Z-12.000 F1200.000 
G1 X494.061 Y-43.439 
G1 X494.500 Y-43.000 
G1 X503.500 Y-43.000 Z-12.000 F1200.000 
G1 X503.939 Y-43.439 
G1 X503.500 Y-43.000 
G1 X503.500 Y-32.500 Z-12.000 F1200.000 
G2 X505.000 Y-31.000 Z-12.000 I1.500 J-0.000 F1200.000 
G1 X589.000 Y-31.000 Z-12.000 F1200.000 
G2 X590.500 Y-32.500 Z-12.000 I-0.000 J-1.500 F1200.000 
G1 X590.500 Y-43.000 Z-12.000 F1200.000 
G1 X590.061 Y-43.439 
G1 X590.500 Y-43.000 
G1 X599.500 Y-43.000 Z-12.000 F1200.000 
G1 X599.939 Y-43.439 
G1 X599.500 Y-43.000 
G1 X599.500 Y-32.500 Z-12.000 F1200.000 
G2 X601.000 Y-31.000 Z-12.000 I1.500 J-0.000 F1200.000 
G1 X625.000 Y-31.000 Z-12.000 F1200.000 
G2 X626.061 Y-31.439 Z-12.000 I-0.000 J-1.500 F1200.000 
G0 Z5.000 
G0 Z5.000 
(finish operation: DressupDogbone003)
(begin operation: DressupDogbone004)
(machine units: mm/min)
(Profile004) 
(Compensated Tool Path. Diameter: 3.0) 
G0 Z5.000 
G0 X626.061 Y-96.439 
G0 Z3.000 
G1 X626.061 Y-96.439 Z-3.000 F500.000 
G2 X626.500 Y-97.500 Z-3.000 I-1.061 J-1.061 F1200.000 
G1 X626.500 Y-115.167 Z-3.000 F1200.000 
G2 X625.000 Y-116.667 Z-3.000 I-1.500 J0.000 F1200.000 
G1 X614.500 Y-116.667 Z-3.000 F1200.000 
G1 X614.061 Y-116.227 
G1 X614.500 Y-116.667 
G1 X614.500 Y-131.333 Z-3.000 F1200.000 
G1 X614.061 Y-131.773 
G1 X614.500 Y-131.333 
G1 X625.000 Y-131.333 Z-3.000 F1200.000 
G2 X626.500 Y-132.833 Z-3.000 I-0.000 J-1.500 F1200.000 
G1 X626.500 Y-150.500 Z-3.000 F1200.000 
G2 X625.000 Y-152.000 Z-3.000 I-1.500 J0.000 F1200.000 
G1 X469.000 Y-152.000 Z-3.000 F1200.000 
G2 X467.500 Y-150.500 Z-3.000 I0.000 J1.500 F1200.000 
G1 X467.500 Y-132.833 Z-3.000 F1200.000 
G2 X469.000 Y-131.333 Z-3.000 I1.500 J-0.000 F1200.000 
G1 X479.500 Y-131.333 Z-3.000 F1200.000 
G1 X479.939 Y-131.773 
G1 X479.500 Y-131.333 
G1 X479.500 Y-116.667 Z-3.000 F1200.000 
G1 X479.939 Y-116.227 
G1 X479.500 Y-116.667 
G1 X469.000 Y-116.667 Z-3.000 F1200.000 
G2 X467.500 Y-115.167 Z-3.000 I0.000 J1.500 F1200.000 
G1 X467.500 Y-97.500 Z-3.000 F1200.000 
G2 X469.000 Y-96.000 Z-3.000 I1.500 J-0.000 F1200.000 
G1 X493.000 Y-96.000 Z-3.000 F1200.000 
G2 X494.500 Y-97.500 Z-3.000 I-0.000 J-1.500 F1200.000 
G1 X494.500 Y-108.000 Z-3.000 F1200.000 
G1 X494.061 Y-108.439 
G1 X494.500 Y-108.000 
G1 X503.500 Y-108.000 Z-3.000 F1200.000 
G1 X503.939 Y-108.439 
G1 X503.500 Y-108.000 
G1 X503.500 Y-97.500 Z-3.000 F1200.000 
G2 X505.000 Y-96.000 Z-3.000 I1.500 J-0.000 F1200.000 
G1 X589.000 Y-96.000 Z-3.000 F1200.000 
G2 X590.500 Y-97.500 Z-3.000 I-0.000 J-1.500 F1200.000 
G1 X590.500 Y-108.000 Z-3.000 F1200.000 
G1 X590.061 Y-108.439 
G1 X590.500 Y-108.000 
G1 X599.500 Y-108.000 Z-3.000 F1200.000 
G1 X599.939 Y-108.439 
G1 X599.500 Y-108.000 
G1 X599.500 Y-97.500 Z-3.000 F1200.000 
G2 X601.000 Y-96.000 Z-3.000 I1.500 J-0.000 F1200.000 
G1 X625.000 Y-96.000 Z-3.000 F1200.000 
G2 X626.061 Y-96.439 Z-3.000 I-0.000 J-1.500 F1200.000 
G1 X626.061 Y-96.439 Z-6.000 F500.000 
G2 X626.500 Y-97.500 Z-6.000 I-1.061 J-1.061 F1200.000 
G1 X626.500 Y-115.167 Z-6.000 F1200.000 
G2 X625.000 Y-116.667 Z-6.000 I-1.500 J0.000 F1200.000 
G1 X614.500 Y-116.667 Z-6.000 F1200.000 
G1 X614.061 Y-116.227 
G1 X614.500 Y-116.667 
G1 X614.500 Y-131.333 Z-6.000 F1200.000 
G1 X614.061 Y-131.773 
G1 X614.500 Y-131.333 
G1 X625.000 Y-131.333 Z-6.000 F1200.000 
G2 X626.500 Y-132.833 Z-6.000 I-0.000 J-1.500 F1200.000 
G1 X626.500 Y-150.500 Z-6.000 F1200.000 
G2 X625.000 Y-152.000 Z-6.000 I-1.500 J0.000 F1200.000 
G1 X469.000 Y-152.000 Z-6.000 F1200.000 
G2 X467.500 Y-150.500 Z-6.000 I0.000 J1.500 F1200.000 
G1 X467.500 Y-132.833 Z-6.000 F1200.000 
G2 X469.000 Y-131.333 Z-6.000 I1.500 J-0.000 F1200.000 
G1 X479.500 Y-131.333 Z-6.000 F1200.000 
G1 X479.939 Y-131.773 
G1 X479.500 Y-131.333 
G1 X479.500 Y-116.667 Z-6.000 F1200.000 
G1 X479.939 Y-116.227 
G1 X479.500 Y-116.667 
G1 X469.000 Y-116.667 Z-6.000 F1200.000 
G2 X467.500 Y-115.167 Z-6.000 I0.000 J1.500 F1200.000 
G1 X467.500 Y-97.500 Z-6.000 F1200.000 
G2 X469.000 Y-96.000 Z-6.000 I1.500 J-0.000 F1200.000 
G1 X493.000 Y-96.000 Z-6.000 F1200.000 
G2 X494.500 Y-97.500 Z-6.000 I-0.000 J-1.500 F1200.000 
G1 X494.500 Y-108.000 Z-6.000 F1200.000 
G1 X494.061 Y-108.439 
G1 X494.500 Y-108.000 
G1 X503.500 Y-108.000 Z-6.000 F1200.000 
G1 X503.939 Y-108.439 
G1 X503.500 Y-108.000 
G1 X503.500 Y-97.500 Z-6.000 F1200.000 
G2 X505.000 Y-96.000 Z-6.000 I1.500 J-0.000 F1200.000 
G1 X589.000 Y-96.000 Z-6.000 F1200.000 
G2 X590.500 Y-97.500 Z-6.000 I-0.000 J-1.500 F1200.000 
G1 X590.500 Y-108.000 Z-6.000 F1200.000 
G1 X590.061 Y-108.439 
G1 X590.500 Y-108.000 
G1 X599.500 Y-108.000 Z-6.000 F1200.000 
G1 X599.939 Y-108.439 
G1 X599.500 Y-108.000 
G1 X599.500 Y-97.500 Z-6.000 F1200.000 
G2 X601.000 Y-96.000 Z-6.000 I1.500 J-0.000 F1200.000 
G1 X625.000 Y-96.000 Z-6.000 F1200.000 
G2 X626.061 Y-96.439 Z-6.000 I-0.000 J-1.500 F1200.000 
G1 X626.061 Y-96.439 Z-9.000 F500.000 
G2 X626.500 Y-97.500 Z-9.000 I-1.061 J-1.061 F1200.000 
G1 X626.500 Y-115.167 Z-9.000 F1200.000 
G2 X625.000 Y-116.667 Z-9.000 I-1.500 J0.000 F1200.000 
G1 X614.500 Y-116.667 Z-9.000 F1200.000 
G1 X614.061 Y-116.227 
G1 X614.500 Y-116.667 
G1 X614.500 Y-131.333 Z-9.000 F1200.000 
G1 X614.061 Y-131.773 
G1 X614.500 Y-131.333 
G1 X625.000 Y-131.333 Z-9.000 F1200.000 
G2 X626.500 Y-132.833 Z-9.000 I-0.000 J-1.500 F1200.000 
G1 X626.500 Y-150.500 Z-9.000 F1200.000 
G2 X625.000 Y-152.000 Z-9.000 I-1.500 J0.000 F1200.000 
G1 X469.000 Y-152.000 Z-9.000 F1200.000 
G2 X467.500 Y-150.500 Z-9.000 I0.000 J1.500 F1200.000 
G1 X467.500 Y-132.833 Z-9.000 F1200.000 
G2 X469.000 Y-131.333 Z-9.000 I1.500 J-0.000 F1200.000 
G1 X479.500 Y-131.333 Z-9.000 F1200.000 
G1 X479.939 Y-131.773 
G1 X479.500 Y-131.333 
G1 X479.500 Y-116.667 Z-9.000 F1200.000 
G1 X479.939 Y-116.227 
G1 X479.500 Y-116.667 
G1 X469.000 Y-116.667 Z-9.000 F1200.000 
G2 X467.500 Y-115.167 Z-9.000 I0.000 J1.500 F1200.000 
G1 X467.500 Y-97.500 Z-9.000 F1200.000 
G2 X469.000 Y-96.000 Z-9.000 I1.500 J-0.000 F1200.000 
G1 X493.000 Y-96.000 Z-9.000 F1200.000 
G2 X494.500 Y-97.500 Z-9.000 I-0.000 J-1.500 F1200.000 
G1 X494.500 Y-108.000 Z-9.000 F1200.000 
G1 X494.061 Y-108.439 
G1 X494.500 Y-108.000 
G1 X503.500 Y-108.000 Z-9.000 F1200.000 
G1 X503.939 Y-108.439 
G1 X503.500 Y-108.000 
G1 X503.500 Y-97.500 Z-9.000 F1200.000 
G2 X505.000 Y-96.000 Z-9.000 I1.500 J-0.000 F1200.000 
G1 X589.000 Y-96.000 Z-9.000 F1200.000 
G2 X590.500 Y-97.500 Z-9.000 I-0.000 J-1.500 F1200.000 
G1 X590.500 Y-108.000 Z-9.000 F1200.000 
G1 X590.061 Y-108.439 
G1 X590.500 Y-108.000 
G1 X599.500 Y-108.000 Z-9.000 F1200.000 
G1 X599.939 Y-108.439 
G1 X599.500 Y-108.000 
G1 X599.500 Y-97.500 Z-9.000 F1200.000 
G2 X601.000 Y-96.000 Z-9.000 I1.500 J-0.000 F1200.000 
G1 X625.000 Y-96.000 Z-9.000 F1200.000 
G2 X626.061 Y-96.439 Z-9.000 I-0.000 J-1.500 F1200.000 
G1 X626.061 Y-96.439 Z-12.000 F500.000 
G2 X626.500 Y-97.500 Z-12.000 I-1.061 J-1.061 F1200.000 
G1 X626.500 Y-115.167 Z-12.000 F1200.000 
G2 X625.000 Y-116.667 Z-12.000 I-1.500 J0.000 F1200.000 
G1 X614.500 Y-116.667 Z-12.000 F1200.000 
G1 X614.061 Y-116.227 
G1 X614.500 Y-116.667 
G1 X614.500 Y-131.333 Z-12.000 F1200.000 
G1 X614.061 Y-131.773 
G1 X614.500 Y-131.333 
G1 X625.000 Y-131.333 Z-12.000 F1200.000 
G2 X626.500 Y-132.833 Z-12.000 I-0.000 J-1.500 F1200.000 
G1 X626.500 Y-150.500 Z-12.000 F1200.000 
G2 X625.000 Y-152.000 Z-12.000 I-1.500 J0.000 F1200.000 
G1 X469.000 Y-152.000 Z-12.000 F1200.000 
G2 X467.500 Y-150.500 Z-12.000 I0.000 J1.500 F1200.000 
G1 X467.500 Y-132.833 Z-12.000 F1200.000 
G2 X469.000 Y-131.333 Z-12.000 I1.500 J-0.000 F1200.000 
G1 X479.500 Y-131.333 Z-12.000 F1200.000 
G1 X479.939 Y-131.773 
G1 X479.500 Y-131.333 
G1 X479.500 Y-116.667 Z-12.000 F1200.000 
G1 X479.939 Y-116.227 
G1 X479.500 Y-116.667 
G1 X469.000 Y-116.667 Z-12.000 F1200.000 
G2 X467.500 Y-115.167 Z-12.000 I0.000 J1.500 F1200.000 
G1 X467.500 Y-97.500 Z-12.000 F1200.000 
G2 X469.000 Y-96.000 Z-12.000 I1.500 J-0.000 F1200.000 
G1 X493.000 Y-96.000 Z-12.000 F1200.000 
G2 X494.500 Y-97.500 Z-12.000 I-0.000 J-1.500 F1200.000 
G1 X494.500 Y-108.000 Z-12.000 F1200.000 
G1 X494.061 Y-108.439 
G1 X494.500 Y-108.000 
G1 X503.500 Y-108.000 Z-12.000 F1200.000 
G1 X503.939 Y-108.439 
G1 X503.500 Y-108.000 
G1 X503.500 Y-97.500 Z-12.000 F1200.000 
G2 X505.000 Y-96.000 Z-12.000 I1.500 J-0.000 F1200.000 
G1 X589.000 Y-96.000 Z-12.000 F1200.000 
G2 X590.500 Y-97.500 Z-12.000 I-0.000 J-1.500 F1200.000 
G1 X590.500 Y-108.000 Z-12.000 F1200.000 
G1 X590.061 Y-108.439 
G1 X590.500 Y-108.000 
G1 X599.500 Y-108.000 Z-12.000 F1200.000 
G1 X599.939 Y-108.439 
G1 X599.500 Y-108.000 
G1 X599.500 Y-97.500 Z-12.000 F1200.000 
G2 X601.000 Y-96.000 Z-12.000 I1.500 J-0.000 F1200.000 
G1 X625.000 Y-96.000 Z-12.000 F1200.000 
G2 X626.061 Y-96.439 Z-12.000 I-0.000 J-1.500 F1200.000 
G0 Z5.000 
G0 Z5.000 
(finish operation: DressupDogbone004)
(begin operation: Power_Pocket_Left)
(machine units: mm/min)
(Power_Pocket_Left) 
G0 Z5.000 
G0 
G0 X555.100 Y-244.500 
G0 X555.100 Y-244.500 Z3.000 
G1 X555.100 Y-244.500 Z-3.000 F500.000 
G1 X555.100 Y-244.300 Z-3.000 F1200.000 
G1 X534.900 Y-244.300 Z-3.000 F1200.000 
G1 X534.900 Y-244.500 Z-3.000 F1200.000 
G1 X555.100 Y-244.500 Z-3.000 F1200.000 
G0 Z5.000 
G0 X558.100 Y-247.500 Z5.000 
G0 X558.100 Y-247.500 Z3.000 
G1 X558.100 Y-247.500 Z-3.000 F500.000 
G1 X558.100 Y-241.300 Z-3.000 F1200.000 
G1 X531.900 Y-241.300 Z-3.000 F1200.000 
G1 X531.900 Y-247.500 Z-3.000 F1200.000 
G1 X558.100 Y-247.500 Z-3.000 F1200.000 
G0 Z5.000 
G0 X561.100 Y-250.500 Z5.000 
G0 X561.100 Y-250.500 Z3.000 
G1 X561.100 Y-250.500 Z-3.000 F500.000 
G1 X561.100 Y-238.300 Z-3.000 F1200.000 
G1 X528.900 Y-238.300 Z-3.000 F1200.000 
G1 X528.900 Y-250.500 Z-3.000 F1200.000 
G1 X561.100 Y-250.500 Z-3.000 F1200.000 
G0 Z5.000 
G0 X564.100 Y-253.500 Z5.000 
G0 X564.100 Y-253.500 Z3.000 
G1 X564.100 Y-253.500 Z-3.000 F500.000 
G1 X564.100 Y-235.300 Z-3.000 F1200.000 
G1 X525.900 Y-235.300 Z-3.000 F1200.000 
G1 X525.900 Y-253.500 Z-3.000 F1200.000 
G1 X564.100 Y-253.500 Z-3.000 F1200.000 
G0 Z5.000 
G0 X567.100 Y-256.500 Z5.000 
G0 X567.100 Y-256.500 Z3.000 
G1 X567.100 Y-256.500 Z-3.000 F500.000 
G1 X567.100 Y-232.300 Z-3.000 F1200.000 
G1 X522.900 Y-232.300 Z-3.000 F1200.000 
G1 X522.900 Y-256.500 Z-3.000 F1200.000 
G1 X567.100 Y-256.500 Z-3.000 F1200.000 
G0 Z5.000 
G0 X555.100 Y-244.500 Z5.000 
G0 X555.100 Y-244.500 Z3.000 
G1 X555.100 Y-244.500 Z-6.000 F500.000 
G1 X555.100 Y-244.300 Z-6.000 F1200.000 
G1 X534.900 Y-244.300 Z-6.000 F1200.000 
G1 X534.900 Y-244.500 Z-6.000 F1200.000 
G1 X555.100 Y-244.500 Z-6.000 F1200.000 
G0 Z5.000 
G0 X558.100 Y-247.500 Z5.000 
G0 X558.100 Y-247.500 Z3.000 
G1 X558.100 Y-247.500 Z-6.000 F500.000 
G1 X558.100 Y-241.300 Z-6.000 F1200.000 
G1 X531.900 Y-241.300 Z-6.000 F1200.000 
G1 X531.900 Y-247.500 Z-6.000 F1200.000 
G1 X558.100 Y-247.500 Z-6.000 F1200.000 
G0 Z5.000 
G0 X561.100 Y-250.500 Z5.000 
G0 X561.100 Y-250.500 Z3.000 
G1 X561.100 Y-250.500 Z-6.000 F500.000 
G1 X561.100 Y-238.300 Z-6.000 F1200.000 
G1 X528.900 Y-238.300 Z-6.000 F1200.000 
G1 X528.900 Y-250.500 Z-6.000 F1200.000 
G1 X561.100 Y-250.500 Z-6.000 F1200.000 
G0 Z5.000 
G0 X564.100 Y-253.500 Z5.000 
G0 X564.100 Y-253.500 Z3.000 
G1 X564.100 Y-253.500 Z-6.000 F500.000 
G1 X564.100 Y-235.300 Z-6.000 F1200.000 
G1 X525.900 Y-235.300 Z-6.000 F1200.000 
G1 X525.900 Y-253.500 Z-6.000 F1200.000 
G1 X564.100 Y-253.500 Z-6.000 F1200.000 
G0 Z5.000 
G0 X567.100 Y-256.500 Z5.000 
G0 X567.100 Y-256.500 Z3.000 
G1 X567.100 Y-256.500 Z-6.000 F500.000 
G1 X567.100 Y-232.300 Z-6.000 F1200.000 
G1 X522.900 Y-232.300 Z-6.000 F1200.000 
G1 X522.900 Y-256.500 Z-6.000 F1200.000 
G1 X567.100 Y-256.500 Z-6.000 F1200.000 
G0 Z5.000 
G0 X555.100 Y-244.500 Z5.000 
G0 X555.100 Y-244.500 Z3.000 
G1 X555.100 Y-244.500 Z-9.000 F500.000 
G1 X555.100 Y-244.300 Z-9.000 F1200.000 
G1 X534.900 Y-244.300 Z-9.000 F1200.000 
G1 X534.900 Y-244.500 Z-9.000 F1200.000 
G1 X555.100 Y-244.500 Z-9.000 F1200.000 
G0 Z5.000 
G0 X558.100 Y-247.500 Z5.000 
G0 X558.100 Y-247.500 Z3.000 
G1 X558.100 Y-247.500 Z-9.000 F500.000 
G1 X558.100 Y-241.300 Z-9.000 F1200.000 
G1 X531.900 Y-241.300 Z-9.000 F1200.000 
G1 X531.900 Y-247.500 Z-9.000 F1200.000 
G1 X558.100 Y-247.500 Z-9.000 F1200.000 
G0 Z5.000 
G0 X561.100 Y-250.500 Z5.000 
G0 X561.100 Y-250.500 Z3.000 
G1 X561.100 Y-250.500 Z-9.000 F500.000 
G1 X561.100 Y-238.300 Z-9.000 F1200.000 
G1 X528.900 Y-238.300 Z-9.000 F1200.000 
G1 X528.900 Y-250.500 Z-9.000 F1200.000 
G1 X561.100 Y-250.500 Z-9.000 F1200.000 
G0 Z5.000 
G0 X564.100 Y-253.500 Z5.000 
G0 X564.100 Y-253.500 Z3.000 
G1 X564.100 Y-253.500 Z-9.000 F500.000 
G1 X564.100 Y-235.300 Z-9.000 F1200.000 
G1 X525.900 Y-235.300 Z-9.000 F1200.000 
G1 X525.900 Y-253.500 Z-9.000 F1200.000 
G1 X564.100 Y-253.500 Z-9.000 F1200.000 
G0 Z5.000 
G0 X567.100 Y-256.500 Z5.000 
G0 X567.100 Y-256.500 Z3.000 
G1 X567.100 Y-256.500 Z-9.000 F500.000 
G1 X567.100 Y-232.300 Z-9.000 F1200.000 
G1 X522.900 Y-232.300 Z-9.000 F1200.000 
G1 X522.900 Y-256.500 Z-9.000 F1200.000 
G1 X567.100 Y-256.500 Z-9.000 F1200.000 
G0 Z5.000 
G0 X555.100 Y-244.500 Z5.000 
G0 X555.100 Y-244.500 Z3.000 
G1 X555.100 Y-244.500 Z-12.000 F500.000 
G1 X555.100 Y-244.300 Z-12.000 F1200.000 
G1 X534.900 Y-244.300 Z-12.000 F1200.000 
G1 X534.900 Y-244.500 Z-12.000 F1200.000 
G1 X555.100 Y-244.500 Z-12.000 F1200.000 
G0 Z5.000 
G0 X558.100 Y-247.500 Z5.000 
G0 X558.100 Y-247.500 Z3.000 
G1 X558.100 Y-247.500 Z-12.000 F500.000 
G1 X558.100 Y-241.300 Z-12.000 F1200.000 
G1 X531.900 Y-241.300 Z-12.000 F1200.000 
G1 X531.900 Y-247.500 Z-12.000 F1200.000 
G1 X558.100 Y-247.500 Z-12.000 F1200.000 
G0 Z5.000 
G0 X561.100 Y-250.500 Z5.000 
G0 X561.100 Y-250.500 Z3.000 
G1 X561.100 Y-250.500 Z-12.000 F500.000 
G1 X561.100 Y-238.300 Z-12.000 F1200.000 
G1 X528.900 Y-238.300 Z-12.000 F1200.000 
G1 X528.900 Y-250.500 Z-12.000 F1200.000 
G1 X561.100 Y-250.500 Z-12.000 F1200.000 
G0 Z5.000 
G0 X564.100 Y-253.500 Z5.000 
G0 X564.100 Y-253.500 Z3.000 
G1 X564.100 Y-253.500 Z-12.000 F500.000 
G1 X564.100 Y-235.300 Z-12.000 F1200.000 
G1 X525.900 Y-235.300 Z-12.000 F1200.000 
G1 X525.900 Y-253.500 Z-12.000 F1200.000 
G1 X564.100 Y-253.500 Z-12.000 F1200.000 
G0 Z5.000 
G0 X567.100 Y-256.500 Z5.000 
G0 X567.100 Y-256.500 Z3.000 
G1 X567.100 Y-256.500 Z-12.000 F500.000 
G1 X567.100 Y-232.300 Z-12.000 F1200.000 
G1 X522.900 Y-232.300 Z-12.000 F1200.000 
G1 X522.900 Y-256.500 Z-12.000 F1200.000 
G1 X567.100 Y-256.500 Z-12.000 F1200.000 
G0 Z5.000 
G0 Z5.000 
(finish operation: Power_Pocket_Left)
(begin operation: ConnectorHoles_Pocket_Left)
(machine units: mm/min)
(ConnectorHoles_Pocket_Left) 
G0 Z5.000 
G0 
G0 X505.957 Y-214.866 
G0 X505.957 Y-214.866 Z3.000 
G1 X505.957 Y-214.866 Z-3.000 F500.000 
G3 X506.043 Y-215.134 Z-3.000 I0.043 J-0.134 F1200.000 
G3 X505.957 Y-214.866 Z-3.000 I-0.043 J0.134 F1200.000 
G0 Z5.000 
G0 X505.724 Y-214.151 Z5.000 
G0 X505.724 Y-214.151 Z3.000 
G1 X505.724 Y-214.151 Z-3.000 F500.000 
G3 X506.276 Y-215.849 Z-3.000 I0.276 J-0.849 F1200.000 
G3 X506.849 Y-214.724 Z-3.000 I-0.276 J0.849 F1200.000 
G3 X505.724 Y-214.151 Z-3.000 I-0.849 J-0.276 F1200.000 
G0 Z5.000 
G0 X505.492 Y-213.435 Z5.000 
G0 X505.492 Y-213.435 Z3.000 
G1 X505.492 Y-213.435 Z-3.000 F500.000 
G3 X506.508 Y-216.565 Z-3.000 I0.508 J-1.565 F1200.000 
G3 X505.492 Y-213.435 Z-3.000 I-0.508 J1.565 F1200.000 
G0 Z5.000 
G0 X505.957 Y-214.866 Z5.000 
G0 X505.957 Y-214.866 Z3.000 
G1 X505.957 Y-214.866 Z-6.000 F500.000 
G3 X506.043 Y-215.134 Z-6.000 I0.043 J-0.134 F1200.000 
G3 X505.957 Y-214.866 Z-6.000 I-0.043 J0.134 F1200.000 
G0 Z5.000 
G0 X505.724 Y-214.151 Z5.000 
G0 X505.724 Y-214.151 Z3.000 
G1 X505.724 Y-214.151 Z-6.000 F500.000 
G3 X506.276 Y-215.849 Z-6.000 I0.276 J-0.849 F1200.000 
G3 X506.849 Y-214.724 Z-6.000 I-0.276 J0.849 F1200.000 
G3 X505.724 Y-214.151 Z-6.000 I-0.849 J-0.276 F1200.000 
G0 Z5.000 
G0 X505.492 Y-213.435 Z5.000 
G0 X505.492 Y-213.435 Z3.000 
G1 X505.492 Y-213.435 Z-6.000 F500.000 
G3 X506.508 Y-216.565 Z-6.000 I0.508 J-1.565 F1200.000 
G3 X505.492 Y-213.435 Z-6.000 I-0.508 J1.565 F1200.000 
G0 Z5.000 
G0 X505.957 Y-214.866 Z5.000 
G0 X505.957 Y-214.866 Z3.000 
G1 X505.957 Y-214.866 Z-9.000 F500.000 
G3 X506.043 Y-215.134 Z-9.000 I0.043 J-0.134 F1200.000 
G3 X505.957 Y-214.866 Z-9.000 I-0.043 J0.134 F1200.000 
G0 Z5.000 
G0 X505.724 Y-214.151 Z5.000 
G0 X505.724 Y-214.151 Z3.000 
G1 X505.724 Y-214.151 Z-9.000 F500.000 
G3 X506.276 Y-215.849 Z-9.000 I0.276 J-0.849 F1200.000 
G3 X506.849 Y-214.724 Z-9.000 I-0.276 J0.849 F1200.000 
G3 X505.724 Y-214.151 Z-9.000 I-0.849 J-0.276 F1200.000 
G0 Z5.000 
G0 X505.492 Y-213.435 Z5.000 
G0 X505.492 Y-213.435 Z3.000 
G1 X505.492 Y-213.435 Z-9.000 F500.000 
G3 X506.508 Y-216.565 Z-9.000 I0.508 J-1.565 F1200.000 
G3 X505.492 Y-213.435 Z-9.000 I-0.508 J1.565 F1200.000 
G0 Z5.000 
G0 X505.957 Y-214.866 Z5.000 
G0 X505.957 Y-214.866 Z3.000 
G1 X505.957 Y-214.866 Z-12.000 F500.000 
G3 X506.043 Y-215.134 Z-12.000 I0.043 J-0.134 F1200.000 
G3 X505.957 Y-214.866 Z-12.000 I-0.043 J0.134 F1200.000 
G0 Z5.000 
G0 X505.724 Y-214.151 Z5.000 
G0 X505.724 Y-214.151 Z3.000 
G1 X505.724 Y-214.151 Z-12.000 F500.000 
G3 X506.276 Y-215.849 Z-12.000 I0.276 J-0.849 F1200.000 
G3 X506.849 Y-214.724 Z-12.000 I-0.276 J0.849 F1200.000 
G3 X505.724 Y-214.151 Z-12.000 I-0.849 J-0.276 F1200.000 
G0 Z5.000 
G0 X505.492 Y-213.435 Z5.000 
G0 X505.492 Y-213.435 Z3.000 
G1 X505.492 Y-213.435 Z-12.000 F500.000 
G3 X506.508 Y-216.565 Z-12.000 I0.508 J-1.565 F1200.000 
G3 X505.492 Y-213.435 Z-12.000 I-0.508 J1.565 F1200.000 
G0 Z5.000 
G0 Z5.000 
G0 X0.000 Y0.000 
G0 X583.957 Y-214.866 
G0 X583.957 Y-214.866 Z3.000 
G1 X583.957 Y-214.866 Z-3.000 F500.000 
G3 X584.043 Y-215.134 Z-3.000 I0.043 J-0.134 F1200.000 
G3 X583.957 Y-214.866 Z-3.000 I-0.043 J0.134 F1200.000 
G0 Z5.000 
G0 X583.724 Y-214.151 Z5.000 
G0 X583.724 Y-214.151 Z3.000 
G1 X583.724 Y-214.151 Z-3.000 F500.000 
G3 X584.276 Y-215.849 Z-3.000 I0.276 J-0.849 F1200.000 
G3 X584.849 Y-214.724 Z-3.000 I-0.276 J0.849 F1200.000 
G3 X583.724 Y-214.151 Z-3.000 I-0.849 J-0.276 F1200.000 
G0 Z5.000 
G0 X583.492 Y-213.435 Z5.000 
G0 X583.492 Y-213.435 Z3.000 
G1 X583.492 Y-213.435 Z-3.000 F500.000 
G3 X584.508 Y-216.565 Z-3.000 I0.508 J-1.565 F1200.000 
G3 X583.492 Y-213.435 Z-3.000 I-0.508 J1.565 F1200.000 
G0 Z5.000 
G0 X583.957 Y-214.866 Z5.000 
G0 X583.957 Y-214.866 Z3.000 
G1 X583.957 Y-214.866 Z-6.000 F500.000 
G3 X584.043 Y-215.134 Z-6.000 I0.043 J-0.134 F1200.000 
G3 X583.957 Y-214.866 Z-6.000 I-0.043 J0.134 F1200.000 
G0 Z5.000 
G0 X583.724 Y-214.151 Z5.000 
G0 X583.724 Y-214.151 Z3.000 
G1 X583.724 Y-214.151 Z-6.000 F500.000 
G3 X584.276 Y-215.849 Z-6.000 I0.276 J-0.849 F1200.000 
G3 X584.849 Y-214.724 Z-6.000 I-0.276 J0.849 F1200.000 
G3 X583.724 Y-214.151 Z-6.000 I-0.849 J-0.276 F1200.000 
G0 Z5.000 
G0 X583.492 Y-213.435 Z5.000 
G0 X583.492 Y-213.435 Z3.000 
G1 X583.492 Y-213.435 Z-6.000 F500.000 
G3 X584.508 Y-216.565 Z-6.000 I0.508 J-1.565 F1200.000 
G3 X583.492 Y-213.435 Z-6.000 I-0.508 J1.565 F1200.000 
G0 Z5.000 
G0 X583.957 Y-214.866 Z5.000 
G0 X583.957 Y-214.866 Z3.000 
G1 X583.957 Y-214.866 Z-9.000 F500.000 
G3 X584.043 Y-215.134 Z-9.000 I0.043 J-0.134 F1200.000 
G3 X583.957 Y-214.866 Z-9.000 I-0.043 J0.134 F1200.000 
G0 Z5.000 
G0 X583.724 Y-214.151 Z5.000 
G0 X583.724 Y-214.151 Z3.000 
G1 X583.724 Y-214.151 Z-9.000 F500.000 
G3 X584.276 Y-215.849 Z-9.000 I0.276 J-0.849 F1200.000 
G3 X584.849 Y-214.724 Z-9.000 I-0.276 J0.849 F1200.000 
G3 X583.724 Y-214.151 Z-9.000 I-0.849 J-0.276 F1200.000 
G0 Z5.000 
G0 X583.492 Y-213.435 Z5.000 
G0 X583.492 Y-213.435 Z3.000 
G1 X583.492 Y-213.435 Z-9.000 F500.000 
G3 X584.508 Y-216.565 Z-9.000 I0.508 J-1.565 F1200.000 
G3 X583.492 Y-213.435 Z-9.000 I-0.508 J1.565 F1200.000 
G0 Z5.000 
G0 X583.957 Y-214.866 Z5.000 
G0 X583.957 Y-214.866 Z3.000 
G1 X583.957 Y-214.866 Z-12.000 F500.000 
G3 X584.043 Y-215.134 Z-12.000 I0.043 J-0.134 F1200.000 
G3 X583.957 Y-214.866 Z-12.000 I-0.043 J0.134 F1200.000 
G0 Z5.000 
G0 X583.724 Y-214.151 Z5.000 
G0 X583.724 Y-214.151 Z3.000 
G1 X583.724 Y-214.151 Z-12.000 F500.000 
G3 X584.276 Y-215.849 Z-12.000 I0.276 J-0.849 F1200.000 
G3 X584.849 Y-214.724 Z-12.000 I-0.276 J0.849 F1200.000 
G3 X583.724 Y-214.151 Z-12.000 I-0.849 J-0.276 F1200.000 
G0 Z5.000 
G0 X583.492 Y-213.435 Z5.000 
G0 X583.492 Y-213.435 Z3.000 
G1 X583.492 Y-213.435 Z-12.000 F500.000 
G3 X584.508 Y-216.565 Z-12.000 I0.508 J-1.565 F1200.000 
G3 X583.492 Y-213.435 Z-12.000 I-0.508 J1.565 F1200.000 
G0 Z5.000 
G0 Z5.000 
(finish operation: ConnectorHoles_Pocket_Left)
(begin operation: ConnectorBores_Pocket_Left)
(machine units: mm/min)
(ConnectorBores_Pocket_Left) 
G0 Z5.000 
G0 
G0 X504.497 Y-209.193 
G0 X504.497 Y-209.193 Z3.000 
G1 X504.497 Y-209.193 Z-1.000 F500.000 
G3 X500.193 Y-216.503 Z-1.000 I1.503 J-5.807 F1200.000 
G3 X507.503 Y-220.807 Z-1.000 I5.807 J1.503 F1200.000 
G3 X511.807 Y-213.497 Z-1.000 I-1.503 J5.807 F1200.000 
G3 X504.497 Y-209.193 Z-1.000 I-5.807 J-1.503 F1200.000 
G0 Z5.000 
G0 X506.610 Y-210.393 Z5.000 
G0 X506.610 Y-210.393 Z3.000 
G1 X506.610 Y-210.393 Z-1.000 F500.000 
G3 X505.390 Y-219.607 Z-1.000 I-0.610 J-4.607 F1200.000 
G3 X510.607 Y-215.610 Z-1.000 I0.610 J4.607 F1200.000 
G3 X506.610 Y-210.393 Z-1.000 I-4.607 J0.610 F1200.000 
G0 Z5.000 
G0 Z5.000 
G0 X0.000 Y0.000 
G0 X582.497 Y-209.193 
G0 X582.497 Y-209.193 Z3.000 
G1 X582.497 Y-209.193 Z-1.000 F500.000 
G3 X578.193 Y-216.503 Z-1.000 I1.503 J-5.807 F1200.000 
G3 X585.503 Y-220.807 Z-1.000 I5.807 J1.503 F1200.000 
G3 X589.807 Y-213.497 Z-1.000 I-1.503 J5.807 F1200.000 
G3 X582.497 Y-209.193 Z-1.000 I-5.807 J-1.503 F1200.000 
G0 Z5.000 
G0 X584.610 Y-210.393 Z5.000 
G0 X584.610 Y-210.393 Z3.000 
G1 X584.610 Y-210.393 Z-1.000 F500.000 
G3 X583.390 Y-219.607 Z-1.000 I-0.610 J-4.607 F1200.000 
G3 X588.607 Y-215.610 Z-1.000 I0.610 J4.607 F1200.000 
G3 X584.610 Y-210.393 Z-1.000 I-4.607 J0.610 F1200.000 
G0 Z5.000 
G0 Z5.000 
(finish operation: ConnectorBores_Pocket_Left)
(begin operation: DressupDogbone010)
(machine units: mm/min)
(Profile010) 
(Compensated Tool Path. Diameter: 3.0) 
G0 Z5.000 
G0 X612.491 Y-159.834 
G0 Z3.000 
G1 X612.491 Y-159.834 Z-3.000 F500.000 
G2 X612.500 Y-160.000 Z-3.000 I-1.491 J-0.166 F1200.000 
G1 X612.500 Y-176.833 Z-3.000 F1200.000 
G1 X612.061 Y-177.273 
G1 X612.500 Y-176.833 
G1 X623.000 Y-176.833 Z-3.000 F1200.000 
G2 X624.500 Y-178.333 Z-3.000 I-0.000 J-1.500 F1200.000 
G1 X624.500 Y-196.667 Z-3.000 F1200.000 
G2 X623.000 Y-198.167 Z-3.000 I-1.500 J0.000 F1200.000 
G1 X612.500 Y-198.167 Z-3.000 F1200.000 
G1 X612.061 Y-197.727 
G1 X612.500 Y-198.167 
G1 X612.500 Y-231.833 Z-3.000 F1200.000 
G1 X612.061 Y-232.273 
G1 X612.500 Y-231.833 
G1 X623.000 Y-231.833 Z-3.000 F1200.000 
G2 X624.500 Y-233.333 Z-3.000 I-0.000 J-1.500 F1200.000 
G1 X624.500 Y-251.667 Z-3.000 F1200.000 
G2 X623.000 Y-253.167 Z-3.000 I-1.500 J0.000 F1200.000 
G1 X612.500 Y-253.167 Z-3.000 F1200.000 
G1 X612.061 Y-252.727 
G1 X612.500 Y-253.167 
G1 X612.500 Y-270.000 Z-3.000 F1200.000 
G2 X611.000 Y-271.500 Z-3.000 I-1.500 J0.000 F1200.000 
G1 X599.000 Y-271.500 Z-3.000 F1200.000 
G2 X597.500 Y-270.000 Z-3.000 I0.000 J1.500 F1200.000 
G1 X597.500 Y-259.500 Z-3.000 F1200.000 
G1 X597.939 Y-259.061 
G1 X597.500 Y-259.500 
G1 X588.500 Y-259.500 Z-3.000 F1200.000 
G1 X588.061 Y-259.061 
G1 X588.500 Y-259.500 
G1 X588.500 Y-270.000 Z-3.000 F1200.000 
G2 X587.000 Y-271.500 Z-3.000 I-1.500 J0.000 F1200.000 
G1 X503.000 Y-271.500 Z-3.000 F1200.000 
G2 X501.500 Y-270.000 Z-3.000 I0.000 J1.500 F1200.000 
G1 X501.500 Y-259.500 Z-3.000 F1200.000 
G1 X501.939 Y-259.061 
G1 X501.500 Y-259.500 
G1 X492.500 Y-259.500 Z-3.000 F1200.000 
G1 X492.061 Y-259.061 
G1 X492.500 Y-259.500 
G1 X492.500 Y-270.000 Z-3.000 F1200.000 
G2 X491.000 Y-271.500 Z-3.000 I-1.500 J0.000 F1200.000 
G1 X479.000 Y-271.500 Z-3.000 F1200.000 
G2 X477.500 Y-270.000 Z-3.000 I0.000 J1.500 F1200.000 
G1 X477.500 Y-253.167 Z-3.000 F1200.000 
G1 X477.939 Y-252.727 
G1 X477.500 Y-253.167 
G1 X467.000 Y-253.167 Z-3.000 F1200.000 
G2 X465.500 Y-251.667 Z-3.000 I0.000 J1.500 F1200.000 
G1 X465.500 Y-233.333 Z-3.000 F1200.000 
G2 X467.000 Y-231.833 Z-3.000 I1.500 J-0.000 F1200.000 
G1 X477.500 Y-231.833 Z-3.000 F1200.000 
G1 X477.939 Y-232.273 
G1 X477.500 Y-231.833 
G1 X477.500 Y-198.167 Z-3.000 F1200.000 
G1 X477.939 Y-197.727 
G1 X477.500 Y-198.167 
G1 X467.000 Y-198.167 Z-3.000 F1200.000 
G2 X465.500 Y-196.667 Z-3.000 I0.000 J1.500 F1200.000 
G1 X465.500 Y-178.333 Z-3.000 F1200.000 
G2 X467.000 Y-176.833 Z-3.000 I1.500 J-0.000 F1200.000 
G1 X477.500 Y-176.833 Z-3.000 F1200.000 
G1 X477.939 Y-177.273 
G1 X477.500 Y-176.833 
G1 X477.500 Y-160.000 Z-3.000 F1200.000 
G2 X479.000 Y-158.500 Z-3.000 I1.500 J-0.000 F1200.000 
G1 X611.000 Y-158.500 Z-3.000 F1200.000 
G2 X612.491 Y-159.834 Z-3.000 I-0.000 J-1.500 F1200.000 
G1 X612.491 Y-159.834 Z-6.000 F500.000 
G2 X612.500 Y-160.000 Z-6.000 I-1.491 J-0.166 F1200.000 
G1 X612.500 Y-176.833 Z-6.000 F1200.000 
G1 X612.061 Y-177.273 
G1 X612.500 Y-176.833 
G1 X623.000 Y-176.833 Z-6.000 F1200.000 
G2 X624.500 Y-178.333 Z-6.000 I-0.000 J-1.500 F1200.000 
G1 X624.500 Y-196.667 Z-6.000 F1200.000 
G2 X623.000 Y-198.167 Z-6.000 I-1.500 J0.000 F1200.000 
G1 X612.500 Y-198.167 Z-6.000 F1200.000 
G1 X612.061 Y-197.727 
G1 X612.500 Y-198.167 
G1 X612.500 Y-231.833 Z-6.000 F1200.000 
G1 X612.061 Y-232.273 
G1 X612.500 Y-231.833 
G1 X623.000 Y-231.833 Z-6.000 F1200.000 
G2 X624.500 Y-233.333 Z-6.000 I-0.000 J-1.500 F1200.000 
G1 X624.500 Y-251.667 Z-6.000 F1200.000 
G2 X623.000 Y-253.167 Z-6.000 I-1.500 J0.000 F1200.000 
G1 X612.500 Y-253.167 Z-6.000 F1200.000 
G1 X612.061 Y-252.727 
G1 X612.500 Y-253.167 
G1 X612.500 Y-270.000 Z-6.000 F1200.000 
G2 X611.000 Y-271.500 Z-6.000 I-1.500 J0.000 F1200.000 
G1 X599.000 Y-271.500 Z-6.000 F1200.000 
G2 X597.500 Y-270.000 Z-6.000 I0.000 J1.500 F1200.000 
G1 X597.500 Y-259.500 Z-6.000 F1200.000 
G1 X597.939 Y-259.061 
G1 X597.500 Y-259.500 
G1 X588.500 Y-259.500 Z-6.000 F1200.000 
G1 X588.061 Y-259.061 
G1 X588.500 Y-259.500 
G1 X588.500 Y-270.000 Z-6.000 F1200.000 
G2 X587.000 Y-271.500 Z-6.000 I-1.500 J0.000 F1200.000 
G1 X503.000 Y-271.500 Z-6.000 F1200.000 
G2 X501.500 Y-270.000 Z-6.000 I0.000 J1.500 F1200.000 
G1 X501.500 Y-259.500 Z-6.000 F1200.000 
G1 X501.939 Y-259.061 
G1 X501.500 Y-259.500 
G1 X492.500 Y-259.500 Z-6.000 F1200.000 
G1 X492.061 Y-259.061 
G1 X492.500 Y-259.500 
G1 X492.500 Y-270.000 Z-6.000 F1200.000 
G2 X491.000 Y-271.500 Z-6.000 I-1.500 J0.000 F1200.000 
G1 X479.000 Y-271.500 Z-6.000 F1200.000 
G2 X477.500 Y-270.000 Z-6.000 I0.000 J1.500 F1200.000 
G1 X477.500 Y-253.167 Z-6.000 F1200.000 
G1 X477.939 Y-252.727 
G1 X477.500 Y-253.167 
G1 X467.000 Y-253.167 Z-6.000 F1200.000 
G2 X465.500 Y-251.667 Z-6.000 I0.000 J1.500 F1200.000 
G1 X465.500 Y-233.333 Z-6.000 F1200.000 
G2 X467.000 Y-231.833 Z-6.000 I1.500 J-0.000 F1200.000 
G1 X477.500 Y-231.833 Z-6.000 F1200.000 
G1 X477.939 Y-232.273 
G1 X477.500 Y-231.833 
G1 X477.500 Y-198.167 Z-6.000 F1200.000 
G1 X477.939 Y-197.727 
G1 X477.500 Y-198.167 
G1 X467.000 Y-198.167 Z-6.000 F1200.000 
G2 X465.500 Y-196.667 Z-6.000 I0.000 J1.500 F1200.000 
G1 X465.500 Y-178.333 Z-6.000 F1200.000 
G2 X467.000 Y-176.833 Z-6.000 I1.500 J-0.000 F1200.000 
G1 X477.500 Y-176.833 Z-6.000 F1200.000 
G1 X477.939 Y-177.273 
G1 X477.500 Y-176.833 
G1 X477.500 Y-160.000 Z-6.000 F1200.000 
G2 X479.000 Y-158.500 Z-6.000 I1.500 J-0.000 F1200.000 
G1 X611.000 Y-158.500 Z-6.000 F1200.000 
G2 X612.491 Y-159.834 Z-6.000 I-0.000 J-1.500 F1200.000 
G1 X612.491 Y-159.834 Z-9.000 F500.000 
G2 X612.500 Y-160.000 Z-9.000 I-1.491 J-0.166 F1200.000 
G1 X612.500 Y-176.833 Z-9.000 F1200.000 
G1 X612.061 Y-177.273 
G1 X612.500 Y-176.833 
G1 X623.000 Y-176.833 Z-9.000 F1200.000 
G2 X624.500 Y-178.333 Z-9.000 I-0.000 J-1.500 F1200.000 
G1 X624.500 Y-196.667 Z-9.000 F1200.000 
G2 X623.000 Y-198.167 Z-9.000 I-1.500 J0.000 F1200.000 
G1 X612.500 Y-198.167 Z-9.000 F1200.000 
G1 X612.061 Y-197.727 
G1 X612.500 Y-198.167 
G1 X612.500 Y-231.833 Z-9.000 F1200.000 
G1 X612.061 Y-232.273 
G1 X612.500 Y-231.833 
G1 X623.000 Y-231.833 Z-9.000 F1200.000 
G2 X624.500 Y-233.333 Z-9.000 I-0.000 J-1.500 F1200.000 
G1 X624.500 Y-251.667 Z-9.000 F1200.000 
G2 X623.000 Y-253.167 Z-9.000 I-1.500 J0.000 F1200.000 
G1 X612.500 Y-253.167 Z-9.000 F1200.000 
G1 X612.061 Y-252.727 
G1 X612.500 Y-253.167 
G1 X612.500 Y-270.000 Z-9.000 F1200.000 
G2 X611.000 Y-271.500 Z-9.000 I-1.500 J0.000 F1200.000 
G1 X599.000 Y-271.500 Z-9.000 F1200.000 
G2 X597.500 Y-270.000 Z-9.000 I0.000 J1.500 F1200.000 
G1 X597.500 Y-259.500 Z-9.000 F1200.000 
G1 X597.939 Y-259.061 
G1 X597.500 Y-259.500 
G1 X588.500 Y-259.500 Z-9.000 F1200.000 
G1 X588.061 Y-259.061 
G1 X588.500 Y-259.500 
G1 X588.500 Y-270.000 Z-9.000 F1200.000 
G2 X587.000 Y-271.500 Z-9.000 I-1.500 J0.000 F1200.000 
G1 X503.000 Y-271.500 Z-9.000 F1200.000 
G2 X501.500 Y-270.000 Z-9.000 I0.000 J1.500 F1200.000 
G1 X501.500 Y-259.500 Z-9.000 F1200.000 
G1 X501.939 Y-259.061 
G1 X501.500 Y-259.500 
G1 X492.500 Y-259.500 Z-9.000 F1200.000 
G1 X492.061 Y-259.061 
G1 X492.500 Y-259.500 
G1 X492.500 Y-270.000 Z-9.000 F1200.000 
G2 X491.000 Y-271.500 Z-9.000 I-1.500 J0.000 F1200.000 
G1 X479.000 Y-271.500 Z-9.000 F1200.000 
G2 X477.500 Y-270.000 Z-9.000 I0.000 J1.500 F1200.000 
G1 X477.500 Y-253.167 Z-9.000 F1200.000 
G1 X477.939 Y-252.727 
G1 X477.500 Y-253.167 
G1 X467.000 Y-253.167 Z-9.000 F1200.000 
G2 X465.500 Y-251.667 Z-9.000 I0.000 J1.500 F1200.000 
G1 X465.500 Y-233.333 Z-9.000 F1200.000 
G2 X467.000 Y-231.833 Z-9.000 I1.500 J-0.000 F1200.000 
G1 X477.500 Y-231.833 Z-9.000 F1200.000 
G1 X477.939 Y-232.273 
G1 X477.500 Y-231.833 
G1 X477.500 Y-198.167 Z-9.000 F1200.000 
G1 X477.939 Y-197.727 
G1 X477.500 Y-198.167 
G1 X467.000 Y-198.167 Z-9.000 F1200.000 
G2 X465.500 Y-196.667 Z-9.000 I0.000 J1.500 F1200.000 
G1 X465.500 Y-178.333 Z-9.000 F1200.000 
G2 X467.000 Y-176.833 Z-9.000 I1.500 J-0.000 F1200.000 
G1 X477.500 Y-176.833 Z-9.000 F1200.000 
G1 X477.939 Y-177.273 
G1 X477.500 Y-176.833 
G1 X477.500 Y-160.000 Z-9.000 F1200.000 
G2 X479.000 Y-158.500 Z-9.000 I1.500 J-0.000 F1200.000 
G1 X611.000 Y-158.500 Z-9.000 F1200.000 
G2 X612.491 Y-159.834 Z-9.000 I-0.000 J-1.500 F1200.000 
G1 X612.491 Y-159.834 Z-12.000 F500.000 
G2 X612.500 Y-160.000 Z-12.000 I-1.491 J-0.166 F1200.000 
G1 X612.500 Y-176.833 Z-12.000 F1200.000 
G1 X612.061 Y-177.273 
G1 X612.500 Y-176.833 
G1 X623.000 Y-176.833 Z-12.000 F1200.000 
G2 X624.500 Y-178.333 Z-12.000 I-0.000 J-1.500 F1200.000 
G1 X624.500 Y-196.667 Z-12.000 F1200.000 
G2 X623.000 Y-198.167 Z-12.000 I-1.500 J0.000 F1200.000 
G1 X612.500 Y-198.167 Z-12.000 F1200.000 
G1 X612.061 Y-197.727 
G1 X612.500 Y-198.167 
G1 X612.500 Y-231.833 Z-12.000 F1200.000 
G1 X612.061 Y-232.273 
G1 X612.500 Y-231.833 
G1 X623.000 Y-231.833 Z-12.000 F1200.000 
G2 X624.500 Y-233.333 Z-12.000 I-0.000 J-1.500 F1200.000 
G1 X624.500 Y-251.667 Z-12.000 F1200.000 
G2 X623.000 Y-253.167 Z-12.000 I-1.500 J0.000 F1200.000 
G1 X612.500 Y-253.167 Z-12.000 F1200.000 
G1 X612.061 Y-252.727 
G1 X612.500 Y-253.167 
G1 X612.500 Y-270.000 Z-12.000 F1200.000 
G2 X611.000 Y-271.500 Z-12.000 I-1.500 J0.000 F1200.000 
G1 X599.000 Y-271.500 Z-12.000 F1200.000 
G2 X597.500 Y-270.000 Z-12.000 I0.000 J1.500 F1200.000 
G1 X597.500 Y-259.500 Z-12.000 F1200.000 
G1 X597.939 Y-259.061 
G1 X597.500 Y-259.500 
G1 X588.500 Y-259.500 Z-12.000 F1200.000 
G1 X588.061 Y-259.061 
G1 X588.500 Y-259.500 
G1 X588.500 Y-270.000 Z-12.000 F1200.000 
G2 X587.000 Y-271.500 Z-12.000 I-1.500 J0.000 F1200.000 
G1 X503.000 Y-271.500 Z-12.000 F1200.000 
G2 X501.500 Y-270.000 Z-12.000 I0.000 J1.500 F1200.000 
G1 X501.500 Y-259.500 Z-12.000 F1200.000 
G1 X501.939 Y-259.061 
G1 X501.500 Y-259.500 
G1 X492.500 Y-259.500 Z-12.000 F1200.000 
G1 X492.061 Y-259.061 
G1 X492.500 Y-259.500 
G1 X492.500 Y-270.000 Z-12.000 F1200.000 
G2 X491.000 Y-271.500 Z-12.000 I-1.500 J0.000 F1200.000 
G1 X479.000 Y-271.500 Z-12.000 F1200.000 
G2 X477.500 Y-270.000 Z-12.000 I0.000 J1.500 F1200.000 
G1 X477.500 Y-253.167 Z-12.000 F1200.000 
G1 X477.939 Y-252.727 
G1 X477.500 Y-253.167 
G1 X467.000 Y-253.167 Z-12.000 F1200.000 
G2 X465.500 Y-251.667 Z-12.000 I0.000 J1.500 F1200.000 
G1 X465.500 Y-233.333 Z-12.000 F1200.000 
G2 X467.000 Y-231.833 Z-12.000 I1.500 J-0.000 F1200.000 
G1 X477.500 Y-231.833 Z-12.000 F1200.000 
G1 X477.939 Y-232.273 
G1 X477.500 Y-231.833 
G1 X477.500 Y-198.167 Z-12.000 F1200.000 
G1 X477.939 Y-197.727 
G1 X477.500 Y-198.167 
G1 X467.000 Y-198.167 Z-12.000 F1200.000 
G2 X465.500 Y-196.667 Z-12.000 I0.000 J1.500 F1200.000 
G1 X465.500 Y-178.333 Z-12.000 F1200.000 
G2 X467.000 Y-176.833 Z-12.000 I1.500 J-0.000 F1200.000 
G1 X477.500 Y-176.833 Z-12.000 F1200.000 
G1 X477.939 Y-177.273 
G1 X477.500 Y-176.833 
G1 X477.500 Y-160.000 Z-12.000 F1200.000 
G2 X479.000 Y-158.500 Z-12.000 I1.500 J-0.000 F1200.000 
G1 X611.000 Y-158.500 Z-12.000 F1200.000 
G2 X612.491 Y-159.834 Z-12.000 I-0.000 J-1.500 F1200.000 
G0 Z5.000 
G0 Z5.000 
(finish operation: DressupDogbone010)
(begin operation: Power_Pocket_Right)
(machine units: mm/min)
(Power_Pocket_Right) 
G0 Z5.000 
G0 
G0 X555.100 Y-364.500 
G0 X555.100 Y-364.500 Z3.000 
G1 X555.100 Y-364.500 Z-3.000 F500.000 
G1 X555.100 Y-364.300 Z-3.000 F1200.000 
G1 X534.900 Y-364.300 Z-3.000 F1200.000 
G1 X534.900 Y-364.500 Z-3.000 F1200.000 
G1 X555.100 Y-364.500 Z-3.000 F1200.000 
G0 Z5.000 
G0 X558.100 Y-367.500 Z5.000 
G0 X558.100 Y-367.500 Z3.000 
G1 X558.100 Y-367.500 Z-3.000 F500.000 
G1 X558.100 Y-361.300 Z-3.000 F1200.000 
G1 X531.900 Y-361.300 Z-3.000 F1200.000 
G1 X531.900 Y-367.500 Z-3.000 F1200.000 
G1 X558.100 Y-367.500 Z-3.000 F1200.000 
G0 Z5.000 
G0 X561.100 Y-370.500 Z5.000 
G0 X561.100 Y-370.500 Z3.000 
G1 X561.100 Y-370.500 Z-3.000 F500.000 
G1 X561.100 Y-358.300 Z-3.000 F1200.000 
G1 X528.900 Y-358.300 Z-3.000 F1200.000 
G1 X528.900 Y-370.500 Z-3.000 F1200.000 
G1 X561.100 Y-370.500 Z-3.000 F1200.000 
G0 Z5.000 
G0 X564.100 Y-373.500 Z5.000 
G0 X564.100 Y-373.500 Z3.000 
G1 X564.100 Y-373.500 Z-3.000 F500.000 
G1 X564.100 Y-355.300 Z-3.000 F1200.000 
G1 X525.900 Y-355.300 Z-3.000 F1200.000 
G1 X525.900 Y-373.500 Z-3.000 F1200.000 
G1 X564.100 Y-373.500 Z-3.000 F1200.000 
G0 Z5.000 
G0 X567.100 Y-376.500 Z5.000 
G0 X567.100 Y-376.500 Z3.000 
G1 X567.100 Y-376.500 Z-3.000 F500.000 
G1 X567.100 Y-352.300 Z-3.000 F1200.000 
G1 X522.900 Y-352.300 Z-3.000 F1200.000 
G1 X522.900 Y-376.500 Z-3.000 F1200.000 
G1 X567.100 Y-376.500 Z-3.000 F1200.000 
G0 Z5.000 
G0 X555.100 Y-364.500 Z5.000 
G0 X555.100 Y-364.500 Z3.000 
G1 X555.100 Y-364.500 Z-6.000 F500.000 
G1 X555.100 Y-364.300 Z-6.000 F1200.000 
G1 X534.900 Y-364.300 Z-6.000 F1200.000 
G1 X534.900 Y-364.500 Z-6.000 F1200.000 
G1 X555.100 Y-364.500 Z-6.000 F1200.000 
G0 Z5.000 
G0 X558.100 Y-367.500 Z5.000 
G0 X558.100 Y-367.500 Z3.000 
G1 X558.100 Y-367.500 Z-6.000 F500.000 
G1 X558.100 Y-361.300 Z-6.000 F1200.000 
G1 X531.900 Y-361.300 Z-6.000 F1200.000 
G1 X531.900 Y-367.500 Z-6.000 F1200.000 
G1 X558.100 Y-367.500 Z-6.000 F1200.000 
G0 Z5.000 
G0 X561.100 Y-370.500 Z5.000 
G0 X561.100 Y-370.500 Z3.000 
G1 X561.100 Y-370.500 Z-6.000 F500.000 
G1 X561.100 Y-358.300 Z-6.000 F1200.000 
G1 X528.900 Y-358.300 Z-6.000 F1200.000 
G1 X528.900 Y-370.500 Z-6.000 F1200.000 
G1 X561.100 Y-370.500 Z-6.000 F1200.000 
G0 Z5.000 
G0 X564.100 Y-373.500 Z5.000 
G0 X564.100 Y-373.500 Z3.000 
G1 X564.100 Y-373.500 Z-6.000 F500.000 
G1 X564.100 Y-355.300 Z-6.000 F1200.000 
G1 X525.900 Y-355.300 Z-6.000 F1200.000 
G1 X525.900 Y-373.500 Z-6.000 F1200.000 
G1 X564.100 Y-373.500 Z-6.000 F1200.000 
G0 Z5.000 
G0 X567.100 Y-376.500 Z5.000 
G0 X567.100 Y-376.500 Z3.000 
G1 X567.100 Y-376.500 Z-6.000 F500.000 
G1 X567.100 Y-352.300 Z-6.000 F1200.000 
G1 X522.900 Y-352.300 Z-6.000 F1200.000 
G1 X522.900 Y-376.500 Z-6.000 F1200.000 
G1 X567.100 Y-376.500 Z-6.000 F1200.000 
G0 Z5.000 
G0 X555.100 Y-364.500 Z5.000 
G0 X555.100 Y-364.500 Z3.000 
G1 X555.100 Y-364.500 Z-9.000 F500.000 
G1 X555.100 Y-364.300 Z-9.000 F1200.000 
G1 X534.900 Y-364.300 Z-9.000 F1200.000 
G1 X534.900 Y-364.500 Z-9.000 F1200.000 
G1 X555.100 Y-364.500 Z-9.000 F1200.000 
G0 Z5.000 
G0 X558.100 Y-367.500 Z5.000 
G0 X558.100 Y-367.500 Z3.000 
G1 X558.100 Y-367.500 Z-9.000 F500.000 
G1 X558.100 Y-361.300 Z-9.000 F1200.000 
G1 X531.900 Y-361.300 Z-9.000 F1200.000 
G1 X531.900 Y-367.500 Z-9.000 F1200.000 
G1 X558.100 Y-367.500 Z-9.000 F1200.000 
G0 Z5.000 
G0 X561.100 Y-370.500 Z5.000 
G0 X561.100 Y-370.500 Z3.000 
G1 X561.100 Y-370.500 Z-9.000 F500.000 
G1 X561.100 Y-358.300 Z-9.000 F1200.000 
G1 X528.900 Y-358.300 Z-9.000 F1200.000 
G1 X528.900 Y-370.500 Z-9.000 F1200.000 
G1 X561.100 Y-370.500 Z-9.000 F1200.000 
G0 Z5.000 
G0 X564.100 Y-373.500 Z5.000 
G0 X564.100 Y-373.500 Z3.000 
G1 X564.100 Y-373.500 Z-9.000 F500.000 
G1 X564.100 Y-355.300 Z-9.000 F1200.000 
G1 X525.900 Y-355.300 Z-9.000 F1200.000 
G1 X525.900 Y-373.500 Z-9.000 F1200.000 
G1 X564.100 Y-373.500 Z-9.000 F1200.000 
G0 Z5.000 
G0 X567.100 Y-376.500 Z5.000 
G0 X567.100 Y-376.500 Z3.000 
G1 X567.100 Y-376.500 Z-9.000 F500.000 
G1 X567.100 Y-352.300 Z-9.000 F1200.000 
G1 X522.900 Y-352.300 Z-9.000 F1200.000 
G1 X522.900 Y-376.500 Z-9.000 F1200.000 
G1 X567.100 Y-376.500 Z-9.000 F1200.000 
G0 Z5.000 
G0 X555.100 Y-364.500 Z5.000 
G0 X555.100 Y-364.500 Z3.000 
G1 X555.100 Y-364.500 Z-12.000 F500.000 
G1 X555.100 Y-364.300 Z-12.000 F1200.000 
G1 X534.900 Y-364.300 Z-12.000 F1200.000 
G1 X534.900 Y-364.500 Z-12.000 F1200.000 
G1 X555.100 Y-364.500 Z-12.000 F1200.000 
G0 Z5.000 
G0 X558.100 Y-367.500 Z5.000 
G0 X558.100 Y-367.500 Z3.000 
G1 X558.100 Y-367.500 Z-12.000 F500.000 
G1 X558.100 Y-361.300 Z-12.000 F1200.000 
G1 X531.900 Y-361.300 Z-12.000 F1200.000 
G1 X531.900 Y-367.500 Z-12.000 F1200.000 
G1 X558.100 Y-367.500 Z-12.000 F1200.000 
G0 Z5.000 
G0 X561.100 Y-370.500 Z5.000 
G0 X561.100 Y-370.500 Z3.000 
G1 X561.100 Y-370.500 Z-12.000 F500.000 
G1 X561.100 Y-358.300 Z-12.000 F1200.000 
G1 X528.900 Y-358.300 Z-12.000 F1200.000 
G1 X528.900 Y-370.500 Z-12.000 F1200.000 
G1 X561.100 Y-370.500 Z-12.000 F1200.000 
G0 Z5.000 
G0 X564.100 Y-373.500 Z5.000 
G0 X564.100 Y-373.500 Z3.000 
G1 X564.100 Y-373.500 Z-12.000 F500.000 
G1 X564.100 Y-355.300 Z-12.000 F1200.000 
G1 X525.900 Y-355.300 Z-12.000 F1200.000 
G1 X525.900 Y-373.500 Z-12.000 F1200.000 
G1 X564.100 Y-373.500 Z-12.000 F1200.000 
G0 Z5.000 
G0 X567.100 Y-376.500 Z5.000 
G0 X567.100 Y-376.500 Z3.000 
G1 X567.100 Y-376.500 Z-12.000 F500.000 
G1 X567.100 Y-352.300 Z-12.000 F1200.000 
G1 X522.900 Y-352.300 Z-12.000 F1200.000 
G1 X522.900 Y-376.500 Z-12.000 F1200.000 
G1 X567.100 Y-376.500 Z-12.000 F1200.000 
G0 Z5.000 
G0 Z5.000 
(finish operation: Power_Pocket_Right)
(begin operation: ConnectorHoles_Pocket_Right)
(machine units: mm/min)
(ConnectorHoles_Pocket_Right) 
G0 Z5.000 
G0 
G0 X505.957 Y-334.866 
G0 X505.957 Y-334.866 Z3.000 
G1 X505.957 Y-334.866 Z-3.000 F500.000 
G3 X506.043 Y-335.134 Z-3.000 I0.043 J-0.134 F1200.000 
G3 X505.957 Y-334.866 Z-3.000 I-0.043 J0.134 F1200.000 
G0 Z5.000 
G0 X505.724 Y-334.151 Z5.000 
G0 X505.724 Y-334.151 Z3.000 
G1 X505.724 Y-334.151 Z-3.000 F500.000 
G3 X506.276 Y-335.849 Z-3.000 I0.276 J-0.849 F1200.000 
G3 X506.849 Y-334.724 Z-3.000 I-0.276 J0.849 F1200.000 
G3 X505.724 Y-334.151 Z-3.000 I-0.849 J-0.276 F1200.000 
G0 Z5.000 
G0 X505.492 Y-333.435 Z5.000 
G0 X505.492 Y-333.435 Z3.000 
G1 X505.492 Y-333.435 Z-3.000 F500.000 
G3 X506.508 Y-336.565 Z-3.000 I0.508 J-1.565 F1200.000 
G3 X505.492 Y-333.435 Z-3.000 I-0.508 J1.565 F1200.000 
G0 Z5.000 
G0 X505.957 Y-334.866 Z5.000 
G0 X505.957 Y-334.866 Z3.000 
G1 X505.957 Y-334.866 Z-6.000 F500.000 
G3 X506.043 Y-335.134 Z-6.000 I0.043 J-0.134 F1200.000 
G3 X505.957 Y-334.866 Z-6.000 I-0.043 J0.134 F1200.000 
G0 Z5.000 
G0 X505.724 Y-334.151 Z5.000 
G0 X505.724 Y-334.151 Z3.000 
G1 X505.724 Y-334.151 Z-6.000 F500.000 
G3 X506.276 Y-335.849 Z-6.000 I0.276 J-0.849 F1200.000 
G3 X506.849 Y-334.724 Z-6.000 I-0.276 J0.849 F1200.000 
G3 X505.724 Y-334.151 Z-6.000 I-0.849 J-0.276 F1200.000 
G0 Z5.000 
G0 X505.492 Y-333.435 Z5.000 
G0 X505.492 Y-333.435 Z3.000 
G1 X505.492 Y-333.435 Z-6.000 F500.000 
G3 X506.508 Y-336.565 Z-6.000 I0.508 J-1.565 F1200.000 
G3 X505.492 Y-333.435 Z-6.000 I-0.508 J1.565 F1200.000 
G0 Z5.000 
G0 X505.957 Y-334.866 Z5.000 
G0 X505.957 Y-334.866 Z3.000 
G1 X505.957 Y-334.866 Z-9.000 F500.000 
G3 X506.043 Y-335.134 Z-9.000 I0.043 J-0.134 F1200.000 
G3 X505.957 Y-334.866 Z-9.000 I-0.043 J0.134 F1200.000 
G0 Z5.000 
G0 X505.724 Y-334.151 Z5.000 
G0 X505.724 Y-334.151 Z3.000 
G1 X505.724 Y-334.151 Z-9.000 F500.000 
G3 X506.276 Y-335.849 Z-9.000 I0.276 J-0.849 F1200.000 
G3 X506.849 Y-334.724 Z-9.000 I-0.276 J0.849 F1200.000 
G3 X505.724 Y-334.151 Z-9.000 I-0.849 J-0.276 F1200.000 
G0 Z5.000 
G0 X505.492 Y-333.435 Z5.000 
G0 X505.492 Y-333.435 Z3.000 
G1 X505.492 Y-333.435 Z-9.000 F500.000 
G3 X506.508 Y-336.565 Z-9.000 I0.508 J-1.565 F1200.000 
G3 X505.492 Y-333.435 Z-9.000 I-0.508 J1.565 F1200.000 
G0 Z5.000 
G0 X505.957 Y-334.866 Z5.000 
G0 X505.957 Y-334.866 Z3.000 
G1 X505.957 Y-334.866 Z-12.000 F500.000 
G3 X506.043 Y-335.134 Z-12.000 I0.043 J-0.134 F1200.000 
G3 X505.957 Y-334.866 Z-12.000 I-0.043 J0.134 F1200.000 
G0 Z5.000 
G0 X505.724 Y-334.151 Z5.000 
G0 X505.724 Y-334.151 Z3.000 
G1 X505.724 Y-334.151 Z-12.000 F500.000 
G3 X506.276 Y-335.849 Z-12.000 I0.276 J-0.849 F1200.000 
G3 X506.849 Y-334.724 Z-12.000 I-0.276 J0.849 F1200.000 
G3 X505.724 Y-334.151 Z-12.000 I-0.849 J-0.276 F1200.000 
G0 Z5.000 
G0 X505.492 Y-333.435 Z5.000 
G0 X505.492 Y-333.435 Z3.000 
G1 X505.492 Y-333.435 Z-12.000 F500.000 
G3 X506.508 Y-336.565 Z-12.000 I0.508 J-1.565 F1200.000 
G3 X505.492 Y-333.435 Z-12.000 I-0.508 J1.565 F1200.000 
G0 Z5.000 
G0 Z5.000 
G0 X0.000 Y0.000 
G0 X583.957 Y-334.866 
G0 X583.957 Y-334.866 Z3.000 
G1 X583.957 Y-334.866 Z-3.000 F500.000 
G3 X584.043 Y-335.134 Z-3.000 I0.043 J-0.134 F1200.000 
G3 X583.957 Y-334.866 Z-3.000 I-0.043 J0.134 F1200.000 
G0 Z5.000 
G0 X583.724 Y-334.151 Z5.000 
G0 X583.724 Y-334.151 Z3.000 
G1 X583.724 Y-334.151 Z-3.000 F500.000 
G3 X584.276 Y-335.849 Z-3.000 I0.276 J-0.849 F1200.000 
G3 X584.849 Y-334.724 Z-3.000 I-0.276 J0.849 F1200.000 
G3 X583.724 Y-334.151 Z-3.000 I-0.849 J-0.276 F1200.000 
G0 Z5.000 
G0 X583.492 Y-333.435 Z5.000 
G0 X583.492 Y-333.435 Z3.000 
G1 X583.492 Y-333.435 Z-3.000 F500.000 
G3 X584.508 Y-336.565 Z-3.000 I0.508 J-1.565 F1200.000 
G3 X583.492 Y-333.435 Z-3.000 I-0.508 J1.565 F1200.000 
G0 Z5.000 
G0 X583.957 Y-334.866 Z5.000 
G0 X583.957 Y-334.866 Z3.000 
G1 X583.957 Y-334.866 Z-6.000 F500.000 
G3 X584.043 Y-335.134 Z-6.000 I0.043 J-0.134 F1200.000 
G3 X583.957 Y-334.866 Z-6.000 I-0.043 J0.134 F1200.000 
G0 Z5.000 
G0 X583.724 Y-334.151 Z5.000 
G0 X583.724 Y-334.151 Z3.000 
G1 X583.724 Y-334.151 Z-6.000 F500.000 
G3 X584.276 Y-335.849 Z-6.000 I0.276 J-0.849 F1200.000 
G3 X584.849 Y-334.724 Z-6.000 I-0.276 J0.849 F1200.000 
G3 X583.724 Y-334.151 Z-6.000 I-0.849 J-0.276 F1200.000 
G0 Z5.000 
G0 X583.492 Y-333.435 Z5.000 
G0 X583.492 Y-333.435 Z3.000 
G1 X583.492 Y-333.435 Z-6.000 F500.000 
G3 X584.508 Y-336.565 Z-6.000 I0.508 J-1.565 F1200.000 
G3 X583.492 Y-333.435 Z-6.000 I-0.508 J1.565 F1200.000 
G0 Z5.000 
G0 X583.957 Y-334.866 Z5.000 
G0 X583.957 Y-334.866 Z3.000 
G1 X583.957 Y-334.866 Z-9.000 F500.000 
G3 X584.043 Y-335.134 Z-9.000 I0.043 J-0.134 F1200.000 
G3 X583.957 Y-334.866 Z-9.000 I-0.043 J0.134 F1200.000 
G0 Z5.000 
G0 X583.724 Y-334.151 Z5.000 
G0 X583.724 Y-334.151 Z3.000 
G1 X583.724 Y-334.151 Z-9.000 F500.000 
G3 X584.276 Y-335.849 Z-9.000 I0.276 J-0.849 F1200.000 
G3 X584.849 Y-334.724 Z-9.000 I-0.276 J0.849 F1200.000 
G3 X583.724 Y-334.151 Z-9.000 I-0.849 J-0.276 F1200.000 
G0 Z5.000 
G0 X583.492 Y-333.435 Z5.000 
G0 X583.492 Y-333.435 Z3.000 
G1 X583.492 Y-333.435 Z-9.000 F500.000 
G3 X584.508 Y-336.565 Z-9.000 I0.508 J-1.565 F1200.000 
G3 X583.492 Y-333.435 Z-9.000 I-0.508 J1.565 F1200.000 
G0 Z5.000 
G0 X583.957 Y-334.866 Z5.000 
G0 X583.957 Y-334.866 Z3.000 
G1 X583.957 Y-334.866 Z-12.000 F500.000 
G3 X584.043 Y-335.134 Z-12.000 I0.043 J-0.134 F1200.000 
G3 X583.957 Y-334.866 Z-12.000 I-0.043 J0.134 F1200.000 
G0 Z5.000 
G0 X583.724 Y-334.151 Z5.000 
G0 X583.724 Y-334.151 Z3.000 
G1 X583.724 Y-334.151 Z-12.000 F500.000 
G3 X584.276 Y-335.849 Z-12.000 I0.276 J-0.849 F1200.000 
G3 X584.849 Y-334.724 Z-12.000 I-0.276 J0.849 F1200.000 
G3 X583.724 Y-334.151 Z-12.000 I-0.849 J-0.276 F1200.000 
G0 Z5.000 
G0 X583.492 Y-333.435 Z5.000 
G0 X583.492 Y-333.435 Z3.000 
G1 X583.492 Y-333.435 Z-12.000 F500.000 
G3 X584.508 Y-336.565 Z-12.000 I0.508 J-1.565 F1200.000 
G3 X583.492 Y-333.435 Z-12.000 I-0.508 J1.565 F1200.000 
G0 Z5.000 
G0 Z5.000 
(finish operation: ConnectorHoles_Pocket_Right)
(begin operation: ConnectorBores_Pocket_Right)
(machine units: mm/min)
(ConnectorBores_Pocket_Right) 
G0 Z5.000 
G0 
G0 X504.497 Y-329.193 
G0 X504.497 Y-329.193 Z3.000 
G1 X504.497 Y-329.193 Z-1.000 F500.000 
G3 X500.193 Y-336.503 Z-1.000 I1.503 J-5.807 F1200.000 
G3 X507.503 Y-340.807 Z-1.000 I5.807 J1.503 F1200.000 
G3 X511.807 Y-333.497 Z-1.000 I-1.503 J5.807 F1200.000 
G3 X504.497 Y-329.193 Z-1.000 I-5.807 J-1.503 F1200.000 
G0 Z5.000 
G0 X506.610 Y-330.393 Z5.000 
G0 X506.610 Y-330.393 Z3.000 
G1 X506.610 Y-330.393 Z-1.000 F500.000 
G3 X505.390 Y-339.607 Z-1.000 I-0.610 J-4.607 F1200.000 
G3 X506.610 Y-330.393 Z-1.000 I0.610 J4.607 F1200.000 
G0 Z5.000 
G0 Z5.000 
G0 X0.000 Y0.000 
G0 X582.497 Y-329.193 
G0 X582.497 Y-329.193 Z3.000 
G1 X582.497 Y-329.193 Z-1.000 F500.000 
G3 X578.193 Y-336.503 Z-1.000 I1.503 J-5.807 F1200.000 
G3 X585.503 Y-340.807 Z-1.000 I5.807 J1.503 F1200.000 
G3 X589.807 Y-333.497 Z-1.000 I-1.503 J5.807 F1200.000 
G3 X582.497 Y-329.193 Z-1.000 I-5.807 J-1.503 F1200.000 
G0 Z5.000 
G0 X584.610 Y-330.393 Z5.000 
G0 X584.610 Y-330.393 Z3.000 
G1 X584.610 Y-330.393 Z-1.000 F500.000 
G3 X583.390 Y-339.607 Z-1.000 I-0.610 J-4.607 F1200.000 
G3 X584.610 Y-330.393 Z-1.000 I0.610 J4.607 F1200.000 
G0 Z5.000 
G0 Z5.000 
(finish operation: ConnectorBores_Pocket_Right)
(begin operation: DressupDogbone011)
(machine units: mm/min)
(Profile011) 
(Compensated Tool Path. Diameter: 3.0) 
G0 Z5.000 
