(Exported by FreeCAD)
(Post Processor: linuxcnc_post)
(Output Time:2025-08-15 17:40:13.674265)
(begin preamble)
G17 G54 G40 G49 G80 G90
G21
(begin operation: Fixture)
(machine units: mm/min)
G54 
(finish operation: Fixture)
(begin operation: 3mm_Endmill_doubleFlute)
(machine units: mm/min)
(3mm_Endmill_doubleFlute) 
M5
M6 T1 
G43 H1 
M3 S24000 
(finish operation: 3mm_Endmill_doubleFlute)
(begin operation: ConnectorHoles_Pocket_Left)
(machine units: mm/min)
(ConnectorHoles_Pocket_Left) 
G0 Z5.000 
G0 
G0 X45.957 Y65.134 
G0 X45.957 Y65.134 Z3.000 
G1 X45.957 Y65.134 Z-3.000 F500.000 
G3 X46.043 Y64.866 Z-3.000 I0.043 J-0.134 F1200.000 
G3 X45.957 Y65.134 Z-3.000 I-0.043 J0.134 F1200.000 
G0 Z5.000 
G0 X45.724 Y65.849 Z5.000 
G0 X45.724 Y65.849 Z3.000 
G1 X45.724 Y65.849 Z-3.000 F500.000 
G3 X46.276 Y64.151 Z-3.000 I0.276 J-0.849 F1200.000 
G3 X46.849 Y65.276 Z-3.000 I-0.276 J0.849 F1200.000 
G3 X45.724 Y65.849 Z-3.000 I-0.849 J-0.276 F1200.000 
G0 Z5.000 
G0 X45.492 Y66.565 Z5.000 
G0 X45.492 Y66.565 Z3.000 
G1 X45.492 Y66.565 Z-3.000 F500.000 
G3 X46.508 Y63.435 Z-3.000 I0.508 J-1.565 F1200.000 
G3 X45.492 Y66.565 Z-3.000 I-0.508 J1.565 F1200.000 
G0 Z5.000 
G0 X45.957 Y65.134 Z5.000 
G0 X45.957 Y65.134 Z3.000 
G1 X45.957 Y65.134 Z-6.000 F500.000 
G3 X46.043 Y64.866 Z-6.000 I0.043 J-0.134 F1200.000 
G3 X45.957 Y65.134 Z-6.000 I-0.043 J0.134 F1200.000 
G0 Z5.000 
G0 X45.724 Y65.849 Z5.000 
G0 X45.724 Y65.849 Z3.000 
G1 X45.724 Y65.849 Z-6.000 F500.000 
G3 X46.276 Y64.151 Z-6.000 I0.276 J-0.849 F1200.000 
G3 X46.849 Y65.276 Z-6.000 I-0.276 J0.849 F1200.000 
G3 X45.724 Y65.849 Z-6.000 I-0.849 J-0.276 F1200.000 
G0 Z5.000 
G0 X45.492 Y66.565 Z5.000 
G0 X45.492 Y66.565 Z3.000 
G1 X45.492 Y66.565 Z-6.000 F500.000 
G3 X46.508 Y63.435 Z-6.000 I0.508 J-1.565 F1200.000 
G3 X45.492 Y66.565 Z-6.000 I-0.508 J1.565 F1200.000 
G0 Z5.000 
G0 X45.957 Y65.134 Z5.000 
G0 X45.957 Y65.134 Z3.000 
G1 X45.957 Y65.134 Z-9.000 F500.000 
G3 X46.043 Y64.866 Z-9.000 I0.043 J-0.134 F1200.000 
G3 X45.957 Y65.134 Z-9.000 I-0.043 J0.134 F1200.000 
G0 Z5.000 
G0 X45.724 Y65.849 Z5.000 
G0 X45.724 Y65.849 Z3.000 
G1 X45.724 Y65.849 Z-9.000 F500.000 
G3 X46.276 Y64.151 Z-9.000 I0.276 J-0.849 F1200.000 
G3 X46.849 Y65.276 Z-9.000 I-0.276 J0.849 F1200.000 
G3 X45.724 Y65.849 Z-9.000 I-0.849 J-0.276 F1200.000 
G0 Z5.000 
G0 X45.492 Y66.565 Z5.000 
G0 X45.492 Y66.565 Z3.000 
G1 X45.492 Y66.565 Z-9.000 F500.000 
G3 X46.508 Y63.435 Z-9.000 I0.508 J-1.565 F1200.000 
G3 X45.492 Y66.565 Z-9.000 I-0.508 J1.565 F1200.000 
G0 Z5.000 
G0 X45.957 Y65.134 Z5.000 
G0 X45.957 Y65.134 Z3.000 
G1 X45.957 Y65.134 Z-12.000 F500.000 
G3 X46.043 Y64.866 Z-12.000 I0.043 J-0.134 F1200.000 
G3 X45.957 Y65.134 Z-12.000 I-0.043 J0.134 F1200.000 
G0 Z5.000 
G0 X45.724 Y65.849 Z5.000 
G0 X45.724 Y65.849 Z3.000 
G1 X45.724 Y65.849 Z-12.000 F500.000 
G3 X46.276 Y64.151 Z-12.000 I0.276 J-0.849 F1200.000 
G3 X46.849 Y65.276 Z-12.000 I-0.276 J0.849 F1200.000 
G3 X45.724 Y65.849 Z-12.000 I-0.849 J-0.276 F1200.000 
G0 Z5.000 
G0 X45.492 Y66.565 Z5.000 
G0 X45.492 Y66.565 Z3.000 
G1 X45.492 Y66.565 Z-12.000 F500.000 
G3 X46.508 Y63.435 Z-12.000 I0.508 J-1.565 F1200.000 
G3 X45.492 Y66.565 Z-12.000 I-0.508 J1.565 F1200.000 
G0 Z5.000 
G0 Z5.000 
G0 X0.000 Y0.000 
G0 X123.957 Y65.134 
G0 X123.957 Y65.134 Z3.000 
G1 X123.957 Y65.134 Z-3.000 F500.000 
G3 X124.043 Y64.866 Z-3.000 I0.043 J-0.134 F1200.000 
G3 X123.957 Y65.134 Z-3.000 I-0.043 J0.134 F1200.000 
G0 Z5.000 
G0 X123.724 Y65.849 Z5.000 
G0 X123.724 Y65.849 Z3.000 
G1 X123.724 Y65.849 Z-3.000 F500.000 
G3 X124.276 Y64.151 Z-3.000 I0.276 J-0.849 F1200.000 
G3 X124.849 Y65.276 Z-3.000 I-0.276 J0.849 F1200.000 
G3 X123.724 Y65.849 Z-3.000 I-0.849 J-0.276 F1200.000 
G0 Z5.000 
G0 X123.492 Y66.565 Z5.000 
G0 X123.492 Y66.565 Z3.000 
G1 X123.492 Y66.565 Z-3.000 F500.000 
G3 X124.508 Y63.435 Z-3.000 I0.508 J-1.565 F1200.000 
G3 X123.492 Y66.565 Z-3.000 I-0.508 J1.565 F1200.000 
G0 Z5.000 
G0 X123.957 Y65.134 Z5.000 
G0 X123.957 Y65.134 Z3.000 
G1 X123.957 Y65.134 Z-6.000 F500.000 
G3 X124.043 Y64.866 Z-6.000 I0.043 J-0.134 F1200.000 
G3 X123.957 Y65.134 Z-6.000 I-0.043 J0.134 F1200.000 
G0 Z5.000 
G0 X123.724 Y65.849 Z5.000 
G0 X123.724 Y65.849 Z3.000 
G1 X123.724 Y65.849 Z-6.000 F500.000 
G3 X124.276 Y64.151 Z-6.000 I0.276 J-0.849 F1200.000 
G3 X124.849 Y65.276 Z-6.000 I-0.276 J0.849 F1200.000 
G3 X123.724 Y65.849 Z-6.000 I-0.849 J-0.276 F1200.000 
G0 Z5.000 
G0 X123.492 Y66.565 Z5.000 
G0 X123.492 Y66.565 Z3.000 
G1 X123.492 Y66.565 Z-6.000 F500.000 
G3 X124.508 Y63.435 Z-6.000 I0.508 J-1.565 F1200.000 
G3 X123.492 Y66.565 Z-6.000 I-0.508 J1.565 F1200.000 
G0 Z5.000 
G0 X123.957 Y65.134 Z5.000 
G0 X123.957 Y65.134 Z3.000 
G1 X123.957 Y65.134 Z-9.000 F500.000 
G3 X124.043 Y64.866 Z-9.000 I0.043 J-0.134 F1200.000 
G3 X123.957 Y65.134 Z-9.000 I-0.043 J0.134 F1200.000 
G0 Z5.000 
G0 X123.724 Y65.849 Z5.000 
G0 X123.724 Y65.849 Z3.000 
G1 X123.724 Y65.849 Z-9.000 F500.000 
G3 X124.276 Y64.151 Z-9.000 I0.276 J-0.849 F1200.000 
G3 X124.849 Y65.276 Z-9.000 I-0.276 J0.849 F1200.000 
G3 X123.724 Y65.849 Z-9.000 I-0.849 J-0.276 F1200.000 
G0 Z5.000 
G0 X123.492 Y66.565 Z5.000 
G0 X123.492 Y66.565 Z3.000 
G1 X123.492 Y66.565 Z-9.000 F500.000 
G3 X124.508 Y63.435 Z-9.000 I0.508 J-1.565 F1200.000 
G3 X123.492 Y66.565 Z-9.000 I-0.508 J1.565 F1200.000 
G0 Z5.000 
G0 X123.957 Y65.134 Z5.000 
G0 X123.957 Y65.134 Z3.000 
G1 X123.957 Y65.134 Z-12.000 F500.000 
G3 X124.043 Y64.866 Z-12.000 I0.043 J-0.134 F1200.000 
G3 X123.957 Y65.134 Z-12.000 I-0.043 J0.134 F1200.000 
G0 Z5.000 
G0 X123.724 Y65.849 Z5.000 
G0 X123.724 Y65.849 Z3.000 
G1 X123.724 Y65.849 Z-12.000 F500.000 
G3 X124.276 Y64.151 Z-12.000 I0.276 J-0.849 F1200.000 
G3 X124.849 Y65.276 Z-12.000 I-0.276 J0.849 F1200.000 
G3 X123.724 Y65.849 Z-12.000 I-0.849 J-0.276 F1200.000 
G0 Z5.000 
G0 X123.492 Y66.565 Z5.000 
G0 X123.492 Y66.565 Z3.000 
G1 X123.492 Y66.565 Z-12.000 F500.000 
G3 X124.508 Y63.435 Z-12.000 I0.508 J-1.565 F1200.000 
G3 X123.492 Y66.565 Z-12.000 I-0.508 J1.565 F1200.000 
G0 Z5.000 
G0 Z5.000 
(finish operation: ConnectorHoles_Pocket_Left)
(begin operation: ConnectorBores_Pocket_Left)
(machine units: mm/min)
(ConnectorBores_Pocket_Left) 
G0 Z5.000 
G0 
G0 X44.497 Y70.807 
G0 X44.497 Y70.807 Z3.000 
G1 X44.497 Y70.807 Z-1.000 F500.000 
G3 X40.193 Y63.497 Z-1.000 I1.503 J-5.807 F1200.000 
G3 X47.503 Y59.193 Z-1.000 I5.807 J1.503 F1200.000 
G3 X51.807 Y66.503 Z-1.000 I-1.503 J5.807 F1200.000 
G3 X44.497 Y70.807 Z-1.000 I-5.807 J-1.503 F1200.000 
G0 Z5.000 
G0 X46.610 Y69.607 Z5.000 
G0 X46.610 Y69.607 Z3.000 
G1 X46.610 Y69.607 Z-1.000 F500.000 
G3 X45.390 Y60.393 Z-1.000 I-0.610 J-4.607 F1200.000 
G3 X46.610 Y69.607 Z-1.000 I0.610 J4.607 F1200.000 
G0 Z5.000 
G0 Z5.000 
G0 X0.000 Y0.000 
G0 X122.497 Y70.807 
G0 X122.497 Y70.807 Z3.000 
G1 X122.497 Y70.807 Z-1.000 F500.000 
G3 X118.193 Y63.497 Z-1.000 I1.503 J-5.807 F1200.000 
G3 X125.503 Y59.193 Z-1.000 I5.807 J1.503 F1200.000 
G3 X129.807 Y66.503 Z-1.000 I-1.503 J5.807 F1200.000 
G3 X122.497 Y70.807 Z-1.000 I-5.807 J-1.503 F1200.000 
G0 Z5.000 
G0 X124.610 Y69.607 Z5.000 
G0 X124.610 Y69.607 Z3.000 
G1 X124.610 Y69.607 Z-1.000 F500.000 
G3 X123.390 Y60.393 Z-1.000 I-0.610 J-4.607 F1200.000 
G3 X124.610 Y69.607 Z-1.000 I0.610 J4.607 F1200.000 
G0 Z5.000 
G0 Z5.000 
(finish operation: ConnectorBores_Pocket_Left)
(begin operation: DressupDogbone010)
(machine units: mm/min)
(Profile010) 
(Compensated Tool Path. Diameter: 3.0) 
G0 Z5.000 
G0 X152.491 Y120.166 
G0 Z3.000 
G1 X152.491 Y120.166 Z-3.000 F500.000 
G2 X152.500 Y120.000 Z-3.000 I-1.491 J-0.166 F1200.000 
G1 X152.500 Y103.167 Z-3.000 F1200.000 
G1 X152.061 Y102.727 
G1 X152.500 Y103.167 
G1 X163.000 Y103.167 Z-3.000 F1200.000 
G2 X164.500 Y101.667 Z-3.000 I-0.000 J-1.500 F1200.000 
G1 X164.500 Y83.333 Z-3.000 F1200.000 
G2 X163.000 Y81.833 Z-3.000 I-1.500 J0.000 F1200.000 
G1 X152.500 Y81.833 Z-3.000 F1200.000 
G1 X152.061 Y82.273 
G1 X152.500 Y81.833 
G1 X152.500 Y48.167 Z-3.000 F1200.000 
G1 X152.061 Y47.727 
G1 X152.500 Y48.167 
G1 X163.000 Y48.167 Z-3.000 F1200.000 
G2 X164.500 Y46.667 Z-3.000 I-0.000 J-1.500 F1200.000 
G1 X164.500 Y28.333 Z-3.000 F1200.000 
G2 X163.000 Y26.833 Z-3.000 I-1.500 J0.000 F1200.000 
G1 X152.500 Y26.833 Z-3.000 F1200.000 
G1 X152.061 Y27.273 
G1 X152.500 Y26.833 
G1 X152.500 Y10.000 Z-3.000 F1200.000 
G2 X151.000 Y8.500 Z-3.000 I-1.500 J0.000 F1200.000 
G1 X139.000 Y8.500 Z-3.000 F1200.000 
G2 X137.500 Y10.000 Z-3.000 I0.000 J1.500 F1200.000 
G1 X137.500 Y20.500 Z-3.000 F1200.000 
G1 X137.939 Y20.939 
G1 X137.500 Y20.500 
G1 X128.500 Y20.500 Z-3.000 F1200.000 
G1 X128.061 Y20.939 
G1 X128.500 Y20.500 
G1 X128.500 Y10.000 Z-3.000 F1200.000 
G2 X127.000 Y8.500 Z-3.000 I-1.500 J0.000 F1200.000 
G1 X43.000 Y8.500 Z-3.000 F1200.000 
G2 X41.500 Y10.000 Z-3.000 I0.000 J1.500 F1200.000 
G1 X41.500 Y20.500 Z-3.000 F1200.000 
G1 X41.939 Y20.939 
G1 X41.500 Y20.500 
G1 X32.500 Y20.500 Z-3.000 F1200.000 
G1 X32.061 Y20.939 
G1 X32.500 Y20.500 
G1 X32.500 Y10.000 Z-3.000 F1200.000 
G2 X31.000 Y8.500 Z-3.000 I-1.500 J0.000 F1200.000 
G1 X19.000 Y8.500 Z-3.000 F1200.000 
G2 X17.500 Y10.000 Z-3.000 I0.000 J1.500 F1200.000 
G1 X17.500 Y26.833 Z-3.000 F1200.000 
G1 X17.939 Y27.273 
G1 X17.500 Y26.833 
G1 X7.000 Y26.833 Z-3.000 F1200.000 
G2 X5.500 Y28.333 Z-3.000 I0.000 J1.500 F1200.000 
G1 X5.500 Y46.667 Z-3.000 F1200.000 
G2 X7.000 Y48.167 Z-3.000 I1.500 J-0.000 F1200.000 
G1 X17.500 Y48.167 Z-3.000 F1200.000 
G1 X17.939 Y47.727 
G1 X17.500 Y48.167 
G1 X17.500 Y81.833 Z-3.000 F1200.000 
G1 X17.939 Y82.273 
G1 X17.500 Y81.833 
G1 X7.000 Y81.833 Z-3.000 F1200.000 
G2 X5.500 Y83.333 Z-3.000 I0.000 J1.500 F1200.000 
G1 X5.500 Y101.667 Z-3.000 F1200.000 
G2 X7.000 Y103.167 Z-3.000 I1.500 J-0.000 F1200.000 
G1 X17.500 Y103.167 Z-3.000 F1200.000 
G1 X17.939 Y102.727 
G1 X17.500 Y103.167 
G1 X17.500 Y120.000 Z-3.000 F1200.000 
G2 X19.000 Y121.500 Z-3.000 I1.500 J-0.000 F1200.000 
G1 X151.000 Y121.500 Z-3.000 F1200.000 
G2 X152.491 Y120.166 Z-3.000 I-0.000 J-1.500 F1200.000 
G1 X152.491 Y120.166 Z-6.000 F500.000 
G2 X152.500 Y120.000 Z-6.000 I-1.491 J-0.166 F1200.000 
G1 X152.500 Y103.167 Z-6.000 F1200.000 
G1 X152.061 Y102.727 
G1 X152.500 Y103.167 
G1 X163.000 Y103.167 Z-6.000 F1200.000 
G2 X164.500 Y101.667 Z-6.000 I-0.000 J-1.500 F1200.000 
G1 X164.500 Y83.333 Z-6.000 F1200.000 
G2 X163.000 Y81.833 Z-6.000 I-1.500 J0.000 F1200.000 
G1 X152.500 Y81.833 Z-6.000 F1200.000 
G1 X152.061 Y82.273 
G1 X152.500 Y81.833 
G1 X152.500 Y48.167 Z-6.000 F1200.000 
G1 X152.061 Y47.727 
G1 X152.500 Y48.167 
G1 X163.000 Y48.167 Z-6.000 F1200.000 
G2 X164.500 Y46.667 Z-6.000 I-0.000 J-1.500 F1200.000 
G1 X164.500 Y28.333 Z-6.000 F1200.000 
G2 X163.000 Y26.833 Z-6.000 I-1.500 J0.000 F1200.000 
G1 X152.500 Y26.833 Z-6.000 F1200.000 
G1 X152.061 Y27.273 
G1 X152.500 Y26.833 
G1 X152.500 Y10.000 Z-6.000 F1200.000 
G2 X151.000 Y8.500 Z-6.000 I-1.500 J0.000 F1200.000 
G1 X139.000 Y8.500 Z-6.000 F1200.000 
G2 X137.500 Y10.000 Z-6.000 I0.000 J1.500 F1200.000 
G1 X137.500 Y20.500 Z-6.000 F1200.000 
G1 X137.939 Y20.939 
G1 X137.500 Y20.500 
G1 X128.500 Y20.500 Z-6.000 F1200.000 
G1 X128.061 Y20.939 
G1 X128.500 Y20.500 
G1 X128.500 Y10.000 Z-6.000 F1200.000 
G2 X127.000 Y8.500 Z-6.000 I-1.500 J0.000 F1200.000 
G1 X43.000 Y8.500 Z-6.000 F1200.000 
G2 X41.500 Y10.000 Z-6.000 I0.000 J1.500 F1200.000 
G1 X41.500 Y20.500 Z-6.000 F1200.000 
G1 X41.939 Y20.939 
G1 X41.500 Y20.500 
G1 X32.500 Y20.500 Z-6.000 F1200.000 
G1 X32.061 Y20.939 
G1 X32.500 Y20.500 
G1 X32.500 Y10.000 Z-6.000 F1200.000 
G2 X31.000 Y8.500 Z-6.000 I-1.500 J0.000 F1200.000 
G1 X19.000 Y8.500 Z-6.000 F1200.000 
G2 X17.500 Y10.000 Z-6.000 I0.000 J1.500 F1200.000 
G1 X17.500 Y26.833 Z-6.000 F1200.000 
G1 X17.939 Y27.273 
G1 X17.500 Y26.833 
G1 X7.000 Y26.833 Z-6.000 F1200.000 
G2 X5.500 Y28.333 Z-6.000 I0.000 J1.500 F1200.000 
G1 X5.500 Y46.667 Z-6.000 F1200.000 
G2 X7.000 Y48.167 Z-6.000 I1.500 J-0.000 F1200.000 
G1 X17.500 Y48.167 Z-6.000 F1200.000 
G1 X17.939 Y47.727 
G1 X17.500 Y48.167 
G1 X17.500 Y81.833 Z-6.000 F1200.000 
G1 X17.939 Y82.273 
G1 X17.500 Y81.833 
G1 X7.000 Y81.833 Z-6.000 F1200.000 
G2 X5.500 Y83.333 Z-6.000 I0.000 J1.500 F1200.000 
G1 X5.500 Y101.667 Z-6.000 F1200.000 
G2 X7.000 Y103.167 Z-6.000 I1.500 J-0.000 F1200.000 
G1 X17.500 Y103.167 Z-6.000 F1200.000 
G1 X17.939 Y102.727 
G1 X17.500 Y103.167 
G1 X17.500 Y120.000 Z-6.000 F1200.000 
G2 X19.000 Y121.500 Z-6.000 I1.500 J-0.000 F1200.000 
G1 X151.000 Y121.500 Z-6.000 F1200.000 
G2 X152.491 Y120.166 Z-6.000 I-0.000 J-1.500 F1200.000 
G1 X152.491 Y120.166 Z-9.000 F500.000 
G2 X152.500 Y120.000 Z-9.000 I-1.491 J-0.166 F1200.000 
G1 X152.500 Y103.167 Z-9.000 F1200.000 
G1 X152.061 Y102.727 
G1 X152.500 Y103.167 
G1 X163.000 Y103.167 Z-9.000 F1200.000 
G2 X164.500 Y101.667 Z-9.000 I-0.000 J-1.500 F1200.000 
G1 X164.500 Y83.333 Z-9.000 F1200.000 
G2 X163.000 Y81.833 Z-9.000 I-1.500 J0.000 F1200.000 
G1 X152.500 Y81.833 Z-9.000 F1200.000 
G1 X152.061 Y82.273 
G1 X152.500 Y81.833 
G1 X152.500 Y48.167 Z-9.000 F1200.000 
G1 X152.061 Y47.727 
G1 X152.500 Y48.167 
G1 X163.000 Y48.167 Z-9.000 F1200.000 
G2 X164.500 Y46.667 Z-9.000 I-0.000 J-1.500 F1200.000 
G1 X164.500 Y28.333 Z-9.000 F1200.000 
G2 X163.000 Y26.833 Z-9.000 I-1.500 J0.000 F1200.000 
G1 X152.500 Y26.833 Z-9.000 F1200.000 
G1 X152.061 Y27.273 
G1 X152.500 Y26.833 
G1 X152.500 Y10.000 Z-9.000 F1200.000 
G2 X151.000 Y8.500 Z-9.000 I-1.500 J0.000 F1200.000 
G1 X139.000 Y8.500 Z-9.000 F1200.000 
G2 X137.500 Y10.000 Z-9.000 I0.000 J1.500 F1200.000 
G1 X137.500 Y20.500 Z-9.000 F1200.000 
G1 X137.939 Y20.939 
G1 X137.500 Y20.500 
G1 X128.500 Y20.500 Z-9.000 F1200.000 
G1 X128.061 Y20.939 
G1 X128.500 Y20.500 
G1 X128.500 Y10.000 Z-9.000 F1200.000 
G2 X127.000 Y8.500 Z-9.000 I-1.500 J0.000 F1200.000 
G1 X43.000 Y8.500 Z-9.000 F1200.000 
G2 X41.500 Y10.000 Z-9.000 I0.000 J1.500 F1200.000 
G1 X41.500 Y20.500 Z-9.000 F1200.000 
G1 X41.939 Y20.939 
G1 X41.500 Y20.500 
G1 X32.500 Y20.500 Z-9.000 F1200.000 
G1 X32.061 Y20.939 
G1 X32.500 Y20.500 
G1 X32.500 Y10.000 Z-9.000 F1200.000 
G2 X31.000 Y8.500 Z-9.000 I-1.500 J0.000 F1200.000 
G1 X19.000 Y8.500 Z-9.000 F1200.000 
G2 X17.500 Y10.000 Z-9.000 I0.000 J1.500 F1200.000 
G1 X17.500 Y26.833 Z-9.000 F1200.000 
G1 X17.939 Y27.273 
G1 X17.500 Y26.833 
G1 X7.000 Y26.833 Z-9.000 F1200.000 
G2 X5.500 Y28.333 Z-9.000 I0.000 J1.500 F1200.000 
G1 X5.500 Y46.667 Z-9.000 F1200.000 
G2 X7.000 Y48.167 Z-9.000 I1.500 J-0.000 F1200.000 
G1 X17.500 Y48.167 Z-9.000 F1200.000 
G1 X17.939 Y47.727 
G1 X17.500 Y48.167 
G1 X17.500 Y81.833 Z-9.000 F1200.000 
G1 X17.939 Y82.273 
G1 X17.500 Y81.833 
G1 X7.000 Y81.833 Z-9.000 F1200.000 
G2 X5.500 Y83.333 Z-9.000 I0.000 J1.500 F1200.000 
G1 X5.500 Y101.667 Z-9.000 F1200.000 
G2 X7.000 Y103.167 Z-9.000 I1.500 J-0.000 F1200.000 
G1 X17.500 Y103.167 Z-9.000 F1200.000 
G1 X17.939 Y102.727 
G1 X17.500 Y103.167 
G1 X17.500 Y120.000 Z-9.000 F1200.000 
G2 X19.000 Y121.500 Z-9.000 I1.500 J-0.000 F1200.000 
G1 X151.000 Y121.500 Z-9.000 F1200.000 
G2 X152.491 Y120.166 Z-9.000 I-0.000 J-1.500 F1200.000 
G1 X152.491 Y120.166 Z-12.000 F500.000 
G2 X152.500 Y120.000 Z-12.000 I-1.491 J-0.166 F1200.000 
G1 X152.500 Y103.167 Z-12.000 F1200.000 
G1 X152.061 Y102.727 
G1 X152.500 Y103.167 
G1 X163.000 Y103.167 Z-12.000 F1200.000 
G2 X164.500 Y101.667 Z-12.000 I-0.000 J-1.500 F1200.000 
G1 X164.500 Y83.333 Z-12.000 F1200.000 
G2 X163.000 Y81.833 Z-12.000 I-1.500 J0.000 F1200.000 
G1 X152.500 Y81.833 Z-12.000 F1200.000 
G1 X152.061 Y82.273 
G1 X152.500 Y81.833 
G1 X152.500 Y48.167 Z-12.000 F1200.000 
G1 X152.061 Y47.727 
G1 X152.500 Y48.167 
G1 X163.000 Y48.167 Z-12.000 F1200.000 
G2 X164.500 Y46.667 Z-12.000 I-0.000 J-1.500 F1200.000 
G1 X164.500 Y28.333 Z-12.000 F1200.000 
G2 X163.000 Y26.833 Z-12.000 I-1.500 J0.000 F1200.000 
G1 X152.500 Y26.833 Z-12.000 F1200.000 
G1 X152.061 Y27.273 
G1 X152.500 Y26.833 
G1 X152.500 Y10.000 Z-12.000 F1200.000 
G2 X151.000 Y8.500 Z-12.000 I-1.500 J0.000 F1200.000 
G1 X139.000 Y8.500 Z-12.000 F1200.000 
G2 X137.500 Y10.000 Z-12.000 I0.000 J1.500 F1200.000 
G1 X137.500 Y20.500 Z-12.000 F1200.000 
G1 X137.939 Y20.939 
G1 X137.500 Y20.500 
G1 X128.500 Y20.500 Z-12.000 F1200.000 
G1 X128.061 Y20.939 
G1 X128.500 Y20.500 
G1 X128.500 Y10.000 Z-12.000 F1200.000 
G2 X127.000 Y8.500 Z-12.000 I-1.500 J0.000 F1200.000 
G1 X43.000 Y8.500 Z-12.000 F1200.000 
G2 X41.500 Y10.000 Z-12.000 I0.000 J1.500 F1200.000 
G1 X41.500 Y20.500 Z-12.000 F1200.000 
G1 X41.939 Y20.939 
G1 X41.500 Y20.500 
G1 X32.500 Y20.500 Z-12.000 F1200.000 
G1 X32.061 Y20.939 
G1 X32.500 Y20.500 
G1 X32.500 Y10.000 Z-12.000 F1200.000 
G2 X31.000 Y8.500 Z-12.000 I-1.500 J0.000 F1200.000 
G1 X19.000 Y8.500 Z-12.000 F1200.000 
G2 X17.500 Y10.000 Z-12.000 I0.000 J1.500 F1200.000 
G1 X17.500 Y26.833 Z-12.000 F1200.000 
G1 X17.939 Y27.273 
G1 X17.500 Y26.833 
G1 X7.000 Y26.833 Z-12.000 F1200.000 
G2 X5.500 Y28.333 Z-12.000 I0.000 J1.500 F1200.000 
G1 X5.500 Y46.667 Z-12.000 F1200.000 
G2 X7.000 Y48.167 Z-12.000 I1.500 J-0.000 F1200.000 
G1 X17.500 Y48.167 Z-12.000 F1200.000 
G1 X17.939 Y47.727 
G1 X17.500 Y48.167 
G1 X17.500 Y81.833 Z-12.000 F1200.000 
G1 X17.939 Y82.273 
G1 X17.500 Y81.833 
G1 X7.000 Y81.833 Z-12.000 F1200.000 
G2 X5.500 Y83.333 Z-12.000 I0.000 J1.500 F1200.000 
G1 X5.500 Y101.667 Z-12.000 F1200.000 
G2 X7.000 Y103.167 Z-12.000 I1.500 J-0.000 F1200.000 
G1 X17.500 Y103.167 Z-12.000 F1200.000 
G1 X17.939 Y102.727 
G1 X17.500 Y103.167 
G1 X17.500 Y120.000 Z-12.000 F1200.000 
G2 X19.000 Y121.500 Z-12.000 I1.500 J-0.000 F1200.000 
G1 X151.000 Y121.500 Z-12.000 F1200.000 
G2 X152.491 Y120.166 Z-12.000 I-0.000 J-1.500 F1200.000 
G0 Z5.000 
G0 Z5.000 
(finish operation: DressupDogbone010)
(begin postamble)
M05
G17 G54 G90 G80 G40
M2
